(G-CODE GENERATED BY FLATCAM v2022 - www.flatcam.org - Version Date: 2021/12/01)

(Name: Job_AlignDrill)
(Type: G-code from Excellon)
(Units: MM)

(Created on Friday, 12 April 2024 at 13:33)

(Feedrate: 240 mm/min)
(Feedrate rapids 1500 mm/min)

(Z_Cut: -3.9 mm)
(Z_Move: 1 mm)
(Z Toolchange: 15 mm)
(X,Y Toolchange: None mm)
(Z Start: None mm)
(Z End: 0.5 mm)
(Steps per circle: 64)
(Preprocessor Excellon: default)

(X range:   -0.4000 ...  100.4000  mm)
(Y range:   -0.4000 ...  150.4000  mm)

(Spindle Speed: 0 RPM)
G21
G90
G94




G01 F240.00
G00 Z1.0000

M03
G4 P1.0
G00 X0.1000 Y0.1000
G01 Z-3.9000
G01 Z0
G00 Z1.0000
G00 X99.9000 Y0.1000
G01 Z-3.9000
G01 Z0
G00 Z1.0000
G00 X60.0000 Y149.9000
G01 Z-3.9000
G01 Z0
G00 Z1.0000
G00 X40.0000 Y149.9000
G01 Z-3.9000
G01 Z0
G00 Z1.0000
M05
G00 Z0.50

