(G-CODE GENERATED BY FLATCAM v2022 - www.flatcam.org - Version Date: 2021/12/01)

(Name: Job_FCu_Engraving)
(Type: G-code from Geometry)
(Units: MM)

(Created on Friday, 12 April 2024 at 13:33)

(TOOL DIAMETER: 0.199 mm)
(Feedrate: 2500.0 mm/min)
(Feedrate_Z: 250.0 mm/min)
(Feedrate rapids 1500.0 mm/min)

(Z_Cut: -0.04 mm)
(Z_Move: 0.5 mm)
(Z Toolchange: 15.0 mm)
(X,Y Toolchange: 0.0000, 0.0000 mm)
(Z Start: 0.5 mm)
(Z End: 2.0 mm)
(Steps per circle: 64)
(Preprocessor Geometry: default)

(X range:    5.8445 ...   93.4755  mm)
(Y range:    5.8445 ...  143.8055  mm)

(Spindle Speed: None RPM)
G21
G90
G94




G01 F2500.00
G00 Z0.5000
G00 Z0.5000
M03
G4 P1.0
G00 X5.8445 Y5.8445
G01 F250.00
G01 Z-0.0400
G01 F2500.00
G01 X5.8445 Y143.8055
G01 X93.4755 Y143.8055
G01 X93.4755 Y5.8445
G01 X5.8445 Y5.8445
G01 X5.9122 Y5.9122
G01 X5.9122 Y143.7379
G01 X93.4079 Y143.7379
G01 X93.4079 Y5.9122
G01 X5.9122 Y5.9122
G01 X5.9798 Y5.9798
G01 X5.9798 Y143.6702
G01 X93.3402 Y143.6702
G01 X93.3402 Y5.9798
G01 X5.9798 Y5.9798
G01 X6.0475 Y6.2573
G01 X6.0981 Y6.1816
G01 X6.1054 Y6.1712
G01 X6.1135 Y6.1608
G01 X6.1259 Y6.1463
G01 X6.1392 Y6.1325
G01 X6.1582 Y6.1156
G01 X6.1726 Y6.1044
G01 X6.2573 Y6.0475
G01 X6.0475 Y6.0475
G01 X6.0475 Y6.2573
G00 Z0.5000
G00 X11.4354 Y11.6153
G01 F250.00
G01 Z-0.0400
G01 F2500.00
G01 X11.4162 Y11.8707
G01 X11.4354 Y12.1261
G01 X11.4924 Y12.3759
G01 X11.5859 Y12.6143
G01 X11.7140 Y12.8361
G01 X11.8737 Y13.0364
G01 X12.0615 Y13.2106
G01 X12.2731 Y13.3549
G01 X12.5039 Y13.4660
G01 X12.7487 Y13.5415
G01 X13.0019 Y13.5797
G01 X13.2581 Y13.5797
G01 X13.5114 Y13.5415
G01 X13.7561 Y13.4660
G01 X13.9869 Y13.3549
G01 X14.1985 Y13.2106
G01 X14.3863 Y13.0364
G01 X14.5460 Y12.8361
G01 X14.6741 Y12.6143
G01 X14.7677 Y12.3759
G01 X14.8247 Y12.1261
G01 X14.8438 Y11.8707
G01 X14.8247 Y11.6153
G01 X14.7677 Y11.3656
G01 X14.6741 Y11.1271
G01 X14.5460 Y10.9053
G01 X14.3863 Y10.7050
G01 X14.1985 Y10.5308
G01 X13.9869 Y10.3865
G01 X13.7561 Y10.2754
G01 X13.5114 Y10.1999
G01 X13.2581 Y10.1617
G01 X13.0019 Y10.1617
G01 X12.7487 Y10.1999
G01 X12.5039 Y10.2754
G01 X12.2731 Y10.3865
G01 X12.0615 Y10.5308
G01 X11.8737 Y10.7050
G01 X11.7140 Y10.9053
G01 X11.5859 Y11.1271
G01 X11.4924 Y11.3656
G01 X11.4354 Y11.6153
G01 X11.5025 Y11.6254
G01 X11.4841 Y11.8707
G01 X11.5025 Y12.1160
G01 X11.5572 Y12.3559
G01 X11.6471 Y12.5849
G01 X11.7701 Y12.7979
G01 X11.9235 Y12.9902
G01 X12.1038 Y13.1576
G01 X12.3070 Y13.2961
G01 X12.5287 Y13.4029
G01 X12.7638 Y13.4754
G01 X13.0070 Y13.5121
G01 X13.2530 Y13.5121
G01 X13.4963 Y13.4754
G01 X13.7313 Y13.4029
G01 X13.9530 Y13.2961
G01 X14.1562 Y13.1576
G01 X14.3366 Y12.9902
G01 X14.4900 Y12.7979
G01 X14.6130 Y12.5849
G01 X14.7028 Y12.3559
G01 X14.7576 Y12.1160
G01 X14.7760 Y11.8707
G01 X14.7576 Y11.6254
G01 X14.7028 Y11.3856
G01 X14.6130 Y11.1566
G01 X14.4900 Y10.9435
G01 X14.3366 Y10.7512
G01 X14.1562 Y10.5839
G01 X13.9530 Y10.4453
G01 X13.7313 Y10.3385
G01 X13.4963 Y10.2660
G01 X13.2530 Y10.2294
G01 X13.0070 Y10.2294
G01 X12.7638 Y10.2660
G01 X12.5287 Y10.3385
G01 X12.3070 Y10.4453
G01 X12.1038 Y10.5839
G01 X11.9235 Y10.7512
G01 X11.7701 Y10.9435
G01 X11.6471 Y11.1566
G01 X11.5572 Y11.3856
G01 X11.5025 Y11.6254
G01 X11.5695 Y11.6355
G01 X11.5519 Y11.8707
G01 X11.5695 Y12.1059
G01 X11.6220 Y12.3359
G01 X11.7082 Y12.5554
G01 X11.8261 Y12.7597
G01 X11.9732 Y12.9441
G01 X12.1461 Y13.1045
G01 X12.3410 Y13.2374
G01 X12.5535 Y13.3397
G01 X12.7789 Y13.4092
G01 X13.0121 Y13.4444
G01 X13.2479 Y13.4444
G01 X13.4812 Y13.4092
G01 X13.7066 Y13.3397
G01 X13.9191 Y13.2374
G01 X14.1139 Y13.1045
G01 X14.2868 Y12.9441
G01 X14.4339 Y12.7597
G01 X14.5518 Y12.5554
G01 X14.6380 Y12.3359
G01 X14.6905 Y12.1059
G01 X14.7081 Y11.8707
G01 X14.6905 Y11.6355
G01 X14.6380 Y11.4056
G01 X14.5518 Y11.1860
G01 X14.4339 Y10.9817
G01 X14.2868 Y10.7973
G01 X14.1139 Y10.6369
G01 X13.9191 Y10.5040
G01 X13.7066 Y10.4017
G01 X13.4812 Y10.3322
G01 X13.2479 Y10.2970
G01 X13.0121 Y10.2970
G01 X12.7789 Y10.3322
G01 X12.5535 Y10.4017
G01 X12.3410 Y10.5040
G01 X12.1461 Y10.6369
G01 X11.9732 Y10.7973
G01 X11.8261 Y10.9817
G01 X11.7082 Y11.1860
G01 X11.6220 Y11.4056
G01 X11.5695 Y11.6355
G01 X11.6019 Y11.7299
G01 X11.6040 Y11.7088
G01 X11.6227 Y11.5826
G01 X11.6244 Y11.5727
G01 X11.6272 Y11.5600
G01 X11.6582 Y11.4363
G01 X11.6628 Y11.4205
G01 X11.7079 Y11.2941
G01 X11.7119 Y11.2837
G01 X11.7167 Y11.2728
G01 X11.7748 Y11.1503
G01 X11.7821 Y11.1372
G01 X11.8477 Y11.0277
G01 X11.8605 Y11.0086
G01 X11.9365 Y10.9061
G01 X11.9468 Y10.8933
G01 X12.0373 Y10.7932
G01 X12.0531 Y10.7775
G01 X12.1476 Y10.6918
G01 X12.1558 Y10.6848
G01 X12.1654 Y10.6772
G01 X12.2679 Y10.6012
G01 X12.2870 Y10.5884
G01 X12.4023 Y10.5195
G01 X12.4168 Y10.5119
G01 X12.5415 Y10.4532
G01 X12.5534 Y10.4486
G01 X12.6735 Y10.4056
G01 X12.6892 Y10.4007
G01 X12.8201 Y10.3677
G01 X12.8419 Y10.3634
G01 X12.9681 Y10.3447
G01 X12.9787 Y10.3434
G01 X12.9911 Y10.3424
G01 X13.1185 Y10.3362
G01 X13.1317 Y10.3359
G01 X13.1415 Y10.3362
G01 X13.2690 Y10.3424
G01 X13.2797 Y10.3432
G01 X13.2919 Y10.3447
G01 X13.4190 Y10.3635
G01 X13.4406 Y10.3679
G01 X13.5708 Y10.4007
G01 X13.5865 Y10.4056
G01 X13.7066 Y10.4486
G01 X13.7170 Y10.4526
G01 X13.7279 Y10.4574
G01 X13.8510 Y10.5158
G01 X13.8636 Y10.5228
G01 X13.9730 Y10.5884
G01 X13.9881 Y10.5983
G01 X14.0953 Y10.6777
G01 X14.1124 Y10.6918
G01 X14.2069 Y10.7775
G01 X14.2165 Y10.7866
G01 X14.3089 Y10.8883
G01 X14.3230 Y10.9054
G01 X14.4049 Y11.0163
G01 X14.4123 Y11.0277
G01 X14.4779 Y11.1372
G01 X14.4888 Y11.1575
G01 X14.5433 Y11.2728
G01 X14.5481 Y11.2837
G01 X14.5521 Y11.2941
G01 X14.5951 Y11.4142
G01 X14.5984 Y11.4241
G01 X14.6018 Y11.4363
G01 X14.6328 Y11.5600
G01 X14.6356 Y11.5727
G01 X14.6560 Y11.7088
G01 X14.6576 Y11.7217
G01 X14.6583 Y11.7318
G01 X14.6645 Y11.8592
G01 X14.6648 Y11.8724
G01 X14.6583 Y12.0097
G01 X14.6574 Y12.0216
G01 X14.6560 Y12.0326
G01 X14.6357 Y12.1682
G01 X14.6328 Y12.1813
G01 X14.6018 Y12.3051
G01 X14.5984 Y12.3173
G01 X14.5951 Y12.3272
G01 X14.5521 Y12.4473
G01 X14.5481 Y12.4577
G01 X14.5433 Y12.4686
G01 X14.4888 Y12.5839
G01 X14.4779 Y12.6043
G01 X14.4077 Y12.7210
G01 X14.3995 Y12.7328
G01 X14.3235 Y12.8354
G01 X14.3130 Y12.8484
G01 X14.2227 Y12.9483
G01 X14.2069 Y12.9639
G01 X14.1124 Y13.0496
G01 X14.1006 Y13.0596
G01 X13.9921 Y13.1402
G01 X13.9730 Y13.1530
G01 X13.8578 Y13.2219
G01 X13.8432 Y13.2295
G01 X13.7279 Y13.2840
G01 X13.7072 Y13.2926
G01 X13.5766 Y13.3391
G01 X13.5644 Y13.3425
G01 X13.4406 Y13.3735
G01 X13.4190 Y13.3779
G01 X13.2919 Y13.3967
G01 X13.2809 Y13.3981
G01 X13.2690 Y13.3990
G01 X13.1415 Y13.4052
G01 X13.1284 Y13.4055
G01 X13.1185 Y13.4052
G01 X12.9810 Y13.3983
G01 X12.9681 Y13.3967
G01 X12.8419 Y13.3780
G01 X12.8320 Y13.3763
G01 X12.8193 Y13.3735
G01 X12.6956 Y13.3425
G01 X12.6834 Y13.3391
G01 X12.5528 Y13.2926
G01 X12.5321 Y13.2840
G01 X12.4076 Y13.2248
G01 X12.3965 Y13.2186
G01 X12.2870 Y13.1530
G01 X12.2679 Y13.1402
G01 X12.1595 Y13.0596
G01 X12.1476 Y13.0496
G01 X12.0531 Y12.9639
G01 X12.0436 Y12.9548
G01 X12.0368 Y12.9476
G01 X11.9511 Y12.8531
G01 X11.9411 Y12.8413
G01 X11.8605 Y12.7328
G01 X11.8477 Y12.7137
G01 X11.7821 Y12.6043
G01 X11.7759 Y12.5931
G01 X11.7167 Y12.4686
G01 X11.7119 Y12.4577
G01 X11.7079 Y12.4473
G01 X11.6649 Y12.3272
G01 X11.6600 Y12.3115
G01 X11.6272 Y12.1813
G01 X11.6228 Y12.1597
G01 X11.6029 Y12.0237
G01 X11.6017 Y12.0097
G01 X11.5955 Y11.8822
G01 X11.5954 Y11.8617
G01 X11.6019 Y11.7299
G01 X11.6694 Y11.7342
G01 X11.6709 Y11.7188
G01 X11.6908 Y11.5860
G01 X11.6928 Y11.5765
G01 X11.7238 Y11.4527
G01 X11.7286 Y11.4370
G01 X11.7746 Y11.3092
G01 X11.8324 Y11.1864
G01 X11.8401 Y11.1720
G01 X11.9076 Y11.0596
G01 X11.9148 Y11.0489
G01 X11.9908 Y10.9464
G01 X12.0012 Y10.9337
G01 X12.0869 Y10.8392
G01 X12.0938 Y10.8321
G01 X12.1930 Y10.7419
G01 X12.2057 Y10.7315
G01 X12.3109 Y10.6536
G01 X12.3218 Y10.6464
G01 X12.4313 Y10.5808
G01 X12.4428 Y10.5746
G01 X12.5685 Y10.5153
G01 X12.6963 Y10.4693
G01 X12.7120 Y10.4645
G01 X12.8420 Y10.4321
G01 X12.8519 Y10.4303
G01 X12.9781 Y10.4116
G01 X12.9944 Y10.4100
G01 X13.1218 Y10.4038
G01 X13.1317 Y10.4036
G01 X13.2656 Y10.4100
G01 X13.2820 Y10.4116
G01 X13.4138 Y10.4313
G01 X13.4242 Y10.4335
G01 X13.5480 Y10.4645
G01 X13.5637 Y10.4693
G01 X13.6915 Y10.5153
G01 X13.8143 Y10.5731
G01 X13.8288 Y10.5808
G01 X13.9382 Y10.6465
G01 X13.9491 Y10.6536
G01 X14.0549 Y10.7320
G01 X14.0670 Y10.7419
G01 X14.1615 Y10.8276
G01 X14.1686 Y10.8345
G01 X14.2588 Y10.9337
G01 X14.2688 Y10.9459
G01 X14.3484 Y11.0534
G01 X14.3543 Y11.0625
G01 X14.4199 Y11.1720
G01 X14.4276 Y11.1864
G01 X14.4855 Y11.3092
G01 X14.5314 Y11.4370
G01 X14.5362 Y11.4527
G01 X14.5672 Y11.5765
G01 X14.5693 Y11.5860
G01 X14.5891 Y11.7188
G01 X14.5907 Y11.7351
G01 X14.5970 Y11.8625
G01 X14.5972 Y11.8724
G01 X14.5907 Y12.0063
G01 X14.5891 Y12.0227
G01 X14.5694 Y12.1545
G01 X14.5672 Y12.1649
G01 X14.5362 Y12.2887
G01 X14.5314 Y12.3044
G01 X14.4855 Y12.4322
G01 X14.4276 Y12.5550
G01 X14.4199 Y12.5695
G01 X14.3517 Y12.6831
G01 X14.3452 Y12.6925
G01 X14.2691 Y12.7951
G01 X14.2588 Y12.8077
G01 X14.1731 Y12.9022
G01 X14.1663 Y12.9093
G01 X14.0670 Y12.9995
G01 X14.0549 Y13.0095
G01 X13.9473 Y13.0891
G01 X13.9382 Y13.0950
G01 X13.8288 Y13.1606
G01 X13.8143 Y13.1683
G01 X13.6915 Y13.2262
G01 X13.5637 Y13.2721
G01 X13.5480 Y13.2769
G01 X13.4242 Y13.3079
G01 X13.4138 Y13.3101
G01 X13.2820 Y13.3298
G01 X13.2656 Y13.3314
G01 X13.1382 Y13.3377
G01 X13.1284 Y13.3379
G01 X12.9944 Y13.3314
G01 X12.9781 Y13.3298
G01 X12.8453 Y13.3100
G01 X12.8358 Y13.3079
G01 X12.7120 Y13.2769
G01 X12.6963 Y13.2721
G01 X12.5685 Y13.2262
G01 X12.4457 Y13.1683
G01 X12.4313 Y13.1606
G01 X12.3178 Y13.0925
G01 X12.3082 Y13.0859
G01 X12.2056 Y13.0098
G01 X12.1930 Y12.9995
G01 X12.0985 Y12.9138
G01 X12.0914 Y12.9070
G01 X12.0012 Y12.8077
G01 X11.9909 Y12.7951
G01 X11.9148 Y12.6925
G01 X11.9075 Y12.6817
G01 X11.8401 Y12.5695
G01 X11.8324 Y12.5550
G01 X11.7746 Y12.4322
G01 X11.7286 Y12.3044
G01 X11.7238 Y12.2887
G01 X11.6928 Y12.1649
G01 X11.6906 Y12.1545
G01 X11.6709 Y12.0227
G01 X11.6693 Y12.0063
G01 X11.6631 Y11.8789
G01 X11.6629 Y11.8691
G01 X11.6694 Y11.7342
G00 Z0.5000
G00 X11.7370 Y11.7384
G01 F250.00
G01 Z-0.0400
G01 F2500.00
G01 X11.7378 Y11.7287
G01 X11.7574 Y11.5976
G01 X11.7895 Y11.4692
G01 X11.7923 Y11.4598
G01 X11.8366 Y11.3363
G01 X11.8944 Y11.2137
G01 X11.8982 Y11.2067
G01 X11.9638 Y11.0973
G01 X11.9692 Y11.0892
G01 X12.0452 Y10.9867
G01 X12.0514 Y10.9792
G01 X12.1404 Y10.8811
G01 X12.2403 Y10.7905
G01 X12.2460 Y10.7859
G01 X12.3485 Y10.7099
G01 X12.3566 Y10.7045
G01 X12.4660 Y10.6389
G01 X12.4747 Y10.6343
G01 X12.5956 Y10.5773
G01 X12.7191 Y10.5330
G01 X12.7285 Y10.5302
G01 X12.8569 Y10.4981
G01 X12.9904 Y10.4782
G01 X12.9977 Y10.4776
G01 X13.1300 Y10.4712
G01 X13.2648 Y10.4777
G01 X13.2720 Y10.4785
G01 X13.4000 Y10.4975
G01 X13.4078 Y10.4992
G01 X13.5316 Y10.5302
G01 X13.5409 Y10.5330
G01 X13.6645 Y10.5773
G01 X13.7873 Y10.6352
G01 X13.7940 Y10.6389
G01 X13.9034 Y10.7045
G01 X13.9115 Y10.7099
G01 X14.0144 Y10.7862
G01 X14.0215 Y10.7921
G01 X14.1196 Y10.8811
G01 X14.2087 Y10.9792
G01 X14.2145 Y10.9863
G01 X14.2918 Y11.0905
G01 X14.2963 Y11.0973
G01 X14.3619 Y11.2067
G01 X14.3655 Y11.2134
G01 X14.4234 Y11.3363
G01 X14.4693 Y11.4648
G01 X14.5026 Y11.5976
G01 X14.5228 Y11.7334
G01 X14.5295 Y11.8707
G01 X14.5228 Y12.0071
G01 X14.5032 Y12.1407
G01 X14.5016 Y12.1485
G01 X14.4693 Y12.2767
G01 X14.4234 Y12.4052
G01 X14.3665 Y12.5261
G01 X14.3619 Y12.5347
G01 X14.2956 Y12.6452
G01 X14.2908 Y12.6522
G01 X14.2148 Y12.7547
G01 X14.2087 Y12.7622
G01 X14.1196 Y12.8603
G01 X14.0215 Y12.9494
G01 X14.0144 Y12.9552
G01 X13.9102 Y13.0325
G01 X13.9034 Y13.0370
G01 X13.7940 Y13.1026
G01 X13.7854 Y13.1072
G01 X13.6645 Y13.1641
G01 X13.5360 Y13.2100
G01 X13.4078 Y13.2423
G01 X13.4000 Y13.2439
G01 X13.2664 Y13.2635
G01 X13.1300 Y13.2702
G01 X12.9927 Y13.2635
G01 X12.8569 Y13.2433
G01 X12.7241 Y13.2100
G01 X12.5956 Y13.1641
G01 X12.4727 Y13.1062
G01 X12.4660 Y13.1026
G01 X12.3557 Y13.0364
G01 X12.3485 Y13.0315
G01 X12.2456 Y12.9552
G01 X12.2385 Y12.9494
G01 X12.1404 Y12.8603
G01 X12.0514 Y12.7622
G01 X12.0455 Y12.7551
G01 X11.9692 Y12.6522
G01 X11.9638 Y12.6441
G01 X11.8982 Y12.5347
G01 X11.8945 Y12.5280
G01 X11.8366 Y12.4052
G01 X11.7923 Y12.2816
G01 X11.7895 Y12.2723
G01 X11.7585 Y12.1485
G01 X11.7568 Y12.1407
G01 X11.7375 Y12.0104
G01 X11.7369 Y12.0030
G01 X11.7305 Y11.8707
G01 X11.7370 Y11.7384
G00 Z0.5000
G00 X12.2731 Y15.4665
G01 F250.00
G01 Z-0.0400
G01 F2500.00
G01 X12.0615 Y15.6108
G01 X11.8737 Y15.7850
G01 X11.7140 Y15.9853
G01 X11.5859 Y16.2071
G01 X11.4924 Y16.4456
G01 X11.4354 Y16.6953
G01 X11.4162 Y16.9507
G01 X11.4354 Y17.2061
G01 X11.4924 Y17.4559
G01 X11.5859 Y17.6943
G01 X11.7140 Y17.9161
G01 X11.8737 Y18.1164
G01 X12.0615 Y18.2906
G01 X12.2731 Y18.4349
G01 X12.5039 Y18.5460
G01 X12.7487 Y18.6215
G01 X13.0019 Y18.6597
G01 X13.2581 Y18.6597
G01 X13.5114 Y18.6215
G01 X13.7561 Y18.5460
G01 X13.9869 Y18.4349
G01 X14.1985 Y18.2906
G01 X14.3863 Y18.1164
G01 X14.5460 Y17.9161
G01 X14.6741 Y17.6943
G01 X14.7677 Y17.4559
G01 X14.8247 Y17.2061
G01 X14.8438 Y16.9507
G01 X14.8247 Y16.6953
G01 X14.7677 Y16.4456
G01 X14.6741 Y16.2071
G01 X14.5460 Y15.9853
G01 X14.3863 Y15.7850
G01 X14.1985 Y15.6108
G01 X13.9869 Y15.4665
G01 X13.7561 Y15.3554
G01 X13.5114 Y15.2799
G01 X13.2581 Y15.2417
G01 X13.0019 Y15.2417
G01 X12.7487 Y15.2799
G01 X12.5039 Y15.3554
G01 X12.2731 Y15.4665
G01 X12.3070 Y15.5253
G01 X12.1038 Y15.6639
G01 X11.9235 Y15.8312
G01 X11.7701 Y16.0235
G01 X11.6471 Y16.2366
G01 X11.5572 Y16.4656
G01 X11.5025 Y16.7054
G01 X11.4841 Y16.9507
G01 X11.5025 Y17.1960
G01 X11.5572 Y17.4359
G01 X11.6471 Y17.6649
G01 X11.7701 Y17.8779
G01 X11.9235 Y18.0702
G01 X12.1038 Y18.2376
G01 X12.3070 Y18.3761
G01 X12.5287 Y18.4829
G01 X12.7638 Y18.5554
G01 X13.0070 Y18.5921
G01 X13.2530 Y18.5921
G01 X13.4963 Y18.5554
G01 X13.7313 Y18.4829
G01 X13.9530 Y18.3761
G01 X14.1562 Y18.2376
G01 X14.3366 Y18.0702
G01 X14.4900 Y17.8779
G01 X14.6130 Y17.6649
G01 X14.7028 Y17.4359
G01 X14.7576 Y17.1960
G01 X14.7760 Y16.9507
G01 X14.7576 Y16.7054
G01 X14.7028 Y16.4656
G01 X14.6130 Y16.2366
G01 X14.4900 Y16.0235
G01 X14.3366 Y15.8312
G01 X14.1562 Y15.6639
G01 X13.9530 Y15.5253
G01 X13.7313 Y15.4185
G01 X13.4963 Y15.3460
G01 X13.2530 Y15.3094
G01 X13.0070 Y15.3094
G01 X12.7638 Y15.3460
G01 X12.5287 Y15.4185
G01 X12.3070 Y15.5253
G01 X12.3410 Y15.5840
G01 X12.1461 Y15.7169
G01 X11.9732 Y15.8773
G01 X11.8261 Y16.0617
G01 X11.7082 Y16.2660
G01 X11.6220 Y16.4856
G01 X11.5695 Y16.7155
G01 X11.5519 Y16.9507
G01 X11.5695 Y17.1859
G01 X11.6220 Y17.4159
G01 X11.7082 Y17.6354
G01 X11.8261 Y17.8397
G01 X11.9732 Y18.0241
G01 X12.1461 Y18.1845
G01 X12.3410 Y18.3174
G01 X12.5535 Y18.4197
G01 X12.7789 Y18.4892
G01 X13.0121 Y18.5244
G01 X13.2479 Y18.5244
G01 X13.4812 Y18.4892
G01 X13.7066 Y18.4197
G01 X13.9191 Y18.3174
G01 X14.1139 Y18.1845
G01 X14.2868 Y18.0241
G01 X14.4339 Y17.8397
G01 X14.5518 Y17.6354
G01 X14.6380 Y17.4159
G01 X14.6905 Y17.1859
G01 X14.7081 Y16.9507
G01 X14.6905 Y16.7155
G01 X14.6380 Y16.4856
G01 X14.5518 Y16.2660
G01 X14.4339 Y16.0617
G01 X14.2868 Y15.8773
G01 X14.1139 Y15.7169
G01 X13.9191 Y15.5840
G01 X13.7066 Y15.4817
G01 X13.4812 Y15.4122
G01 X13.2479 Y15.3770
G01 X13.0121 Y15.3770
G01 X12.7789 Y15.4122
G01 X12.5535 Y15.4817
G01 X12.3410 Y15.5840
G00 Z0.5000
G00 X11.7370 Y16.8184
G01 F250.00
G01 Z-0.0400
G01 F2500.00
G01 X11.7378 Y16.8087
G01 X11.7574 Y16.6776
G01 X11.7895 Y16.5492
G01 X11.7923 Y16.5398
G01 X11.8366 Y16.4163
G01 X11.8944 Y16.2937
G01 X11.8982 Y16.2867
G01 X11.9638 Y16.1773
G01 X11.9692 Y16.1692
G01 X12.0452 Y16.0667
G01 X12.0514 Y16.0592
G01 X12.1404 Y15.9611
G01 X12.2403 Y15.8705
G01 X12.2460 Y15.8659
G01 X12.3485 Y15.7899
G01 X12.3566 Y15.7845
G01 X12.4660 Y15.7189
G01 X12.4747 Y15.7143
G01 X12.5956 Y15.6573
G01 X12.7191 Y15.6130
G01 X12.7285 Y15.6102
G01 X12.8569 Y15.5781
G01 X12.9904 Y15.5582
G01 X12.9977 Y15.5576
G01 X13.1300 Y15.5512
G01 X13.2648 Y15.5577
G01 X13.2720 Y15.5585
G01 X13.4000 Y15.5775
G01 X13.4078 Y15.5792
G01 X13.5316 Y15.6102
G01 X13.5409 Y15.6130
G01 X13.6645 Y15.6573
G01 X13.7873 Y15.7152
G01 X13.7940 Y15.7189
G01 X13.9034 Y15.7845
G01 X13.9115 Y15.7899
G01 X14.0144 Y15.8662
G01 X14.0215 Y15.8721
G01 X14.1196 Y15.9611
G01 X14.2087 Y16.0592
G01 X14.2145 Y16.0663
G01 X14.2918 Y16.1705
G01 X14.2963 Y16.1773
G01 X14.3619 Y16.2867
G01 X14.3655 Y16.2934
G01 X14.4234 Y16.4163
G01 X14.4693 Y16.5448
G01 X14.5026 Y16.6776
G01 X14.5228 Y16.8134
G01 X14.5295 Y16.9507
G01 X14.5228 Y17.0871
G01 X14.5032 Y17.2207
G01 X14.5016 Y17.2285
G01 X14.4693 Y17.3567
G01 X14.4234 Y17.4852
G01 X14.3665 Y17.6061
G01 X14.3619 Y17.6147
G01 X14.2956 Y17.7252
G01 X14.2908 Y17.7322
G01 X14.2148 Y17.8347
G01 X14.2087 Y17.8422
G01 X14.1196 Y17.9403
G01 X14.0215 Y18.0294
G01 X14.0144 Y18.0352
G01 X13.9102 Y18.1125
G01 X13.9034 Y18.1170
G01 X13.7940 Y18.1826
G01 X13.7854 Y18.1872
G01 X13.6645 Y18.2441
G01 X13.5360 Y18.2900
G01 X13.4078 Y18.3223
G01 X13.4000 Y18.3239
G01 X13.2664 Y18.3435
G01 X13.1300 Y18.3502
G01 X12.9927 Y18.3435
G01 X12.8569 Y18.3233
G01 X12.7241 Y18.2900
G01 X12.5956 Y18.2441
G01 X12.4727 Y18.1862
G01 X12.4660 Y18.1826
G01 X12.3557 Y18.1164
G01 X12.3485 Y18.1115
G01 X12.2456 Y18.0352
G01 X12.2385 Y18.0294
G01 X12.1404 Y17.9403
G01 X12.0514 Y17.8422
G01 X12.0455 Y17.8351
G01 X11.9692 Y17.7322
G01 X11.9638 Y17.7241
G01 X11.8982 Y17.6147
G01 X11.8945 Y17.6080
G01 X11.8366 Y17.4852
G01 X11.7923 Y17.3616
G01 X11.7895 Y17.3523
G01 X11.7585 Y17.2285
G01 X11.7568 Y17.2207
G01 X11.7375 Y17.0904
G01 X11.7369 Y17.0830
G01 X11.7305 Y16.9507
G01 X11.7370 Y16.8184
G00 Z0.5000
G00 X11.6694 Y16.8142
G01 F250.00
G01 Z-0.0400
G01 F2500.00
G01 X11.6709 Y16.7988
G01 X11.6908 Y16.6660
G01 X11.6928 Y16.6565
G01 X11.7238 Y16.5327
G01 X11.7286 Y16.5170
G01 X11.7746 Y16.3892
G01 X11.8324 Y16.2664
G01 X11.8401 Y16.2520
G01 X11.9076 Y16.1396
G01 X11.9148 Y16.1289
G01 X11.9908 Y16.0264
G01 X11.9991 Y16.0163
G01 X12.0869 Y15.9192
G01 X12.0985 Y15.9076
G01 X12.1980 Y15.8176
G01 X12.2057 Y15.8115
G01 X12.3082 Y15.7355
G01 X12.3218 Y15.7264
G01 X12.4341 Y15.6592
G01 X12.4457 Y15.6531
G01 X12.5685 Y15.5953
G01 X12.6963 Y15.5493
G01 X12.7120 Y15.5445
G01 X12.8358 Y15.5135
G01 X12.8453 Y15.5115
G01 X12.9781 Y15.4916
G01 X12.9944 Y15.4900
G01 X13.1284 Y15.4836
G01 X13.1382 Y15.4838
G01 X13.2722 Y15.4905
G01 X13.2820 Y15.4916
G01 X13.4082 Y15.5103
G01 X13.4242 Y15.5135
G01 X13.5512 Y15.5454
G01 X13.5637 Y15.5493
G01 X13.6838 Y15.5923
G01 X13.6990 Y15.5986
G01 X13.8199 Y15.6559
G01 X13.8288 Y15.6608
G01 X13.9382 Y15.7265
G01 X13.9491 Y15.7336
G01 X14.0549 Y15.8120
G01 X14.0670 Y15.8219
G01 X14.1615 Y15.9076
G01 X14.1686 Y15.9145
G01 X14.2588 Y16.0137
G01 X14.2688 Y16.0259
G01 X14.3484 Y16.1334
G01 X14.3543 Y16.1425
G01 X14.4199 Y16.2520
G01 X14.4248 Y16.2609
G01 X14.4822 Y16.3818
G01 X14.4884 Y16.3969
G01 X14.5336 Y16.5236
G01 X14.5362 Y16.5327
G01 X14.5672 Y16.6565
G01 X14.5704 Y16.6726
G01 X14.5899 Y16.8051
G01 X14.5907 Y16.8151
G01 X14.5970 Y16.9425
G01 X14.5972 Y16.9524
G01 X14.5907 Y17.0863
G01 X14.5891 Y17.1027
G01 X14.5694 Y17.2345
G01 X14.5672 Y17.2449
G01 X14.5362 Y17.3687
G01 X14.5314 Y17.3844
G01 X14.4855 Y17.5122
G01 X14.4276 Y17.6350
G01 X14.4215 Y17.6466
G01 X14.3541 Y17.7592
G01 X14.3452 Y17.7725
G01 X14.2667 Y17.8782
G01 X14.2588 Y17.8877
G01 X14.1731 Y17.9822
G01 X14.1615 Y17.9938
G01 X14.0646 Y18.0815
G01 X14.0549 Y18.0895
G01 X13.9473 Y18.1691
G01 X13.9382 Y18.1750
G01 X13.8288 Y18.2406
G01 X13.8143 Y18.2483
G01 X13.6915 Y18.3062
G01 X13.5637 Y18.3521
G01 X13.5480 Y18.3569
G01 X13.4242 Y18.3879
G01 X13.4138 Y18.3901
G01 X13.2820 Y18.4098
G01 X13.2656 Y18.4114
G01 X13.1382 Y18.4177
G01 X13.1284 Y18.4179
G01 X12.9944 Y18.4114
G01 X12.9781 Y18.4098
G01 X12.8453 Y18.3900
G01 X12.8358 Y18.3879
G01 X12.7120 Y18.3569
G01 X12.7029 Y18.3543
G01 X12.5762 Y18.3091
G01 X12.5611 Y18.3029
G01 X12.4402 Y18.2455
G01 X12.4313 Y18.2406
G01 X12.3218 Y18.1750
G01 X12.3082 Y18.1659
G01 X12.2025 Y18.0874
G01 X12.1930 Y18.0795
G01 X12.0985 Y17.9938
G01 X12.0914 Y17.9870
G01 X12.0012 Y17.8877
G01 X11.9909 Y17.8751
G01 X11.9148 Y17.7725
G01 X11.9075 Y17.7617
G01 X11.8401 Y17.6495
G01 X11.8324 Y17.6350
G01 X11.7746 Y17.5122
G01 X11.7286 Y17.3844
G01 X11.7247 Y17.3719
G01 X11.6928 Y17.2449
G01 X11.6906 Y17.2345
G01 X11.6701 Y17.0962
G01 X11.6693 Y17.0863
G01 X11.6629 Y16.9524
G01 X11.6631 Y16.9425
G01 X11.6694 Y16.8142
G01 X11.6019 Y16.8099
G01 X11.6040 Y16.7888
G01 X11.6227 Y16.6626
G01 X11.6244 Y16.6527
G01 X11.6272 Y16.6400
G01 X11.6582 Y16.5163
G01 X11.6628 Y16.5005
G01 X11.7081 Y16.3735
G01 X11.7167 Y16.3528
G01 X11.7756 Y16.2288
G01 X11.7821 Y16.2172
G01 X11.8477 Y16.1077
G01 X11.8605 Y16.0886
G01 X11.9395 Y15.9822
G01 X11.9511 Y15.9683
G01 X12.0368 Y15.8738
G01 X12.0459 Y15.8643
G01 X12.1479 Y15.7715
G01 X12.1654 Y15.7572
G01 X12.2679 Y15.6812
G01 X12.2814 Y15.6719
G01 X12.3965 Y15.6028
G01 X12.4168 Y15.5919
G01 X12.5321 Y15.5374
G01 X12.5430 Y15.5326
G01 X12.5534 Y15.5286
G01 X12.6735 Y15.4856
G01 X12.6892 Y15.4807
G01 X12.8201 Y15.4477
G01 X12.8419 Y15.4434
G01 X12.9681 Y15.4247
G01 X12.9787 Y15.4234
G01 X12.9911 Y15.4224
G01 X13.1185 Y15.4162
G01 X13.1317 Y15.4159
G01 X13.1415 Y15.4162
G01 X13.2780 Y15.4231
G01 X13.2919 Y15.4247
G01 X13.4275 Y15.4451
G01 X13.4406 Y15.4479
G01 X13.5708 Y15.4807
G01 X13.5865 Y15.4856
G01 X13.7066 Y15.5286
G01 X13.7170 Y15.5326
G01 X13.7279 Y15.5374
G01 X13.8524 Y15.5966
G01 X13.8636 Y15.6028
G01 X13.9787 Y15.6720
G01 X13.9921 Y15.6812
G01 X14.1006 Y15.7618
G01 X14.1124 Y15.7718
G01 X14.2069 Y15.8575
G01 X14.2165 Y15.8666
G01 X14.3089 Y15.9683
G01 X14.3189 Y15.9802
G01 X14.4049 Y16.0963
G01 X14.4123 Y16.1077
G01 X14.4779 Y16.2172
G01 X14.4841 Y16.2283
G01 X14.5433 Y16.3528
G01 X14.5481 Y16.3637
G01 X14.5521 Y16.3741
G01 X14.5984 Y16.5041
G01 X14.6018 Y16.5163
G01 X14.6328 Y16.6400
G01 X14.6356 Y16.6527
G01 X14.6560 Y16.7888
G01 X14.6576 Y16.8017
G01 X14.6645 Y16.9392
G01 X14.6648 Y16.9524
G01 X14.6583 Y17.0897
G01 X14.6574 Y17.1016
G01 X14.6560 Y17.1126
G01 X14.6357 Y17.2482
G01 X14.6328 Y17.2613
G01 X14.6018 Y17.3851
G01 X14.5984 Y17.3973
G01 X14.5521 Y17.5273
G01 X14.5481 Y17.5377
G01 X14.5433 Y17.5486
G01 X14.4888 Y17.6639
G01 X14.4812 Y17.6785
G01 X14.4077 Y17.8010
G01 X14.3995 Y17.8128
G01 X14.3235 Y17.9154
G01 X14.3130 Y17.9284
G01 X14.2232 Y18.0276
G01 X14.2141 Y18.0372
G01 X14.1124 Y18.1296
G01 X14.1006 Y18.1396
G01 X13.9845 Y18.2256
G01 X13.9730 Y18.2330
G01 X13.8636 Y18.2986
G01 X13.8492 Y18.3065
G01 X13.7279 Y18.3640
G01 X13.7170 Y18.3688
G01 X13.7066 Y18.3728
G01 X13.5766 Y18.4191
G01 X13.5644 Y18.4225
G01 X13.4406 Y18.4535
G01 X13.4275 Y18.4564
G01 X13.2919 Y18.4767
G01 X13.2809 Y18.4781
G01 X13.2690 Y18.4790
G01 X13.1317 Y18.4855
G01 X13.1185 Y18.4852
G01 X12.9810 Y18.4783
G01 X12.9681 Y18.4767
G01 X12.8320 Y18.4563
G01 X12.8193 Y18.4535
G01 X12.6956 Y18.4225
G01 X12.6834 Y18.4191
G01 X12.5534 Y18.3728
G01 X12.5430 Y18.3688
G01 X12.5321 Y18.3640
G01 X12.4091 Y18.3056
G01 X12.3965 Y18.2986
G01 X12.2799 Y18.2285
G01 X12.2679 Y18.2202
G01 X12.1595 Y18.1396
G01 X12.1476 Y18.1296
G01 X12.0459 Y18.0372
G01 X12.0368 Y18.0276
G01 X11.9470 Y17.9284
G01 X11.9370 Y17.9160
G01 X11.8567 Y17.8074
G01 X11.8477 Y17.7937
G01 X11.7821 Y17.6843
G01 X11.7759 Y17.6731
G01 X11.7167 Y17.5486
G01 X11.7119 Y17.5377
G01 X11.7079 Y17.5273
G01 X11.6628 Y17.4009
G01 X11.6582 Y17.3851
G01 X11.6272 Y17.2613
G01 X11.6244 Y17.2482
G01 X11.6029 Y17.1037
G01 X11.6017 Y17.0897
G01 X11.5952 Y16.9524
G01 X11.5955 Y16.9392
G01 X11.6019 Y16.8099
G00 Z0.5000
G00 X19.1600 Y18.4782
G01 F250.00
G01 Z-0.0400
G01 F2500.00
G01 X19.1413 Y18.7150
G01 X19.1600 Y18.9518
G01 X19.2154 Y19.1828
G01 X19.3063 Y19.4022
G01 X19.4304 Y19.6047
G01 X19.5847 Y19.7853
G01 X19.7653 Y19.9396
G01 X19.9678 Y20.0637
G01 X20.1873 Y20.1546
G01 X20.4182 Y20.2100
G01 X20.6550 Y20.2287
G01 X20.6732 Y20.2272
G01 X20.8918 Y20.2100
G01 X21.1228 Y20.1546
G01 X21.3422 Y20.0637
G01 X21.5447 Y19.9396
G01 X21.7253 Y19.7853
G01 X21.8796 Y19.6047
G01 X22.0037 Y19.4022
G01 X22.0946 Y19.1828
G01 X22.1500 Y18.9518
G01 X22.1687 Y18.7150
G01 X22.1500 Y18.4782
G01 X22.0946 Y18.2473
G01 X22.0037 Y18.0278
G01 X21.8796 Y17.8253
G01 X21.7253 Y17.6447
G01 X21.5447 Y17.4904
G01 X21.3422 Y17.3663
G01 X21.1228 Y17.2754
G01 X20.8918 Y17.2200
G01 X20.6550 Y17.2013
G01 X20.4182 Y17.2200
G01 X20.1873 Y17.2754
G01 X19.9678 Y17.3663
G01 X19.7653 Y17.4904
G01 X19.5847 Y17.6447
G01 X19.4304 Y17.8253
G01 X19.3063 Y18.0278
G01 X19.2154 Y18.2473
G01 X19.1600 Y18.4782
G01 X19.2270 Y18.4888
G01 X19.2092 Y18.7150
G01 X19.2270 Y18.9412
G01 X19.2800 Y19.1618
G01 X19.3668 Y19.3714
G01 X19.4853 Y19.5648
G01 X19.6327 Y19.7373
G01 X19.8052 Y19.8847
G01 X19.9986 Y20.0032
G01 X20.2082 Y20.0900
G01 X20.3185 Y20.1165
G01 X20.4288 Y20.1430
G01 X20.6550 Y20.1608
G01 X20.8812 Y20.1430
G01 X21.1018 Y20.0900
G01 X21.3114 Y20.0032
G01 X21.5048 Y19.8847
G01 X21.6773 Y19.7373
G01 X21.8247 Y19.5648
G01 X21.9432 Y19.3714
G01 X22.0300 Y19.1618
G01 X22.0830 Y18.9412
G01 X22.1008 Y18.7150
G01 X22.0830 Y18.4888
G01 X22.0300 Y18.2682
G01 X21.9432 Y18.0586
G01 X21.8247 Y17.8652
G01 X21.6773 Y17.6927
G01 X21.5048 Y17.5453
G01 X21.3114 Y17.4268
G01 X21.1018 Y17.3400
G01 X20.8812 Y17.2870
G01 X20.6550 Y17.2692
G01 X20.4288 Y17.2870
G01 X20.2082 Y17.3400
G01 X19.9986 Y17.4268
G01 X19.8052 Y17.5453
G01 X19.6327 Y17.6927
G01 X19.4853 Y17.8652
G01 X19.3668 Y18.0586
G01 X19.2800 Y18.2682
G01 X19.2270 Y18.4888
G01 X19.2940 Y18.4995
G01 X19.2771 Y18.7150
G01 X19.2940 Y18.9306
G01 X19.3445 Y19.1408
G01 X19.4273 Y19.3406
G01 X19.5402 Y19.5249
G01 X19.6807 Y19.6894
G01 X19.8451 Y19.8298
G01 X20.0294 Y19.9428
G01 X20.2292 Y20.0255
G01 X20.4395 Y20.0760
G01 X20.6550 Y20.0929
G01 X20.8706 Y20.0760
G01 X21.0808 Y20.0255
G01 X21.2806 Y19.9428
G01 X21.4649 Y19.8298
G01 X21.6294 Y19.6894
G01 X21.7698 Y19.5249
G01 X21.8828 Y19.3406
G01 X21.9655 Y19.1408
G01 X22.0160 Y18.9306
G01 X22.0329 Y18.7150
G01 X22.0160 Y18.4995
G01 X21.9655 Y18.2892
G01 X21.8828 Y18.0894
G01 X21.7698 Y17.9051
G01 X21.6294 Y17.7407
G01 X21.4649 Y17.6002
G01 X21.2806 Y17.4873
G01 X21.0808 Y17.4045
G01 X20.8706 Y17.3540
G01 X20.6550 Y17.3371
G01 X20.4395 Y17.3540
G01 X20.2292 Y17.4045
G01 X20.0294 Y17.4873
G01 X19.8451 Y17.6002
G01 X19.6807 Y17.7407
G01 X19.5402 Y17.9051
G01 X19.4273 Y18.0894
G01 X19.3445 Y18.2892
G01 X19.2940 Y18.4995
G01 X19.3259 Y18.5938
G01 X19.3280 Y18.5727
G01 X19.3439 Y18.4660
G01 X19.3457 Y18.4552
G01 X19.3484 Y18.4434
G01 X19.3746 Y18.3386
G01 X19.3792 Y18.3229
G01 X19.4177 Y18.2150
G01 X19.4217 Y18.2046
G01 X19.4265 Y18.1937
G01 X19.4762 Y18.0889
G01 X19.4835 Y18.0758
G01 X19.5391 Y17.9830
G01 X19.5518 Y17.9640
G01 X19.6166 Y17.8766
G01 X19.6266 Y17.8642
G01 X19.7034 Y17.7793
G01 X19.7193 Y17.7634
G01 X19.7995 Y17.6907
G01 X19.8114 Y17.6807
G01 X19.9040 Y17.6118
G01 X19.9232 Y17.5990
G01 X20.0215 Y17.5402
G01 X20.0361 Y17.5326
G01 X20.1430 Y17.4823
G01 X20.1550 Y17.4777
G01 X20.2566 Y17.4413
G01 X20.2722 Y17.4364
G01 X20.3841 Y17.4082
G01 X20.3952 Y17.4057
G01 X20.4060 Y17.4039
G01 X20.5127 Y17.3880
G01 X20.5233 Y17.3867
G01 X20.5357 Y17.3858
G01 X20.6435 Y17.3805
G01 X20.6567 Y17.3802
G01 X20.6665 Y17.3805
G01 X20.7744 Y17.3858
G01 X20.7851 Y17.3866
G01 X20.7973 Y17.3880
G01 X20.9041 Y17.4039
G01 X20.9140 Y17.4056
G01 X20.9267 Y17.4084
G01 X21.0314 Y17.4346
G01 X21.0471 Y17.4392
G01 X21.1551 Y17.4777
G01 X21.1655 Y17.4817
G01 X21.1764 Y17.4865
G01 X21.2826 Y17.5370
G01 X21.2943 Y17.5435
G01 X21.3870 Y17.5991
G01 X21.4024 Y17.6092
G01 X21.4934 Y17.6766
G01 X21.5105 Y17.6907
G01 X21.5905 Y17.7632
G01 X21.6000 Y17.7723
G01 X21.6793 Y17.8595
G01 X21.6934 Y17.8766
G01 X21.7582 Y17.9640
G01 X21.7674 Y17.9775
G01 X21.8268 Y18.0762
G01 X21.8374 Y18.0961
G01 X21.8836 Y18.1937
G01 X21.8884 Y18.2046
G01 X21.8924 Y18.2150
G01 X21.9287 Y18.3166
G01 X21.9320 Y18.3264
G01 X21.9354 Y18.3386
G01 X21.9617 Y18.4434
G01 X21.9643 Y18.4552
G01 X21.9822 Y18.5739
G01 X21.9843 Y18.5957
G01 X21.9895 Y18.7035
G01 X21.9898 Y18.7167
G01 X21.9843 Y18.8344
G01 X21.9820 Y18.8573
G01 X21.9645 Y18.9740
G01 X21.9617 Y18.9867
G01 X21.9354 Y19.0914
G01 X21.9320 Y19.1036
G01 X21.9287 Y19.1134
G01 X21.8924 Y19.2151
G01 X21.8884 Y19.2255
G01 X21.8836 Y19.2364
G01 X21.8374 Y19.3339
G01 X21.8317 Y19.3452
G01 X21.8265 Y19.3543
G01 X21.7710 Y19.4469
G01 X21.7621 Y19.4606
G01 X21.6934 Y19.5534
G01 X21.6793 Y19.5705
G01 X21.6068 Y19.6505
G01 X21.5977 Y19.6600
G01 X21.5105 Y19.7393
G01 X21.4934 Y19.7534
G01 X21.4060 Y19.8182
G01 X21.3925 Y19.8275
G01 X21.2938 Y19.8868
G01 X21.2739 Y19.8974
G01 X21.1764 Y19.9436
G01 X21.1655 Y19.9484
G01 X21.1551 Y19.9524
G01 X21.0534 Y19.9887
G01 X21.0436 Y19.9920
G01 X21.0314 Y19.9954
G01 X20.9267 Y20.0217
G01 X20.9140 Y20.0245
G01 X20.7961 Y20.0422
G01 X20.7744 Y20.0443
G01 X20.6665 Y20.0495
G01 X20.6534 Y20.0498
G01 X20.5357 Y20.0443
G01 X20.5127 Y20.0420
G01 X20.3952 Y20.0243
G01 X20.3834 Y20.0217
G01 X20.2786 Y19.9954
G01 X20.2574 Y19.9890
G01 X20.1544 Y19.9522
G01 X20.1337 Y19.9436
G01 X20.0361 Y19.8974
G01 X20.0249 Y19.8917
G01 X19.9231 Y19.8310
G01 X19.9040 Y19.8182
G01 X19.8114 Y19.7493
G01 X19.7995 Y19.7393
G01 X19.7195 Y19.6668
G01 X19.7038 Y19.6511
G01 X19.6307 Y19.5705
G01 X19.6207 Y19.5587
G01 X19.5518 Y19.4660
G01 X19.5390 Y19.4469
G01 X19.4802 Y19.3485
G01 X19.4726 Y19.3339
G01 X19.4265 Y19.2364
G01 X19.4179 Y19.2157
G01 X19.3792 Y19.1071
G01 X19.3746 Y19.0914
G01 X19.3484 Y18.9867
G01 X19.3440 Y18.9649
G01 X19.3269 Y18.8484
G01 X19.3258 Y18.8344
G01 X19.3205 Y18.7265
G01 X19.3204 Y18.7043
G01 X19.3259 Y18.5938
G01 X19.3934 Y18.5981
G01 X19.3950 Y18.5827
G01 X19.4120 Y18.4687
G01 X19.4402 Y18.3551
G01 X19.4450 Y18.3394
G01 X19.4843 Y18.2301
G01 X19.5338 Y18.1250
G01 X19.5415 Y18.1105
G01 X19.5996 Y18.0139
G01 X19.6061 Y18.0043
G01 X19.6705 Y17.9175
G01 X19.6808 Y17.9049
G01 X19.7557 Y17.8224
G01 X19.7648 Y17.8135
G01 X19.8449 Y17.7408
G01 X19.8570 Y17.7309
G01 X19.9470 Y17.6642
G01 X19.9579 Y17.6570
G01 X20.0505 Y17.6015
G01 X20.0620 Y17.5953
G01 X20.1701 Y17.5443
G01 X20.2794 Y17.5050
G01 X20.2951 Y17.5002
G01 X20.4087 Y17.4720
G01 X20.5227 Y17.4550
G01 X20.5390 Y17.4534
G01 X20.6468 Y17.4481
G01 X20.6567 Y17.4479
G01 X20.7710 Y17.4534
G01 X20.7874 Y17.4550
G01 X20.9007 Y17.4719
G01 X20.9102 Y17.4740
G01 X21.0149 Y17.5002
G01 X21.0306 Y17.5050
G01 X21.1400 Y17.5443
G01 X21.2456 Y17.5941
G01 X21.2595 Y17.6015
G01 X21.3524 Y17.6572
G01 X21.3633 Y17.6644
G01 X21.4530 Y17.7309
G01 X21.4651 Y17.7408
G01 X21.5451 Y17.8133
G01 X21.5522 Y17.8202
G01 X21.6292 Y17.9049
G01 X21.6395 Y17.9175
G01 X21.7039 Y18.0043
G01 X21.7112 Y18.0151
G01 X21.7685 Y18.1105
G01 X21.7762 Y18.1250
G01 X21.8257 Y18.2301
G01 X21.8650 Y18.3394
G01 X21.8698 Y18.3551
G01 X21.8980 Y18.4687
G01 X21.9151 Y18.5827
G01 X21.9167 Y18.5990
G01 X21.9220 Y18.7068
G01 X21.9222 Y18.7167
G01 X21.9167 Y18.8310
G01 X21.9151 Y18.8474
G01 X21.8981 Y18.9607
G01 X21.8960 Y18.9702
G01 X21.8698 Y19.0749
G01 X21.8650 Y19.0906
G01 X21.8257 Y19.2000
G01 X21.7762 Y19.3050
G01 X21.7685 Y19.3195
G01 X21.7112 Y19.4149
G01 X21.7039 Y19.4257
G01 X21.6395 Y19.5126
G01 X21.6292 Y19.5251
G01 X21.5567 Y19.6051
G01 X21.5498 Y19.6122
G01 X21.4651 Y19.6892
G01 X21.4526 Y19.6995
G01 X21.3657 Y19.7639
G01 X21.3549 Y19.7712
G01 X21.2595 Y19.8285
G01 X21.2450 Y19.8362
G01 X21.1400 Y19.8857
G01 X21.0306 Y19.9250
G01 X21.0149 Y19.9298
G01 X20.9102 Y19.9560
G01 X20.9007 Y19.9581
G01 X20.7874 Y19.9751
G01 X20.7710 Y19.9767
G01 X20.6632 Y19.9820
G01 X20.6534 Y19.9822
G01 X20.5390 Y19.9767
G01 X20.5227 Y19.9751
G01 X20.4087 Y19.9580
G01 X20.2951 Y19.9298
G01 X20.2794 Y19.9250
G01 X20.1701 Y19.8857
G01 X20.0650 Y19.8362
G01 X20.0505 Y19.8285
G01 X19.9579 Y19.7730
G01 X19.9470 Y19.7658
G01 X19.8570 Y19.6992
G01 X19.8449 Y19.6892
G01 X19.7649 Y19.6167
G01 X19.7578 Y19.6098
G01 X19.6808 Y19.5251
G01 X19.6709 Y19.5130
G01 X19.6030 Y19.4212
G01 X19.5970 Y19.4121
G01 X19.5415 Y19.3195
G01 X19.5338 Y19.3050
G01 X19.4843 Y19.2000
G01 X19.4450 Y19.0906
G01 X19.4402 Y19.0749
G01 X19.4140 Y18.9702
G01 X19.4119 Y18.9607
G01 X19.3950 Y18.8474
G01 X19.3934 Y18.8310
G01 X19.3881 Y18.7232
G01 X19.3879 Y18.7134
G01 X19.3934 Y18.5981
G00 Z0.5000
G00 X19.4610 Y18.6023
G01 F250.00
G01 Z-0.0400
G01 F2500.00
G01 X19.4619 Y18.5926
G01 X19.4786 Y18.4809
G01 X19.5059 Y18.3715
G01 X19.5087 Y18.3622
G01 X19.5464 Y18.2571
G01 X19.5958 Y18.1523
G01 X19.5996 Y18.1453
G01 X19.6556 Y18.0518
G01 X19.6605 Y18.0446
G01 X19.7251 Y17.9575
G01 X19.7310 Y17.9504
G01 X19.8036 Y17.8702
G01 X19.8102 Y17.8636
G01 X19.8904 Y17.7910
G01 X19.8975 Y17.7851
G01 X19.9846 Y17.7205
G01 X19.9927 Y17.7151
G01 X20.0853 Y17.6596
G01 X20.0939 Y17.6550
G01 X20.1971 Y17.6064
G01 X20.3022 Y17.5687
G01 X20.3115 Y17.5659
G01 X20.4209 Y17.5386
G01 X20.5350 Y17.5216
G01 X20.5423 Y17.5209
G01 X20.6550 Y17.5155
G01 X20.7702 Y17.5211
G01 X20.7774 Y17.5219
G01 X20.8891 Y17.5386
G01 X20.9985 Y17.5659
G01 X21.0078 Y17.5687
G01 X21.1129 Y17.6064
G01 X21.2177 Y17.6558
G01 X21.2247 Y17.6596
G01 X21.3182 Y17.7156
G01 X21.3254 Y17.7205
G01 X21.4125 Y17.7851
G01 X21.4197 Y17.7910
G01 X21.5032 Y17.8668
G01 X21.5790 Y17.9504
G01 X21.5849 Y17.9575
G01 X21.6495 Y18.0446
G01 X21.6549 Y18.0527
G01 X21.7121 Y18.1482
G01 X21.7637 Y18.2571
G01 X21.8030 Y18.3671
G01 X21.8314 Y18.4809
G01 X21.8485 Y18.5950
G01 X21.8491 Y18.6023
G01 X21.8545 Y18.7150
G01 X21.8491 Y18.8277
G01 X21.8481 Y18.8374
G01 X21.8314 Y18.9491
G01 X21.8030 Y19.0629
G01 X21.7637 Y19.1729
G01 X21.7121 Y19.2819
G01 X21.6550 Y19.3773
G01 X21.6495 Y19.3854
G01 X21.5849 Y19.4725
G01 X21.5790 Y19.4797
G01 X21.5032 Y19.5632
G01 X21.4197 Y19.6390
G01 X21.4125 Y19.6449
G01 X21.3254 Y19.7095
G01 X21.3173 Y19.7150
G01 X21.2219 Y19.7721
G01 X21.1129 Y19.8237
G01 X21.0029 Y19.8630
G01 X20.8891 Y19.8914
G01 X20.7751 Y19.9085
G01 X20.7677 Y19.9091
G01 X20.6550 Y19.9145
G01 X20.5423 Y19.9091
G01 X20.5326 Y19.9081
G01 X20.4209 Y19.8914
G01 X20.3071 Y19.8630
G01 X20.1971 Y19.8237
G01 X20.0882 Y19.7721
G01 X19.9927 Y19.7149
G01 X19.9846 Y19.7095
G01 X19.8975 Y19.6449
G01 X19.8904 Y19.6390
G01 X19.8068 Y19.5632
G01 X19.7310 Y19.4797
G01 X19.7251 Y19.4725
G01 X19.6595 Y19.3841
G01 X19.6551 Y19.3773
G01 X19.5996 Y19.2847
G01 X19.5950 Y19.2761
G01 X19.5464 Y19.1729
G01 X19.5087 Y19.0678
G01 X19.5059 Y19.0585
G01 X19.4786 Y18.9491
G01 X19.4616 Y18.8351
G01 X19.4609 Y18.8277
G01 X19.4555 Y18.7150
G01 X19.4610 Y18.6023
G00 Z0.5000
G00 X25.4639 Y13.2660
G01 F250.00
G01 Z-0.0400
G01 F2500.00
G01 X25.2483 Y13.2142
G01 X25.0434 Y13.1293
G01 X24.8543 Y13.0134
G01 X24.6856 Y12.8694
G01 X24.5416 Y12.7008
G01 X24.4257 Y12.5117
G01 X24.3408 Y12.3068
G01 X24.2891 Y12.0911
G01 X24.2717 Y11.8700
G01 X24.2891 Y11.6489
G01 X24.3408 Y11.4333
G01 X24.4257 Y11.2284
G01 X24.5416 Y11.0393
G01 X24.6856 Y10.8706
G01 X24.8543 Y10.7266
G01 X25.0434 Y10.6107
G01 X25.2483 Y10.5258
G01 X25.4639 Y10.4741
G01 X25.6850 Y10.4567
G01 X25.9061 Y10.4741
G01 X26.1218 Y10.5258
G01 X26.3267 Y10.6107
G01 X26.5158 Y10.7266
G01 X26.6844 Y10.8706
G01 X26.8284 Y11.0393
G01 X26.9443 Y11.2284
G01 X27.0292 Y11.4333
G01 X27.0810 Y11.6489
G01 X27.0984 Y11.8700
G01 X27.0810 Y12.0911
G01 X27.0292 Y12.3068
G01 X26.9443 Y12.5117
G01 X26.8284 Y12.7008
G01 X26.6844 Y12.8694
G01 X26.5158 Y13.0134
G01 X26.3267 Y13.1293
G01 X26.1218 Y13.2142
G01 X25.9061 Y13.2660
G01 X25.6850 Y13.2834
G01 X25.4639 Y13.2660
G01 X25.4745 Y13.1989
G01 X25.2692 Y13.1496
G01 X25.0742 Y13.0689
G01 X24.8942 Y12.9585
G01 X24.7336 Y12.8214
G01 X24.5965 Y12.6609
G01 X24.4862 Y12.4809
G01 X24.4054 Y12.2858
G01 X24.3561 Y12.0805
G01 X24.3395 Y11.8700
G01 X24.3561 Y11.6595
G01 X24.4054 Y11.4542
G01 X24.4862 Y11.2592
G01 X24.5965 Y11.0792
G01 X24.7336 Y10.9186
G01 X24.8942 Y10.7815
G01 X25.0742 Y10.6712
G01 X25.2692 Y10.5904
G01 X25.4745 Y10.5411
G01 X25.6850 Y10.5245
G01 X25.8955 Y10.5411
G01 X26.1008 Y10.5904
G01 X26.2959 Y10.6712
G01 X26.4759 Y10.7815
G01 X26.6364 Y10.9186
G01 X26.7735 Y11.0792
G01 X26.8839 Y11.2592
G01 X26.9646 Y11.4542
G01 X27.0139 Y11.6595
G01 X27.0305 Y11.8700
G01 X27.0139 Y12.0805
G01 X26.9646 Y12.2858
G01 X26.8839 Y12.4809
G01 X26.7735 Y12.6609
G01 X26.6364 Y12.8214
G01 X26.4759 Y12.9585
G01 X26.2958 Y13.0689
G01 X26.1008 Y13.1496
G01 X25.8955 Y13.1989
G01 X25.6850 Y13.2155
G01 X25.4745 Y13.1989
G01 X25.4852 Y13.1319
G01 X25.2902 Y13.0851
G01 X25.1050 Y13.0084
G01 X24.9340 Y12.9036
G01 X24.7816 Y12.7734
G01 X24.6514 Y12.6210
G01 X24.5466 Y12.4500
G01 X24.4699 Y12.2648
G01 X24.4231 Y12.0699
G01 X24.4074 Y11.8700
G01 X24.4231 Y11.6701
G01 X24.4699 Y11.4752
G01 X24.5466 Y11.2900
G01 X24.6514 Y11.1190
G01 X24.7816 Y10.9666
G01 X24.9340 Y10.8364
G01 X25.1050 Y10.7316
G01 X25.2902 Y10.6549
G01 X25.4851 Y10.6081
G01 X25.6850 Y10.5924
G01 X25.8849 Y10.6081
G01 X26.0798 Y10.6549
G01 X26.2650 Y10.7316
G01 X26.4360 Y10.8364
G01 X26.5884 Y10.9666
G01 X26.7186 Y11.1190
G01 X26.8234 Y11.2900
G01 X26.9001 Y11.4752
G01 X26.9469 Y11.6701
G01 X26.9626 Y11.8700
G01 X26.9469 Y12.0699
G01 X26.9001 Y12.2648
G01 X26.8234 Y12.4500
G01 X26.7186 Y12.6210
G01 X26.5884 Y12.7734
G01 X26.4360 Y12.9036
G01 X26.2650 Y13.0084
G01 X26.0798 Y13.0851
G01 X25.8849 Y13.1319
G01 X25.6850 Y13.1476
G01 X25.4852 Y13.1319
G00 Z0.5000
G00 X24.5905 Y11.7671
G01 F250.00
G01 Z-0.0400
G01 F2500.00
G01 X24.5914 Y11.7574
G01 X24.6061 Y11.6586
G01 X24.6077 Y11.6508
G01 X24.6328 Y11.5511
G01 X24.6674 Y11.4538
G01 X24.6712 Y11.4448
G01 X24.7161 Y11.3503
G01 X24.7682 Y11.2632
G01 X24.7736 Y11.2552
G01 X24.8324 Y11.1759
G01 X24.8383 Y11.1688
G01 X24.9075 Y11.0925
G01 X24.9838 Y11.0233
G01 X24.9909 Y11.0174
G01 X25.0702 Y10.9586
G01 X25.0782 Y10.9532
G01 X25.1653 Y10.9011
G01 X25.2663 Y10.8534
G01 X25.3661 Y10.8178
G01 X25.4658 Y10.7927
G01 X25.4736 Y10.7911
G01 X25.5748 Y10.7761
G01 X25.5821 Y10.7754
G01 X25.6850 Y10.7705
G01 X25.7903 Y10.7756
G01 X25.7976 Y10.7764
G01 X25.8996 Y10.7917
G01 X25.9995 Y10.8166
G01 X26.0068 Y10.8187
G01 X26.1046 Y10.8537
G01 X26.2047 Y10.9011
G01 X26.2918 Y10.9532
G01 X26.2999 Y10.9586
G01 X26.3791 Y11.0174
G01 X26.3862 Y11.0233
G01 X26.4625 Y11.0925
G01 X26.5317 Y11.1688
G01 X26.5379 Y11.1763
G01 X26.5964 Y11.2552
G01 X26.6018 Y11.2633
G01 X26.6523 Y11.3475
G01 X26.6569 Y11.3561
G01 X26.7013 Y11.4504
G01 X26.7356 Y11.5462
G01 X26.7385 Y11.5556
G01 X26.7623 Y11.6508
G01 X26.7639 Y11.6586
G01 X26.7792 Y11.7621
G01 X26.7845 Y11.8700
G01 X26.7792 Y11.9779
G01 X26.7634 Y12.0846
G01 X26.7385 Y12.1845
G01 X26.7356 Y12.1938
G01 X26.7013 Y12.2896
G01 X26.6559 Y12.3859
G01 X26.6523 Y12.3926
G01 X26.6012 Y12.4778
G01 X26.5964 Y12.4849
G01 X26.5376 Y12.5641
G01 X26.5317 Y12.5712
G01 X26.4625 Y12.6475
G01 X26.3862 Y12.7167
G01 X26.3791 Y12.7226
G01 X26.2999 Y12.7814
G01 X26.2917 Y12.7868
G01 X26.2076 Y12.8373
G01 X26.2009 Y12.8409
G01 X26.1046 Y12.8863
G01 X26.0088 Y12.9206
G01 X25.9995 Y12.9235
G01 X25.8996 Y12.9484
G01 X25.7929 Y12.9642
G01 X25.6850 Y12.9695
G01 X25.5771 Y12.9642
G01 X25.4736 Y12.9489
G01 X25.4658 Y12.9473
G01 X25.3706 Y12.9235
G01 X25.3612 Y12.9206
G01 X25.2654 Y12.8863
G01 X25.1694 Y12.8411
G01 X25.1625 Y12.8373
G01 X25.0772 Y12.7862
G01 X25.0702 Y12.7814
G01 X24.9913 Y12.7229
G01 X24.9838 Y12.7167
G01 X24.9075 Y12.6475
G01 X24.8383 Y12.5712
G01 X24.8324 Y12.5641
G01 X24.7736 Y12.4849
G01 X24.7682 Y12.4768
G01 X24.7161 Y12.3897
G01 X24.6687 Y12.2896
G01 X24.6337 Y12.1918
G01 X24.6316 Y12.1845
G01 X24.6067 Y12.0846
G01 X24.5914 Y11.9826
G01 X24.5904 Y11.9729
G01 X24.5855 Y11.8700
G01 X24.5905 Y11.7671
G00 Z0.5000
G00 X24.5230 Y11.7629
G01 F250.00
G01 Z-0.0400
G01 F2500.00
G01 X24.5181 Y11.8618
G01 X24.5181 Y11.8782
G01 X24.5229 Y11.9762
G01 X24.5241 Y11.9892
G01 X24.5389 Y12.0896
G01 X24.5421 Y12.1057
G01 X24.5659 Y12.2009
G01 X24.5687 Y12.2107
G01 X24.6067 Y12.3167
G01 X24.6520 Y12.4129
G01 X24.6597 Y12.4273
G01 X24.7120 Y12.5144
G01 X24.7193 Y12.5252
G01 X24.7778 Y12.6041
G01 X24.7881 Y12.6167
G01 X24.8585 Y12.6941
G01 X24.8656 Y12.7010
G01 X24.9384 Y12.7669
G01 X24.9484 Y12.7752
G01 X25.0299 Y12.8357
G01 X25.0435 Y12.8449
G01 X25.1277 Y12.8953
G01 X25.1370 Y12.9005
G01 X25.2309 Y12.9450
G01 X25.2460 Y12.9513
G01 X25.3416 Y12.9854
G01 X25.3541 Y12.9891
G01 X25.4493 Y13.0130
G01 X25.4598 Y13.0152
G01 X25.5625 Y13.0305
G01 X25.5721 Y13.0317
G01 X25.6768 Y13.0370
G01 X25.6932 Y13.0370
G01 X25.7980 Y13.0317
G01 X25.8076 Y13.0305
G01 X25.9046 Y13.0161
G01 X25.9207 Y13.0129
G01 X26.0191 Y12.9882
G01 X26.0316 Y12.9843
G01 X26.1317 Y12.9483
G01 X26.2279 Y12.9030
G01 X26.2423 Y12.8953
G01 X26.3265 Y12.8449
G01 X26.3374 Y12.8377
G01 X26.4191 Y12.7772
G01 X26.4317 Y12.7669
G01 X26.5091 Y12.6965
G01 X26.5160 Y12.6894
G01 X26.5819 Y12.6167
G01 X26.5898 Y12.6072
G01 X26.6507 Y12.5252
G01 X26.6599 Y12.5115
G01 X26.7103 Y12.4273
G01 X26.7152 Y12.4185
G01 X26.7600 Y12.3242
G01 X26.7663 Y12.3090
G01 X26.8004 Y12.2135
G01 X26.8041 Y12.2009
G01 X26.8279 Y12.1057
G01 X26.8300 Y12.0962
G01 X26.8455 Y11.9926
G01 X26.8472 Y11.9762
G01 X26.8522 Y11.8717
G01 X26.8520 Y11.8618
G01 X26.8472 Y11.7638
G01 X26.8455 Y11.7475
G01 X26.8302 Y11.6448
G01 X26.8280 Y11.6344
G01 X26.8041 Y11.5391
G01 X26.8004 Y11.5266
G01 X26.7663 Y11.4310
G01 X26.7600 Y11.4159
G01 X26.7166 Y11.3242
G01 X26.7103 Y11.3127
G01 X26.6599 Y11.2285
G01 X26.6507 Y11.2149
G01 X26.5923 Y11.1360
G01 X26.5819 Y11.1234
G01 X26.5115 Y11.0459
G01 X26.5044 Y11.0390
G01 X26.4317 Y10.9731
G01 X26.4196 Y10.9632
G01 X26.3402 Y10.9043
G01 X26.3294 Y10.8970
G01 X26.2423 Y10.8447
G01 X26.2279 Y10.8370
G01 X26.1317 Y10.7917
G01 X26.0316 Y10.7557
G01 X26.0159 Y10.7509
G01 X25.9207 Y10.7271
G01 X25.9112 Y10.7250
G01 X25.8076 Y10.7095
G01 X25.7912 Y10.7079
G01 X25.6867 Y10.7029
G01 X25.6768 Y10.7031
G01 X25.5788 Y10.7079
G01 X25.5689 Y10.7087
G01 X25.4648 Y10.7240
G01 X25.4494 Y10.7271
G01 X25.3541 Y10.7509
G01 X25.3450 Y10.7535
G01 X25.2460 Y10.7887
G01 X25.2309 Y10.7950
G01 X25.1344 Y10.8409
G01 X25.0435 Y10.8952
G01 X25.0326 Y10.9024
G01 X24.9505 Y10.9632
G01 X24.9384 Y10.9731
G01 X24.8609 Y11.0435
G01 X24.8540 Y11.0506
G01 X24.7881 Y11.1234
G01 X24.7782 Y11.1355
G01 X24.7174 Y11.2176
G01 X24.7102 Y11.2285
G01 X24.6559 Y11.3194
G01 X24.6100 Y11.4159
G01 X24.6049 Y11.4279
G01 X24.5707 Y11.5234
G01 X24.5675 Y11.5332
G01 X24.5421 Y11.6343
G01 X24.5398 Y11.6448
G01 X24.5245 Y11.7475
G01 X24.5230 Y11.7629
G01 X24.4554 Y11.7586
G01 X24.4553 Y11.7605
G01 X24.4502 Y11.8684
G01 X24.4505 Y11.8815
G01 X24.4553 Y11.9796
G01 X24.4575 Y12.0025
G01 X24.4719 Y12.0996
G01 X24.4743 Y12.1127
G01 X24.5003 Y12.2174
G01 X24.5070 Y12.2394
G01 X24.5400 Y12.3318
G01 X24.5441 Y12.3422
G01 X24.5489 Y12.3531
G01 X24.5928 Y12.4458
G01 X24.6017 Y12.4621
G01 X24.6522 Y12.5463
G01 X24.6611 Y12.5601
G01 X24.7239 Y12.6450
G01 X24.7380 Y12.6621
G01 X24.8107 Y12.7420
G01 X24.8202 Y12.7511
G01 X24.8929 Y12.8170
G01 X24.9107 Y12.8316
G01 X24.9896 Y12.8901
G01 X25.0014 Y12.8982
G01 X25.0929 Y12.9533
G01 X25.1129 Y12.9641
G01 X25.2019 Y13.0062
G01 X25.2128 Y13.0110
G01 X25.2232 Y13.0150
G01 X25.3156 Y13.0480
G01 X25.3377 Y13.0547
G01 X25.4329 Y13.0786
G01 X25.4460 Y13.0814
G01 X25.5525 Y13.0975
G01 X25.5654 Y13.0990
G01 X25.6834 Y13.1048
G01 X25.6965 Y13.1045
G01 X25.8046 Y13.0990
G01 X25.8175 Y13.0975
G01 X25.9245 Y13.0814
G01 X25.9372 Y13.0786
G01 X26.0388 Y13.0530
G01 X26.0544 Y13.0480
G01 X26.1468 Y13.0150
G01 X26.1572 Y13.0110
G01 X26.1681 Y13.0062
G01 X26.2645 Y12.9603
G01 X26.2771 Y12.9533
G01 X26.3669 Y12.8993
G01 X26.3805 Y12.8901
G01 X26.4652 Y12.8270
G01 X26.4771 Y12.8170
G01 X26.5570 Y12.7443
G01 X26.5661 Y12.7348
G01 X26.6320 Y12.6621
G01 X26.6420 Y12.6502
G01 X26.7051 Y12.5655
G01 X26.7132 Y12.5537
G01 X26.7683 Y12.4621
G01 X26.7746 Y12.4510
G01 X26.8212 Y12.3531
G01 X26.8260 Y12.3422
G01 X26.8300 Y12.3318
G01 X26.8630 Y12.2394
G01 X26.8680 Y12.2238
G01 X26.8936 Y12.1222
G01 X26.8964 Y12.1095
G01 X26.9125 Y12.0025
G01 X26.9140 Y11.9896
G01 X26.9195 Y11.8815
G01 X26.9198 Y11.8684
G01 X26.9147 Y11.7605
G01 X26.9137 Y11.7471
G01 X26.8964 Y11.6310
G01 X26.8936 Y11.6179
G01 X26.8697 Y11.5227
G01 X26.8651 Y11.5069
G01 X26.8300 Y11.4082
G01 X26.8260 Y11.3978
G01 X26.8212 Y11.3869
G01 X26.7792 Y11.2982
G01 X26.7716 Y11.2837
G01 X26.7179 Y11.1937
G01 X26.7089 Y11.1800
G01 X26.6466 Y11.0957
G01 X26.6364 Y11.0830
G01 X26.5661 Y11.0052
G01 X26.5570 Y10.9957
G01 X26.4771 Y10.9230
G01 X26.4652 Y10.9130
G01 X26.3805 Y10.8499
G01 X26.3670 Y10.8407
G01 X26.2680 Y10.7815
G01 X26.2568 Y10.7758
G01 X26.1681 Y10.7339
G01 X26.1572 Y10.7291
G01 X26.1468 Y10.7250
G01 X26.0446 Y10.6888
G01 X26.0324 Y10.6853
G01 X25.9372 Y10.6614
G01 X25.9245 Y10.6586
G01 X25.8175 Y10.6425
G01 X25.8036 Y10.6409
G01 X25.6965 Y10.6355
G01 X25.6834 Y10.6352
G01 X25.5755 Y10.6403
G01 X25.5615 Y10.6414
G01 X25.4460 Y10.6586
G01 X25.4329 Y10.6614
G01 X25.3377 Y10.6853
G01 X25.3255 Y10.6887
G01 X25.2232 Y10.7250
G01 X25.2128 Y10.7291
G01 X25.2019 Y10.7339
G01 X25.1132 Y10.7758
G01 X25.1020 Y10.7815
G01 X25.0087 Y10.8372
G01 X24.9950 Y10.8461
G01 X24.9100 Y10.9089
G01 X24.8977 Y10.9189
G01 X24.8202 Y10.9889
G01 X24.8107 Y10.9981
G01 X24.7380 Y11.0779
G01 X24.7280 Y11.0898
G01 X24.6649 Y11.1746
G01 X24.6557 Y11.1880
G01 X24.6017 Y11.2779
G01 X24.5957 Y11.2885
G01 X24.5908 Y11.2982
G01 X24.5489 Y11.3869
G01 X24.5424 Y11.4020
G01 X24.5070 Y11.5006
G01 X24.5028 Y11.5136
G01 X24.4764 Y11.6179
G01 X24.4733 Y11.6326
G01 X24.4575 Y11.7375
G01 X24.4554 Y11.7586
G00 Z0.5000
G00 X21.9884 Y27.7491
G01 F250.00
G01 Z-0.0400
G01 F2500.00
G01 X21.9857 Y27.7312
G01 X21.9834 Y27.7208
G01 X21.9802 Y27.7088
G01 X21.9757 Y27.6949
G01 X21.9712 Y27.6834
G01 X21.9673 Y27.6748
G01 X21.9621 Y27.6644
G01 X21.9559 Y27.6535
G01 X21.9451 Y27.6372
G01 X21.9336 Y27.6226
G01 X21.9191 Y27.6070
G01 X21.9044 Y27.5939
G01 X21.8897 Y27.5828
G01 X21.8804 Y27.5766
G01 X21.8706 Y27.5707
G01 X21.8573 Y27.5637
G01 X21.8476 Y27.5593
G01 X21.8319 Y27.5532
G01 X21.8212 Y27.5498
G01 X21.8093 Y27.5467
G01 X21.7946 Y27.5436
G01 X21.7816 Y27.5418
G01 X21.7717 Y27.5409
G01 X21.7550 Y27.5402
G01 X19.5531 Y27.5402
G01 X19.5332 Y27.5413
G01 X19.5233 Y27.5424
G01 X19.5112 Y27.5444
G01 X19.5008 Y27.5467
G01 X19.4852 Y27.5509
G01 X19.4657 Y27.5579
G01 X19.4560 Y27.5622
G01 X19.4428 Y27.5688
G01 X19.4297 Y27.5766
G01 X19.4203 Y27.5828
G01 X19.4100 Y27.5905
G01 X19.3960 Y27.6024
G01 X19.3824 Y27.6160
G01 X19.3705 Y27.6300
G01 X19.3628 Y27.6403
G01 X19.3566 Y27.6497
G01 X19.3507 Y27.6595
G01 X19.3437 Y27.6728
G01 X19.3393 Y27.6824
G01 X19.3345 Y27.6946
G01 X19.3309 Y27.7052
G01 X19.3267 Y27.7208
G01 X19.3244 Y27.7312
G01 X19.3224 Y27.7433
G01 X19.3213 Y27.7532
G01 X19.3202 Y27.7750
G01 X19.3203 Y29.9801
G01 X19.3218 Y30.0016
G01 X19.3236 Y30.0146
G01 X19.3258 Y30.0256
G01 X19.3309 Y30.0448
G01 X19.3345 Y30.0554
G01 X19.3393 Y30.0676
G01 X19.3437 Y30.0773
G01 X19.3507 Y30.0906
G01 X19.3566 Y30.1004
G01 X19.3628 Y30.1097
G01 X19.3739 Y30.1244
G01 X19.3870 Y30.1391
G01 X19.4026 Y30.1536
G01 X19.4194 Y30.1667
G01 X19.4316 Y30.1748
G01 X19.4401 Y30.1798
G01 X19.4548 Y30.1873
G01 X19.4634 Y30.1912
G01 X19.4749 Y30.1957
G01 X19.4853 Y30.1992
G01 X19.5008 Y30.2034
G01 X19.5112 Y30.2057
G01 X19.5233 Y30.2076
G01 X19.5332 Y30.2088
G01 X19.5550 Y30.2098
G01 X21.7601 Y30.2097
G01 X21.7816 Y30.2083
G01 X21.7946 Y30.2064
G01 X21.8056 Y30.2042
G01 X21.8247 Y30.1992
G01 X21.8352 Y30.1957
G01 X21.8467 Y30.1912
G01 X21.8657 Y30.1821
G01 X21.8765 Y30.1759
G01 X21.8835 Y30.1715
G01 X21.8951 Y30.1634
G01 X21.9041 Y30.1563
G01 X21.9183 Y30.1437
G01 X21.9263 Y30.1355
G01 X21.9363 Y30.1241
G01 X21.9434 Y30.1151
G01 X21.9499 Y30.1059
G01 X21.9598 Y30.0900
G01 X21.9673 Y30.0752
G01 X21.9712 Y30.0667
G01 X21.9757 Y30.0552
G01 X21.9792 Y30.0447
G01 X21.9842 Y30.0256
G01 X21.9864 Y30.0146
G01 X21.9883 Y30.0016
G01 X21.9897 Y29.9801
G01 X21.9898 Y27.7750
G01 X21.9890 Y27.7565
G01 X21.9884 Y27.7491
G01 X21.9212 Y27.7566
G01 X21.9194 Y27.7451
G01 X21.9148 Y27.7262
G01 X21.9125 Y27.7192
G01 X21.9067 Y27.7049
G01 X21.9003 Y27.6923
G01 X21.8908 Y27.6776
G01 X21.8826 Y27.6670
G01 X21.8713 Y27.6550
G01 X21.8621 Y27.6467
G01 X21.8522 Y27.6391
G01 X21.8429 Y27.6329
G01 X21.8363 Y27.6290
G01 X21.8263 Y27.6239
G01 X21.8109 Y27.6175
G01 X21.8038 Y27.6152
G01 X21.7919 Y27.6121
G01 X21.7845 Y27.6105
G01 X21.7683 Y27.6084
G01 X21.7550 Y27.6079
G01 X19.5550 Y27.6079
G01 X19.5403 Y27.6086
G01 X19.5251 Y27.6106
G01 X19.5062 Y27.6152
G01 X19.4901 Y27.6210
G01 X19.4737 Y27.6290
G01 X19.4672 Y27.6329
G01 X19.4578 Y27.6391
G01 X19.4510 Y27.6443
G01 X19.4403 Y27.6535
G01 X19.4335 Y27.6603
G01 X19.4243 Y27.6710
G01 X19.4191 Y27.6778
G01 X19.4129 Y27.6872
G01 X19.4090 Y27.6937
G01 X19.4010 Y27.7101
G01 X19.3952 Y27.7262
G01 X19.3906 Y27.7451
G01 X19.3886 Y27.7603
G01 X19.3879 Y27.7750
G01 X19.3879 Y29.9784
G01 X19.3891 Y29.9949
G01 X19.3921 Y30.0119
G01 X19.3952 Y30.0238
G01 X19.4010 Y30.0399
G01 X19.4090 Y30.0563
G01 X19.4129 Y30.0629
G01 X19.4191 Y30.0722
G01 X19.4267 Y30.0821
G01 X19.4384 Y30.0948
G01 X19.4470 Y30.1026
G01 X19.4532 Y30.1076
G01 X19.4641 Y30.1153
G01 X19.4766 Y30.1226
G01 X19.4906 Y30.1292
G01 X19.5062 Y30.1348
G01 X19.5181 Y30.1380
G01 X19.5336 Y30.1408
G01 X19.5513 Y30.1421
G01 X21.7550 Y30.1422
G01 X21.7683 Y30.1416
G01 X21.7845 Y30.1395
G01 X21.7919 Y30.1380
G01 X21.8038 Y30.1348
G01 X21.8194 Y30.1292
G01 X21.8334 Y30.1226
G01 X21.8468 Y30.1146
G01 X21.8560 Y30.1081
G01 X21.8620 Y30.1034
G01 X21.8704 Y30.0958
G01 X21.8758 Y30.0904
G01 X21.8834 Y30.0820
G01 X21.8881 Y30.0760
G01 X21.8946 Y30.0668
G01 X21.9026 Y30.0534
G01 X21.9092 Y30.0394
G01 X21.9148 Y30.0238
G01 X21.9180 Y30.0119
G01 X21.9195 Y30.0045
G01 X21.9216 Y29.9883
G01 X21.9222 Y29.9750
G01 X21.9221 Y27.7713
G01 X21.9212 Y27.7566
G01 X21.8539 Y27.7640
G01 X21.8526 Y27.7555
G01 X21.8494 Y27.7435
G01 X21.8461 Y27.7349
G01 X21.8420 Y27.7267
G01 X21.8349 Y27.7157
G01 X21.8299 Y27.7095
G01 X21.8254 Y27.7047
G01 X21.8147 Y27.6954
G01 X21.8054 Y27.6892
G01 X21.7954 Y27.6841
G01 X21.7865 Y27.6806
G01 X21.7745 Y27.6774
G01 X21.7649 Y27.6760
G01 X21.7550 Y27.6755
G01 X19.5550 Y27.6755
G01 X19.5440 Y27.6761
G01 X19.5355 Y27.6774
G01 X19.5235 Y27.6806
G01 X19.5146 Y27.6841
G01 X19.5046 Y27.6892
G01 X19.4953 Y27.6954
G01 X19.4847 Y27.7047
G01 X19.4754 Y27.7153
G01 X19.4692 Y27.7246
G01 X19.4641 Y27.7346
G01 X19.4606 Y27.7435
G01 X19.4574 Y27.7555
G01 X19.4561 Y27.7640
G01 X19.4555 Y27.7750
G01 X19.4555 Y29.9750
G01 X19.4560 Y29.9849
G01 X19.4574 Y29.9945
G01 X19.4606 Y30.0065
G01 X19.4641 Y30.0154
G01 X19.4692 Y30.0254
G01 X19.4754 Y30.0347
G01 X19.4847 Y30.0454
G01 X19.4895 Y30.0499
G01 X19.4957 Y30.0549
G01 X19.5067 Y30.0620
G01 X19.5149 Y30.0661
G01 X19.5235 Y30.0694
G01 X19.5355 Y30.0726
G01 X19.5440 Y30.0739
G01 X19.5550 Y30.0745
G01 X21.7550 Y30.0745
G01 X21.7649 Y30.0740
G01 X21.7745 Y30.0726
G01 X21.7865 Y30.0694
G01 X21.7951 Y30.0661
G01 X21.8077 Y30.0594
G01 X21.8170 Y30.0529
G01 X21.8254 Y30.0454
G01 X21.8329 Y30.0370
G01 X21.8394 Y30.0277
G01 X21.8461 Y30.0151
G01 X21.8494 Y30.0065
G01 X21.8526 Y29.9945
G01 X21.8540 Y29.9849
G01 X21.8545 Y29.9750
G01 X21.8545 Y27.7750
G01 X21.8539 Y27.7640
G00 Z0.5000
G00 X19.2813 Y27.7390
G01 F250.00
G01 Z-0.0400
G01 F2500.00
G01 X19.2833 Y27.7202
G01 X19.3123 Y27.6425
G01 X19.3595 Y27.5795
G01 X19.4225 Y27.5323
G01 X19.5002 Y27.5033
G01 X19.5190 Y27.5013
G01 X21.7911 Y27.5013
G01 X21.8098 Y27.5033
G01 X21.8875 Y27.5323
G01 X21.9505 Y27.5795
G01 X21.9977 Y27.6425
G01 X22.0267 Y27.7202
G01 X22.0287 Y27.7390
G01 X22.0287 Y30.0111
G01 X22.0267 Y30.0298
G01 X21.9977 Y30.1075
G01 X21.9505 Y30.1705
G01 X21.8875 Y30.2177
G01 X21.8098 Y30.2467
G01 X21.7911 Y30.2487
G01 X19.5190 Y30.2487
G01 X19.5002 Y30.2467
G01 X19.4225 Y30.2177
G01 X19.3595 Y30.1705
G01 X19.3123 Y30.1075
G01 X19.2833 Y30.0298
G01 X19.2813 Y30.0111
G01 X19.2813 Y27.7390
G01 X19.2137 Y27.7353
G01 X19.2170 Y27.7046
G01 X19.2523 Y27.6097
G01 X19.3112 Y27.5312
G01 X19.3897 Y27.4723
G01 X19.4846 Y27.4370
G01 X19.5153 Y27.4337
G01 X21.7947 Y27.4337
G01 X21.8255 Y27.4370
G01 X21.9203 Y27.4723
G01 X21.9989 Y27.5312
G01 X22.0577 Y27.6097
G01 X22.0930 Y27.7046
G01 X22.0964 Y27.7353
G01 X22.0964 Y30.0147
G01 X22.0930 Y30.0455
G01 X22.0577 Y30.1403
G01 X21.9989 Y30.2189
G01 X21.9203 Y30.2777
G01 X21.8255 Y30.3130
G01 X21.7947 Y30.3164
G01 X19.5153 Y30.3164
G01 X19.4846 Y30.3130
G01 X19.3897 Y30.2777
G01 X19.3112 Y30.2189
G01 X19.2523 Y30.1403
G01 X19.2170 Y30.0455
G01 X19.2137 Y30.0147
G01 X19.2137 Y27.7353
G00 Z0.5000
G00 X19.1506 Y30.0612
G01 F250.00
G01 Z-0.0400
G01 F2500.00
G01 X19.1924 Y30.1730
G01 X19.2628 Y30.2672
G01 X19.3570 Y30.3377
G01 X19.4689 Y30.3794
G01 X19.5117 Y30.3840
G01 X21.7983 Y30.3840
G01 X21.8412 Y30.3794
G01 X21.9530 Y30.3377
G01 X22.0472 Y30.2672
G01 X22.1177 Y30.1730
G01 X22.1594 Y30.0612
G01 X22.1640 Y30.0183
G01 X22.1640 Y27.7317
G01 X22.1594 Y27.6889
G01 X22.1177 Y27.5770
G01 X22.0472 Y27.4828
G01 X21.9530 Y27.4124
G01 X21.8412 Y27.3706
G01 X21.7983 Y27.3660
G01 X19.5117 Y27.3660
G01 X19.4689 Y27.3706
G01 X19.3570 Y27.4124
G01 X19.2628 Y27.4828
G01 X19.1924 Y27.5770
G01 X19.1506 Y27.6889
G01 X19.1460 Y27.7317
G01 X19.1460 Y30.0183
G01 X19.1506 Y30.0612
G00 Z0.5000
G00 X24.4554 Y28.7586
G01 F250.00
G01 Z-0.0400
G01 F2500.00
G01 X24.4575 Y28.7375
G01 X24.4733 Y28.6326
G01 X24.4764 Y28.6179
G01 X24.5028 Y28.5136
G01 X24.5070 Y28.5006
G01 X24.5424 Y28.4020
G01 X24.5489 Y28.3869
G01 X24.5908 Y28.2982
G01 X24.5957 Y28.2885
G01 X24.6017 Y28.2779
G01 X24.6557 Y28.1880
G01 X24.6649 Y28.1746
G01 X24.7280 Y28.0898
G01 X24.7380 Y28.0779
G01 X24.8107 Y27.9981
G01 X24.8202 Y27.9889
G01 X24.8977 Y27.9189
G01 X24.9100 Y27.9089
G01 X24.9950 Y27.8461
G01 X25.0087 Y27.8372
G01 X25.1020 Y27.7815
G01 X25.1132 Y27.7758
G01 X25.2019 Y27.7339
G01 X25.2128 Y27.7291
G01 X25.2232 Y27.7250
G01 X25.3255 Y27.6887
G01 X25.3377 Y27.6853
G01 X25.4329 Y27.6614
G01 X25.4460 Y27.6586
G01 X25.5615 Y27.6414
G01 X25.5755 Y27.6403
G01 X25.6834 Y27.6352
G01 X25.6965 Y27.6355
G01 X25.8036 Y27.6409
G01 X25.8175 Y27.6425
G01 X25.9245 Y27.6586
G01 X25.9372 Y27.6614
G01 X26.0324 Y27.6853
G01 X26.0446 Y27.6888
G01 X26.1468 Y27.7250
G01 X26.1572 Y27.7291
G01 X26.1681 Y27.7339
G01 X26.2568 Y27.7758
G01 X26.2680 Y27.7815
G01 X26.3670 Y27.8407
G01 X26.3805 Y27.8499
G01 X26.4652 Y27.9130
G01 X26.4771 Y27.9230
G01 X26.5570 Y27.9957
G01 X26.5661 Y28.0052
G01 X26.6364 Y28.0830
G01 X26.6466 Y28.0957
G01 X26.7089 Y28.1800
G01 X26.7179 Y28.1937
G01 X26.7716 Y28.2837
G01 X26.7792 Y28.2982
G01 X26.8212 Y28.3869
G01 X26.8260 Y28.3978
G01 X26.8300 Y28.4082
G01 X26.8651 Y28.5069
G01 X26.8697 Y28.5227
G01 X26.8936 Y28.6179
G01 X26.8964 Y28.6310
G01 X26.9137 Y28.7471
G01 X26.9147 Y28.7605
G01 X26.9198 Y28.8684
G01 X26.9195 Y28.8815
G01 X26.9140 Y28.9896
G01 X26.9125 Y29.0025
G01 X26.8964 Y29.1095
G01 X26.8936 Y29.1222
G01 X26.8680 Y29.2238
G01 X26.8630 Y29.2394
G01 X26.8300 Y29.3318
G01 X26.8260 Y29.3422
G01 X26.8212 Y29.3531
G01 X26.7746 Y29.4510
G01 X26.7683 Y29.4621
G01 X26.7132 Y29.5537
G01 X26.7051 Y29.5655
G01 X26.6420 Y29.6502
G01 X26.6320 Y29.6621
G01 X26.5593 Y29.7420
G01 X26.5498 Y29.7511
G01 X26.4771 Y29.8170
G01 X26.4652 Y29.8270
G01 X26.3805 Y29.8901
G01 X26.3669 Y29.8993
G01 X26.2771 Y29.9533
G01 X26.2645 Y29.9603
G01 X26.1681 Y30.0062
G01 X26.1572 Y30.0110
G01 X26.1468 Y30.0150
G01 X26.0544 Y30.0480
G01 X26.0388 Y30.0530
G01 X25.9372 Y30.0786
G01 X25.9245 Y30.0814
G01 X25.8175 Y30.0975
G01 X25.8046 Y30.0990
G01 X25.6965 Y30.1045
G01 X25.6834 Y30.1048
G01 X25.5654 Y30.0990
G01 X25.5525 Y30.0975
G01 X25.4460 Y30.0814
G01 X25.4329 Y30.0786
G01 X25.3377 Y30.0547
G01 X25.3156 Y30.0480
G01 X25.2232 Y30.0150
G01 X25.2128 Y30.0110
G01 X25.2019 Y30.0062
G01 X25.1129 Y29.9641
G01 X25.0929 Y29.9533
G01 X25.0014 Y29.8982
G01 X24.9896 Y29.8901
G01 X24.9107 Y29.8316
G01 X24.8929 Y29.8170
G01 X24.8202 Y29.7511
G01 X24.8107 Y29.7420
G01 X24.7380 Y29.6621
G01 X24.7239 Y29.6450
G01 X24.6611 Y29.5601
G01 X24.6522 Y29.5463
G01 X24.6017 Y29.4621
G01 X24.5928 Y29.4458
G01 X24.5489 Y29.3531
G01 X24.5441 Y29.3422
G01 X24.5400 Y29.3318
G01 X24.5070 Y29.2394
G01 X24.5003 Y29.2174
G01 X24.4743 Y29.1127
G01 X24.4719 Y29.0996
G01 X24.4575 Y29.0025
G01 X24.4553 Y28.9796
G01 X24.4505 Y28.8815
G01 X24.4502 Y28.8684
G01 X24.4553 Y28.7605
G01 X24.4554 Y28.7586
G01 X24.5230 Y28.7629
G01 X24.5245 Y28.7475
G01 X24.5398 Y28.6448
G01 X24.5421 Y28.6343
G01 X24.5675 Y28.5332
G01 X24.5707 Y28.5234
G01 X24.6049 Y28.4279
G01 X24.6100 Y28.4159
G01 X24.6559 Y28.3194
G01 X24.7102 Y28.2285
G01 X24.7174 Y28.2176
G01 X24.7782 Y28.1355
G01 X24.7881 Y28.1234
G01 X24.8540 Y28.0506
G01 X24.8609 Y28.0435
G01 X24.9384 Y27.9731
G01 X24.9505 Y27.9632
G01 X25.0326 Y27.9024
G01 X25.0435 Y27.8952
G01 X25.1344 Y27.8409
G01 X25.2309 Y27.7950
G01 X25.2460 Y27.7887
G01 X25.3450 Y27.7535
G01 X25.3541 Y27.7509
G01 X25.4494 Y27.7271
G01 X25.4648 Y27.7240
G01 X25.5689 Y27.7087
G01 X25.5788 Y27.7079
G01 X25.6768 Y27.7031
G01 X25.6867 Y27.7029
G01 X25.7912 Y27.7079
G01 X25.8076 Y27.7095
G01 X25.9112 Y27.7250
G01 X25.9207 Y27.7271
G01 X26.0159 Y27.7509
G01 X26.0316 Y27.7557
G01 X26.1317 Y27.7917
G01 X26.2279 Y27.8370
G01 X26.2423 Y27.8447
G01 X26.3294 Y27.8970
G01 X26.3402 Y27.9043
G01 X26.4196 Y27.9632
G01 X26.4317 Y27.9731
G01 X26.5044 Y28.0390
G01 X26.5115 Y28.0459
G01 X26.5819 Y28.1234
G01 X26.5923 Y28.1360
G01 X26.6507 Y28.2149
G01 X26.6599 Y28.2285
G01 X26.7103 Y28.3127
G01 X26.7166 Y28.3242
G01 X26.7600 Y28.4159
G01 X26.7663 Y28.4310
G01 X26.8004 Y28.5266
G01 X26.8041 Y28.5391
G01 X26.8280 Y28.6344
G01 X26.8302 Y28.6448
G01 X26.8455 Y28.7475
G01 X26.8472 Y28.7638
G01 X26.8520 Y28.8618
G01 X26.8522 Y28.8717
G01 X26.8472 Y28.9762
G01 X26.8455 Y28.9926
G01 X26.8300 Y29.0962
G01 X26.8279 Y29.1057
G01 X26.8041 Y29.2009
G01 X26.8004 Y29.2135
G01 X26.7663 Y29.3090
G01 X26.7600 Y29.3242
G01 X26.7152 Y29.4185
G01 X26.7103 Y29.4273
G01 X26.6599 Y29.5115
G01 X26.6507 Y29.5252
G01 X26.5898 Y29.6072
G01 X26.5819 Y29.6167
G01 X26.5160 Y29.6894
G01 X26.5091 Y29.6965
G01 X26.4317 Y29.7669
G01 X26.4191 Y29.7772
G01 X26.3374 Y29.8377
G01 X26.3265 Y29.8449
G01 X26.2423 Y29.8953
G01 X26.2279 Y29.9030
G01 X26.1317 Y29.9483
G01 X26.0316 Y29.9843
G01 X26.0191 Y29.9882
G01 X25.9207 Y30.0129
G01 X25.9046 Y30.0161
G01 X25.8076 Y30.0305
G01 X25.7980 Y30.0317
G01 X25.6932 Y30.0370
G01 X25.6768 Y30.0370
G01 X25.5721 Y30.0317
G01 X25.5625 Y30.0305
G01 X25.4598 Y30.0152
G01 X25.4493 Y30.0130
G01 X25.3541 Y29.9891
G01 X25.3416 Y29.9854
G01 X25.2460 Y29.9513
G01 X25.2309 Y29.9450
G01 X25.1370 Y29.9005
G01 X25.1277 Y29.8953
G01 X25.0435 Y29.8449
G01 X25.0299 Y29.8357
G01 X24.9484 Y29.7752
G01 X24.9384 Y29.7669
G01 X24.8656 Y29.7010
G01 X24.8585 Y29.6941
G01 X24.7881 Y29.6167
G01 X24.7778 Y29.6041
G01 X24.7193 Y29.5252
G01 X24.7120 Y29.5144
G01 X24.6597 Y29.4273
G01 X24.6520 Y29.4129
G01 X24.6067 Y29.3167
G01 X24.5687 Y29.2107
G01 X24.5659 Y29.2009
G01 X24.5421 Y29.1057
G01 X24.5389 Y29.0896
G01 X24.5241 Y28.9892
G01 X24.5229 Y28.9762
G01 X24.5181 Y28.8782
G01 X24.5181 Y28.8618
G01 X24.5230 Y28.7629
G00 Z0.5000
G00 X24.5905 Y28.7671
G01 F250.00
G01 Z-0.0400
G01 F2500.00
G01 X24.5914 Y28.7574
G01 X24.6061 Y28.6586
G01 X24.6077 Y28.6508
G01 X24.6328 Y28.5511
G01 X24.6674 Y28.4538
G01 X24.6712 Y28.4448
G01 X24.7161 Y28.3503
G01 X24.7682 Y28.2632
G01 X24.7736 Y28.2552
G01 X24.8324 Y28.1759
G01 X24.8383 Y28.1688
G01 X24.9075 Y28.0925
G01 X24.9838 Y28.0233
G01 X24.9909 Y28.0174
G01 X25.0702 Y27.9586
G01 X25.0782 Y27.9532
G01 X25.1653 Y27.9011
G01 X25.2663 Y27.8534
G01 X25.3661 Y27.8178
G01 X25.4658 Y27.7927
G01 X25.4736 Y27.7911
G01 X25.5748 Y27.7761
G01 X25.5821 Y27.7754
G01 X25.6850 Y27.7705
G01 X25.7903 Y27.7756
G01 X25.7976 Y27.7764
G01 X25.8996 Y27.7917
G01 X25.9995 Y27.8166
G01 X26.0068 Y27.8187
G01 X26.1046 Y27.8537
G01 X26.2047 Y27.9011
G01 X26.2918 Y27.9532
G01 X26.2999 Y27.9586
G01 X26.3791 Y28.0174
G01 X26.3862 Y28.0233
G01 X26.4625 Y28.0925
G01 X26.5317 Y28.1688
G01 X26.5379 Y28.1763
G01 X26.5964 Y28.2552
G01 X26.6018 Y28.2633
G01 X26.6523 Y28.3475
G01 X26.6569 Y28.3561
G01 X26.7013 Y28.4504
G01 X26.7356 Y28.5462
G01 X26.7385 Y28.5556
G01 X26.7623 Y28.6508
G01 X26.7639 Y28.6586
G01 X26.7792 Y28.7621
G01 X26.7845 Y28.8700
G01 X26.7792 Y28.9779
G01 X26.7634 Y29.0846
G01 X26.7385 Y29.1845
G01 X26.7356 Y29.1938
G01 X26.7013 Y29.2896
G01 X26.6559 Y29.3859
G01 X26.6523 Y29.3926
G01 X26.6012 Y29.4778
G01 X26.5964 Y29.4849
G01 X26.5376 Y29.5641
G01 X26.5317 Y29.5712
G01 X26.4625 Y29.6475
G01 X26.3862 Y29.7167
G01 X26.3791 Y29.7226
G01 X26.2999 Y29.7814
G01 X26.2917 Y29.7868
G01 X26.2076 Y29.8373
G01 X26.2009 Y29.8409
G01 X26.1046 Y29.8863
G01 X26.0088 Y29.9206
G01 X25.9995 Y29.9235
G01 X25.8996 Y29.9484
G01 X25.7929 Y29.9642
G01 X25.6850 Y29.9695
G01 X25.5771 Y29.9642
G01 X25.4736 Y29.9489
G01 X25.4658 Y29.9473
G01 X25.3706 Y29.9235
G01 X25.3612 Y29.9206
G01 X25.2654 Y29.8863
G01 X25.1694 Y29.8411
G01 X25.1625 Y29.8373
G01 X25.0772 Y29.7862
G01 X25.0702 Y29.7814
G01 X24.9913 Y29.7229
G01 X24.9838 Y29.7167
G01 X24.9075 Y29.6475
G01 X24.8383 Y29.5712
G01 X24.8324 Y29.5641
G01 X24.7736 Y29.4849
G01 X24.7682 Y29.4768
G01 X24.7161 Y29.3897
G01 X24.6687 Y29.2896
G01 X24.6337 Y29.1918
G01 X24.6316 Y29.1845
G01 X24.6067 Y29.0846
G01 X24.5914 Y28.9826
G01 X24.5904 Y28.9729
G01 X24.5855 Y28.8700
G01 X24.5905 Y28.7671
G00 Z0.5000
G00 X25.4852 Y30.1319
G01 F250.00
G01 Z-0.0400
G01 F2500.00
G01 X25.6850 Y30.1476
G01 X25.8849 Y30.1319
G01 X26.0798 Y30.0851
G01 X26.2650 Y30.0084
G01 X26.4360 Y29.9036
G01 X26.5884 Y29.7734
G01 X26.7186 Y29.6210
G01 X26.8234 Y29.4500
G01 X26.9001 Y29.2648
G01 X26.9469 Y29.0699
G01 X26.9626 Y28.8700
G01 X26.9469 Y28.6701
G01 X26.9001 Y28.4752
G01 X26.8234 Y28.2900
G01 X26.7186 Y28.1190
G01 X26.5884 Y27.9666
G01 X26.4360 Y27.8364
G01 X26.2650 Y27.7316
G01 X26.0798 Y27.6549
G01 X25.8849 Y27.6081
G01 X25.6850 Y27.5924
G01 X25.4851 Y27.6081
G01 X25.2902 Y27.6549
G01 X25.1050 Y27.7316
G01 X24.9340 Y27.8364
G01 X24.7816 Y27.9666
G01 X24.6514 Y28.1190
G01 X24.5466 Y28.2900
G01 X24.4699 Y28.4752
G01 X24.4231 Y28.6701
G01 X24.4074 Y28.8700
G01 X24.4231 Y29.0699
G01 X24.4699 Y29.2648
G01 X24.5466 Y29.4500
G01 X24.6514 Y29.6210
G01 X24.7816 Y29.7734
G01 X24.9340 Y29.9036
G01 X25.1050 Y30.0084
G01 X25.2902 Y30.0851
G01 X25.4852 Y30.1319
G01 X25.4745 Y30.1989
G01 X25.6850 Y30.2155
G01 X25.8955 Y30.1989
G01 X26.1008 Y30.1496
G01 X26.2959 Y30.0689
G01 X26.4759 Y29.9585
G01 X26.6364 Y29.8214
G01 X26.7735 Y29.6609
G01 X26.8839 Y29.4809
G01 X26.9646 Y29.2858
G01 X27.0139 Y29.0805
G01 X27.0305 Y28.8700
G01 X27.0139 Y28.6595
G01 X26.9646 Y28.4542
G01 X26.8839 Y28.2592
G01 X26.7735 Y28.0792
G01 X26.6364 Y27.9186
G01 X26.4759 Y27.7815
G01 X26.2959 Y27.6712
G01 X26.1008 Y27.5904
G01 X25.8955 Y27.5411
G01 X25.6850 Y27.5245
G01 X25.4745 Y27.5411
G01 X25.2692 Y27.5904
G01 X25.0742 Y27.6712
G01 X24.8942 Y27.7815
G01 X24.7336 Y27.9186
G01 X24.5965 Y28.0792
G01 X24.4862 Y28.2592
G01 X24.4054 Y28.4542
G01 X24.3561 Y28.6595
G01 X24.3395 Y28.8700
G01 X24.3561 Y29.0805
G01 X24.4054 Y29.2858
G01 X24.4862 Y29.4809
G01 X24.5965 Y29.6609
G01 X24.7336 Y29.8214
G01 X24.8942 Y29.9585
G01 X25.0742 Y30.0689
G01 X25.2692 Y30.1496
G01 X25.4745 Y30.1989
G01 X25.4639 Y30.2660
G01 X25.6850 Y30.2834
G01 X25.9061 Y30.2660
G01 X26.1218 Y30.2142
G01 X26.3267 Y30.1293
G01 X26.5158 Y30.0134
G01 X26.6844 Y29.8694
G01 X26.8284 Y29.7008
G01 X26.9443 Y29.5117
G01 X27.0292 Y29.3068
G01 X27.0810 Y29.0911
G01 X27.0984 Y28.8700
G01 X27.0810 Y28.6489
G01 X27.0292 Y28.4333
G01 X26.9443 Y28.2284
G01 X26.8284 Y28.0393
G01 X26.6844 Y27.8706
G01 X26.5158 Y27.7266
G01 X26.3267 Y27.6107
G01 X26.1218 Y27.5258
G01 X25.9061 Y27.4741
G01 X25.6850 Y27.4567
G01 X25.4639 Y27.4741
G01 X25.2483 Y27.5258
G01 X25.0434 Y27.6107
G01 X24.8543 Y27.7266
G01 X24.6856 Y27.8706
G01 X24.5416 Y28.0393
G01 X24.4257 Y28.2284
G01 X24.3408 Y28.4333
G01 X24.2891 Y28.6489
G01 X24.2717 Y28.8700
G01 X24.2891 Y29.0911
G01 X24.3408 Y29.3068
G01 X24.4257 Y29.5117
G01 X24.5416 Y29.7008
G01 X24.6856 Y29.8694
G01 X24.8543 Y30.0134
G01 X25.0434 Y30.1293
G01 X25.2483 Y30.2142
G01 X25.4639 Y30.2660
G00 Z0.5000
G00 X24.4887 Y36.6628
G01 F250.00
G01 Z-0.0400
G01 F2500.00
G01 X24.5343 Y36.7388
G01 X24.5438 Y36.7561
G01 X24.5898 Y36.8530
G01 X24.5958 Y36.8665
G01 X24.6012 Y36.8804
G01 X24.6371 Y36.9815
G01 X24.6427 Y37.0004
G01 X24.6625 Y37.0797
G01 X24.6822 Y37.0012
G01 X24.6824 Y37.0001
G01 X24.6872 Y36.9836
G01 X24.7238 Y36.8804
G01 X24.7312 Y36.8621
G01 X24.7772 Y36.7643
G01 X24.7834 Y36.7518
G01 X24.7907 Y36.7388
G01 X24.8330 Y36.6683
G01 X24.8205 Y36.6720
G01 X24.8050 Y36.6759
G01 X24.7929 Y36.6782
G01 X24.7783 Y36.6804
G01 X24.6752 Y36.6926
G01 X24.6527 Y36.6941
G01 X24.6377 Y36.6943
G01 X24.6216 Y36.6936
G01 X24.6088 Y36.6924
G01 X24.5941 Y36.6904
G01 X24.5814 Y36.6881
G01 X24.5613 Y36.6832
G01 X24.4887 Y36.6628
G01 X24.6213 Y36.7613
G01 X24.6522 Y36.8267
G01 X24.6625 Y36.8512
G01 X24.6733 Y36.8256
G01 X24.7057 Y36.7572
G01 X24.6807 Y36.7601
G01 X24.6577 Y36.7616
G01 X24.6388 Y36.7620
G01 X24.6213 Y36.7613
G01 X24.7029 Y37.2536
G01 X24.7050 Y37.2325
G01 X24.7208 Y37.1276
G01 X24.7239 Y37.1129
G01 X24.7478 Y37.0177
G01 X24.7512 Y37.0055
G01 X24.7875 Y36.9032
G01 X24.7937 Y36.8880
G01 X24.8383 Y36.7932
G01 X24.8489 Y36.7734
G01 X24.8997 Y36.6887
G01 X24.9124 Y36.6696
G01 X24.9755 Y36.5848
G01 X24.9855 Y36.5729
G01 X25.0514 Y36.5002
G01 X25.0671 Y36.4845
G01 X25.1452 Y36.4139
G01 X25.1575 Y36.4039
G01 X25.2425 Y36.3411
G01 X25.2562 Y36.3322
G01 X25.3495 Y36.2765
G01 X25.3607 Y36.2708
G01 X25.4494 Y36.2289
G01 X25.4645 Y36.2224
G01 X25.5631 Y36.1870
G01 X25.5786 Y36.1821
G01 X25.6804 Y36.1564
G01 X25.7030 Y36.1519
G01 X25.8000 Y36.1375
G01 X25.8106 Y36.1363
G01 X25.8230 Y36.1353
G01 X25.9210 Y36.1305
G01 X25.9432 Y36.1304
G01 X26.0425 Y36.1353
G01 X26.0650 Y36.1375
G01 X26.1720 Y36.1536
G01 X26.1847 Y36.1564
G01 X26.2799 Y36.1803
G01 X26.2937 Y36.1842
G01 X26.3943 Y36.2200
G01 X26.4047 Y36.2241
G01 X26.4156 Y36.2289
G01 X26.5043 Y36.2708
G01 X26.5155 Y36.2765
G01 X26.6145 Y36.3357
G01 X26.6280 Y36.3449
G01 X26.7075 Y36.4039
G01 X26.7246 Y36.4180
G01 X26.7973 Y36.4839
G01 X26.8068 Y36.4931
G01 X26.8136 Y36.5002
G01 X26.8795 Y36.5729
G01 X26.8865 Y36.5811
G01 X26.8941 Y36.5907
G01 X26.9526 Y36.6696
G01 X26.9618 Y36.6831
G01 X27.0158 Y36.7729
G01 X27.0237 Y36.7873
G01 X27.0687 Y36.8819
G01 X27.0735 Y36.8928
G01 X27.0775 Y36.9032
G01 X27.1126 Y37.0019
G01 X27.1172 Y37.0177
G01 X27.1411 Y37.1129
G01 X27.1451 Y37.1325
G01 X27.1600 Y37.2325
G01 X27.1615 Y37.2454
G01 X27.1622 Y37.2555
G01 X27.1670 Y37.3535
G01 X27.1673 Y37.3667
G01 X27.1615 Y37.4846
G01 X27.1600 Y37.4975
G01 X27.1439 Y37.6045
G01 X27.1411 Y37.6172
G01 X27.1155 Y37.7188
G01 X27.1105 Y37.7344
G01 X27.0775 Y37.8268
G01 X27.0735 Y37.8372
G01 X27.0687 Y37.8481
G01 X27.0221 Y37.9460
G01 X27.0158 Y37.9571
G01 X26.9607 Y38.0487
G01 X26.9526 Y38.0605
G01 X26.8895 Y38.1452
G01 X26.8795 Y38.1571
G01 X26.8136 Y38.2298
G01 X26.8045 Y38.2393
G01 X26.7246 Y38.3120
G01 X26.7127 Y38.3220
G01 X26.6280 Y38.3851
G01 X26.6144 Y38.3943
G01 X26.5246 Y38.4483
G01 X26.5120 Y38.4553
G01 X26.4156 Y38.5012
G01 X26.4047 Y38.5060
G01 X26.3943 Y38.5100
G01 X26.3019 Y38.5430
G01 X26.2863 Y38.5480
G01 X26.1847 Y38.5736
G01 X26.1720 Y38.5764
G01 X26.0650 Y38.5925
G01 X26.0521 Y38.5940
G01 X25.9440 Y38.5995
G01 X25.9309 Y38.5998
G01 X25.8129 Y38.5940
G01 X25.8000 Y38.5925
G01 X25.6935 Y38.5764
G01 X25.6804 Y38.5736
G01 X25.5852 Y38.5497
G01 X25.5631 Y38.5430
G01 X25.4707 Y38.5100
G01 X25.4603 Y38.5060
G01 X25.4494 Y38.5012
G01 X25.3604 Y38.4591
G01 X25.3404 Y38.4483
G01 X25.2489 Y38.3932
G01 X25.2371 Y38.3851
G01 X25.1582 Y38.3266
G01 X25.1404 Y38.3120
G01 X25.0677 Y38.2461
G01 X25.0582 Y38.2370
G01 X24.9855 Y38.1571
G01 X24.9714 Y38.1400
G01 X24.9086 Y38.0551
G01 X24.8997 Y38.0413
G01 X24.8492 Y37.9571
G01 X24.8403 Y37.9408
G01 X24.7964 Y37.8481
G01 X24.7916 Y37.8372
G01 X24.7875 Y37.8268
G01 X24.7545 Y37.7344
G01 X24.7478 Y37.7124
G01 X24.7218 Y37.6077
G01 X24.7194 Y37.5946
G01 X24.7050 Y37.4975
G01 X24.7028 Y37.4746
G01 X24.6980 Y37.3765
G01 X24.6977 Y37.3634
G01 X24.7028 Y37.2555
G01 X24.7029 Y37.2536
G01 X24.7705 Y37.2579
G01 X24.7720 Y37.2425
G01 X24.7873 Y37.1398
G01 X24.7896 Y37.1293
G01 X24.8150 Y37.0282
G01 X24.8182 Y37.0184
G01 X24.8524 Y36.9229
G01 X24.8575 Y36.9109
G01 X24.9034 Y36.8144
G01 X24.9577 Y36.7235
G01 X24.9649 Y36.7126
G01 X25.0257 Y36.6305
G01 X25.0356 Y36.6184
G01 X25.1015 Y36.5456
G01 X25.1084 Y36.5385
G01 X25.1859 Y36.4681
G01 X25.1980 Y36.4582
G01 X25.2801 Y36.3974
G01 X25.2910 Y36.3902
G01 X25.3819 Y36.3359
G01 X25.4784 Y36.2900
G01 X25.4935 Y36.2837
G01 X25.5859 Y36.2507
G01 X25.5972 Y36.2472
G01 X25.6969 Y36.2221
G01 X25.7123 Y36.2190
G01 X25.8164 Y36.2037
G01 X25.8263 Y36.2029
G01 X25.9243 Y36.1981
G01 X25.9342 Y36.1979
G01 X26.0387 Y36.2029
G01 X26.0551 Y36.2045
G01 X26.1587 Y36.2200
G01 X26.1682 Y36.2221
G01 X26.2634 Y36.2459
G01 X26.2791 Y36.2507
G01 X26.3792 Y36.2867
G01 X26.4754 Y36.3320
G01 X26.4898 Y36.3397
G01 X26.5769 Y36.3920
G01 X26.5877 Y36.3993
G01 X26.6666 Y36.4578
G01 X26.6792 Y36.4681
G01 X26.7566 Y36.5385
G01 X26.7635 Y36.5456
G01 X26.8294 Y36.6184
G01 X26.8383 Y36.6291
G01 X26.8982 Y36.7099
G01 X26.9074 Y36.7235
G01 X26.9578 Y36.8077
G01 X26.9641 Y36.8192
G01 X27.0075 Y36.9109
G01 X27.0138 Y36.9260
G01 X27.0479 Y37.0216
G01 X27.0516 Y37.0341
G01 X27.0755 Y37.1294
G01 X27.0777 Y37.1398
G01 X27.0930 Y37.2425
G01 X27.0947 Y37.2588
G01 X27.0995 Y37.3568
G01 X27.0997 Y37.3667
G01 X27.0947 Y37.4712
G01 X27.0930 Y37.4876
G01 X27.0775 Y37.5912
G01 X27.0754 Y37.6007
G01 X27.0516 Y37.6959
G01 X27.0479 Y37.7085
G01 X27.0138 Y37.8040
G01 X27.0075 Y37.8192
G01 X26.9627 Y37.9135
G01 X26.9578 Y37.9223
G01 X26.9074 Y38.0065
G01 X26.8982 Y38.0202
G01 X26.8373 Y38.1022
G01 X26.8294 Y38.1117
G01 X26.7635 Y38.1844
G01 X26.7566 Y38.1915
G01 X26.6792 Y38.2619
G01 X26.6697 Y38.2698
G01 X26.5877 Y38.3307
G01 X26.5740 Y38.3399
G01 X26.4898 Y38.3903
G01 X26.4810 Y38.3952
G01 X26.3867 Y38.4400
G01 X26.3715 Y38.4463
G01 X26.2760 Y38.4804
G01 X26.2634 Y38.4841
G01 X26.1682 Y38.5079
G01 X26.1587 Y38.5100
G01 X26.0551 Y38.5255
G01 X26.0387 Y38.5272
G01 X25.9407 Y38.5320
G01 X25.9309 Y38.5322
G01 X25.8263 Y38.5272
G01 X25.8100 Y38.5255
G01 X25.7073 Y38.5102
G01 X25.6969 Y38.5080
G01 X25.6016 Y38.4841
G01 X25.5891 Y38.4804
G01 X25.4935 Y38.4463
G01 X25.4784 Y38.4400
G01 X25.3845 Y38.3955
G01 X25.3752 Y38.3903
G01 X25.2910 Y38.3399
G01 X25.2774 Y38.3307
G01 X25.1959 Y38.2702
G01 X25.1859 Y38.2619
G01 X25.1131 Y38.1960
G01 X25.1060 Y38.1891
G01 X25.0356 Y38.1117
G01 X25.0253 Y38.0991
G01 X24.9668 Y38.0202
G01 X24.9595 Y38.0094
G01 X24.9072 Y37.9223
G01 X24.8995 Y37.9079
G01 X24.8542 Y37.8117
G01 X24.8162 Y37.7057
G01 X24.8134 Y37.6959
G01 X24.7896 Y37.6007
G01 X24.7864 Y37.5846
G01 X24.7716 Y37.4842
G01 X24.7704 Y37.4712
G01 X24.7656 Y37.3732
G01 X24.7656 Y37.3568
G01 X24.7705 Y37.2579
G00 Z0.5000
G00 X24.8380 Y37.2621
G01 F250.00
G01 Z-0.0400
G01 F2500.00
G01 X24.8389 Y37.2524
G01 X24.8533 Y37.1553
G01 X24.8552 Y37.1458
G01 X24.8803 Y37.0461
G01 X24.9149 Y36.9488
G01 X24.9187 Y36.9398
G01 X24.9636 Y36.8453
G01 X25.0157 Y36.7582
G01 X25.0211 Y36.7502
G01 X25.0799 Y36.6709
G01 X25.0858 Y36.6638
G01 X25.1517 Y36.5911
G01 X25.1586 Y36.5842
G01 X25.2313 Y36.5183
G01 X25.2384 Y36.5124
G01 X25.3177 Y36.4536
G01 X25.3258 Y36.4482
G01 X25.4128 Y36.3961
G01 X25.5073 Y36.3512
G01 X25.5163 Y36.3474
G01 X25.6087 Y36.3144
G01 X25.6181 Y36.3116
G01 X25.7133 Y36.2877
G01 X25.7211 Y36.2861
G01 X25.8223 Y36.2711
G01 X25.8296 Y36.2704
G01 X25.9276 Y36.2656
G01 X25.9374 Y36.2656
G01 X26.0378 Y36.2706
G01 X26.0451 Y36.2714
G01 X26.1471 Y36.2867
G01 X26.2470 Y36.3116
G01 X26.2543 Y36.3137
G01 X26.3521 Y36.3487
G01 X26.4522 Y36.3961
G01 X26.5393 Y36.4482
G01 X26.5474 Y36.4536
G01 X26.6266 Y36.5124
G01 X26.6337 Y36.5183
G01 X26.7100 Y36.5875
G01 X26.7809 Y36.6656
G01 X26.7854 Y36.6713
G01 X26.8439 Y36.7502
G01 X26.8493 Y36.7583
G01 X26.8998 Y36.8425
G01 X26.9044 Y36.8511
G01 X26.9488 Y36.9454
G01 X26.9831 Y37.0412
G01 X26.9860 Y37.0506
G01 X27.0098 Y37.1458
G01 X27.0114 Y37.1536
G01 X27.0267 Y37.2571
G01 X27.0320 Y37.3650
G01 X27.0267 Y37.4729
G01 X27.0109 Y37.5796
G01 X26.9860 Y37.6795
G01 X26.9831 Y37.6888
G01 X26.9488 Y37.7846
G01 X26.9034 Y37.8809
G01 X26.8998 Y37.8876
G01 X26.8487 Y37.9728
G01 X26.8439 Y37.9799
G01 X26.7851 Y38.0591
G01 X26.7792 Y38.0662
G01 X26.7100 Y38.1425
G01 X26.6337 Y38.2117
G01 X26.6266 Y38.2176
G01 X26.5474 Y38.2764
G01 X26.5392 Y38.2818
G01 X26.4551 Y38.3323
G01 X26.4484 Y38.3359
G01 X26.3521 Y38.3813
G01 X26.2563 Y38.4156
G01 X26.2470 Y38.4185
G01 X26.1471 Y38.4434
G01 X26.0404 Y38.4592
G01 X25.9374 Y38.4644
G01 X25.9276 Y38.4644
G01 X25.8246 Y38.4592
G01 X25.7211 Y38.4439
G01 X25.7133 Y38.4423
G01 X25.6181 Y38.4185
G01 X25.6087 Y38.4156
G01 X25.5163 Y38.3826
G01 X25.5073 Y38.3788
G01 X25.4169 Y38.3361
G01 X25.4100 Y38.3323
G01 X25.3258 Y38.2818
G01 X25.3177 Y38.2764
G01 X25.2388 Y38.2179
G01 X25.2313 Y38.2117
G01 X25.1550 Y38.1425
G01 X25.0858 Y38.0662
G01 X25.0799 Y38.0591
G01 X25.0211 Y37.9799
G01 X25.0157 Y37.9718
G01 X24.9636 Y37.8847
G01 X24.9162 Y37.7846
G01 X24.8812 Y37.6868
G01 X24.8791 Y37.6795
G01 X24.8542 Y37.5796
G01 X24.8389 Y37.4776
G01 X24.8379 Y37.4679
G01 X24.8330 Y37.3650
G01 X24.8331 Y37.3601
G01 X24.8379 Y37.2621
G01 X24.8380 Y37.2621
G01 X24.6194 Y37.9729
G01 X24.6473 Y37.9697
G01 X24.6690 Y37.9683
G01 X24.6866 Y37.9681
G01 X24.7037 Y37.9687
G01 X24.6728 Y37.9034
G01 X24.6625 Y37.8788
G01 X24.6522 Y37.9034
G01 X24.6194 Y37.9729
G01 X24.8363 Y38.0673
G01 X24.7907 Y37.9912
G01 X24.7834 Y37.9782
G01 X24.7772 Y37.9657
G01 X24.7352 Y37.8770
G01 X24.7292 Y37.8635
G01 X24.7238 Y37.8496
G01 X24.6907 Y37.7570
G01 X24.6891 Y37.7523
G01 X24.6883 Y37.7499
G01 X24.6873 Y37.7467
G01 X24.6823 Y37.7294
G01 X24.6625 Y37.6504
G01 X24.6427 Y37.7296
G01 X24.6371 Y37.7485
G01 X24.6012 Y37.8496
G01 X24.5958 Y37.8635
G01 X24.5898 Y37.8770
G01 X24.5429 Y37.9756
G01 X24.5342 Y37.9914
G01 X24.4920 Y38.0618
G01 X24.5008 Y38.0591
G01 X24.5194 Y38.0544
G01 X24.5313 Y38.0520
G01 X24.5468 Y38.0496
G01 X24.6516 Y38.0372
G01 X24.6723 Y38.0359
G01 X24.6874 Y38.0357
G01 X24.7040 Y38.0365
G01 X24.7173 Y38.0377
G01 X24.7334 Y38.0400
G01 X24.7450 Y38.0422
G01 X24.7638 Y38.0468
G01 X24.8363 Y38.0673
G00 Z0.5000
G00 X27.1594 Y37.9729
G01 F250.00
G01 Z-0.0400
G01 F2500.00
G01 X27.1873 Y37.9697
G01 X27.2090 Y37.9683
G01 X27.2266 Y37.9681
G01 X27.2437 Y37.9687
G01 X27.2128 Y37.9034
G01 X27.2025 Y37.8788
G01 X27.1922 Y37.9034
G01 X27.1594 Y37.9729
G01 X27.3763 Y38.0673
G01 X27.3307 Y37.9912
G01 X27.3234 Y37.9782
G01 X27.3172 Y37.9657
G01 X27.2752 Y37.8770
G01 X27.2692 Y37.8635
G01 X27.2638 Y37.8496
G01 X27.2273 Y37.7467
G01 X27.2223 Y37.7294
G01 X27.2025 Y37.6504
G01 X27.1827 Y37.7296
G01 X27.1771 Y37.7485
G01 X27.1412 Y37.8496
G01 X27.1358 Y37.8635
G01 X27.1298 Y37.8770
G01 X27.0829 Y37.9756
G01 X27.0742 Y37.9914
G01 X27.0320 Y38.0618
G01 X27.0408 Y38.0591
G01 X27.0594 Y38.0544
G01 X27.0713 Y38.0520
G01 X27.0868 Y38.0496
G01 X27.1916 Y38.0372
G01 X27.2123 Y38.0359
G01 X27.2274 Y38.0357
G01 X27.2440 Y38.0365
G01 X27.2573 Y38.0377
G01 X27.2734 Y38.0400
G01 X27.2850 Y38.0422
G01 X27.3038 Y38.0468
G01 X27.3763 Y38.0673
G00 Z0.5000
G00 X27.3780 Y37.2621
G01 F250.00
G01 Z-0.0400
G01 F2500.00
G01 X27.3789 Y37.2524
G01 X27.3936 Y37.1536
G01 X27.3952 Y37.1458
G01 X27.4203 Y37.0461
G01 X27.4549 Y36.9488
G01 X27.4587 Y36.9398
G01 X27.5036 Y36.8453
G01 X27.5557 Y36.7582
G01 X27.5611 Y36.7502
G01 X27.6199 Y36.6709
G01 X27.6258 Y36.6638
G01 X27.6950 Y36.5875
G01 X27.7713 Y36.5183
G01 X27.7784 Y36.5124
G01 X27.8577 Y36.4536
G01 X27.8658 Y36.4482
G01 X27.9528 Y36.3961
G01 X28.0473 Y36.3512
G01 X28.0563 Y36.3474
G01 X28.1536 Y36.3128
G01 X28.2533 Y36.2877
G01 X28.2611 Y36.2861
G01 X28.3623 Y36.2711
G01 X28.3696 Y36.2704
G01 X28.4725 Y36.2655
G01 X28.5778 Y36.2706
G01 X28.5851 Y36.2714
G01 X28.6871 Y36.2867
G01 X28.7870 Y36.3116
G01 X28.7943 Y36.3137
G01 X28.8921 Y36.3487
G01 X28.9922 Y36.3961
G01 X29.0793 Y36.4482
G01 X29.0874 Y36.4536
G01 X29.1666 Y36.5124
G01 X29.1737 Y36.5183
G01 X29.2500 Y36.5875
G01 X29.3209 Y36.6656
G01 X29.3254 Y36.6713
G01 X29.3839 Y36.7502
G01 X29.3893 Y36.7583
G01 X29.4398 Y36.8425
G01 X29.4444 Y36.8511
G01 X29.4888 Y36.9454
G01 X29.5231 Y37.0412
G01 X29.5260 Y37.0506
G01 X29.5498 Y37.1458
G01 X29.5514 Y37.1536
G01 X29.5667 Y37.2571
G01 X29.5720 Y37.3650
G01 X29.5667 Y37.4729
G01 X29.5509 Y37.5796
G01 X29.5260 Y37.6795
G01 X29.5231 Y37.6888
G01 X29.4888 Y37.7846
G01 X29.4434 Y37.8809
G01 X29.4398 Y37.8876
G01 X29.3887 Y37.9728
G01 X29.3839 Y37.9799
G01 X29.3251 Y38.0591
G01 X29.3192 Y38.0662
G01 X29.2500 Y38.1425
G01 X29.1737 Y38.2117
G01 X29.1666 Y38.2176
G01 X29.0874 Y38.2764
G01 X29.0792 Y38.2818
G01 X28.9951 Y38.3323
G01 X28.9884 Y38.3359
G01 X28.8921 Y38.3813
G01 X28.7963 Y38.4156
G01 X28.7870 Y38.4185
G01 X28.6871 Y38.4434
G01 X28.5804 Y38.4592
G01 X28.4725 Y38.4645
G01 X28.3646 Y38.4592
G01 X28.2611 Y38.4439
G01 X28.2533 Y38.4423
G01 X28.1581 Y38.4185
G01 X28.1487 Y38.4156
G01 X28.0529 Y38.3813
G01 X27.9569 Y38.3361
G01 X27.9500 Y38.3323
G01 X27.8647 Y38.2812
G01 X27.8577 Y38.2764
G01 X27.7788 Y38.2179
G01 X27.7713 Y38.2117
G01 X27.6950 Y38.1425
G01 X27.6258 Y38.0662
G01 X27.6199 Y38.0591
G01 X27.5611 Y37.9799
G01 X27.5557 Y37.9718
G01 X27.5036 Y37.8847
G01 X27.4562 Y37.7846
G01 X27.4212 Y37.6868
G01 X27.4191 Y37.6795
G01 X27.3942 Y37.5796
G01 X27.3789 Y37.4776
G01 X27.3779 Y37.4679
G01 X27.3730 Y37.3650
G01 X27.3780 Y37.2621
G00 Z0.5000
G00 X27.3105 Y37.2579
G01 F250.00
G01 Z-0.0400
G01 F2500.00
G01 X27.3120 Y37.2425
G01 X27.3273 Y37.1398
G01 X27.3296 Y37.1293
G01 X27.3534 Y37.0341
G01 X27.3582 Y37.0184
G01 X27.3912 Y36.9260
G01 X27.3962 Y36.9139
G01 X27.4395 Y36.8221
G01 X27.4472 Y36.8077
G01 X27.4995 Y36.7206
G01 X27.5068 Y36.7099
G01 X27.5677 Y36.6279
G01 X27.5756 Y36.6184
G01 X27.6415 Y36.5456
G01 X27.6531 Y36.5340
G01 X27.7259 Y36.4681
G01 X27.7354 Y36.4602
G01 X27.8174 Y36.3993
G01 X27.8310 Y36.3902
G01 X27.9219 Y36.3359
G01 X28.0184 Y36.2900
G01 X28.0335 Y36.2837
G01 X28.1325 Y36.2485
G01 X28.1416 Y36.2459
G01 X28.2369 Y36.2221
G01 X28.2523 Y36.2190
G01 X28.3564 Y36.2037
G01 X28.3663 Y36.2029
G01 X28.4643 Y36.1981
G01 X28.4742 Y36.1979
G01 X28.5787 Y36.2029
G01 X28.5951 Y36.2045
G01 X28.6987 Y36.2200
G01 X28.7082 Y36.2221
G01 X28.8034 Y36.2459
G01 X28.8191 Y36.2507
G01 X28.9192 Y36.2867
G01 X29.0231 Y36.3359
G01 X29.1141 Y36.3902
G01 X29.1250 Y36.3974
G01 X29.2071 Y36.4582
G01 X29.2192 Y36.4681
G01 X29.2919 Y36.5340
G01 X29.2990 Y36.5409
G01 X29.3694 Y36.6184
G01 X29.3798 Y36.6310
G01 X29.4402 Y36.7126
G01 X29.4474 Y36.7235
G01 X29.4978 Y36.8077
G01 X29.5041 Y36.8192
G01 X29.5475 Y36.9109
G01 X29.5538 Y36.9260
G01 X29.5868 Y37.0184
G01 X29.5907 Y37.0309
G01 X29.6155 Y37.1294
G01 X29.6186 Y37.1448
G01 X29.6338 Y37.2488
G01 X29.6347 Y37.2588
G01 X29.6395 Y37.3568
G01 X29.6397 Y37.3667
G01 X29.6347 Y37.4712
G01 X29.6330 Y37.4876
G01 X29.6175 Y37.5912
G01 X29.6154 Y37.6007
G01 X29.5916 Y37.6959
G01 X29.5868 Y37.7116
G01 X29.5508 Y37.8117
G01 X29.5027 Y37.9135
G01 X29.4978 Y37.9223
G01 X29.4471 Y38.0069
G01 X29.4382 Y38.0202
G01 X29.3794 Y38.0996
G01 X29.3694 Y38.1117
G01 X29.3035 Y38.1844
G01 X29.2966 Y38.1915
G01 X29.2192 Y38.2619
G01 X29.2066 Y38.2722
G01 X29.1277 Y38.3307
G01 X29.1168 Y38.3381
G01 X29.0298 Y38.3903
G01 X29.0154 Y38.3980
G01 X28.9192 Y38.4433
G01 X28.8191 Y38.4793
G01 X28.8034 Y38.4841
G01 X28.7020 Y38.5094
G01 X28.6921 Y38.5111
G01 X28.5951 Y38.5255
G01 X28.5855 Y38.5267
G01 X28.4807 Y38.5320
G01 X28.4643 Y38.5320
G01 X28.3596 Y38.5267
G01 X28.3500 Y38.5255
G01 X28.2529 Y38.5111
G01 X28.2368 Y38.5080
G01 X28.1384 Y38.4832
G01 X28.1259 Y38.4793
G01 X28.0258 Y38.4433
G01 X27.9291 Y38.3978
G01 X27.9152 Y38.3903
G01 X27.8268 Y38.3372
G01 X27.8174 Y38.3307
G01 X27.7385 Y38.2723
G01 X27.7259 Y38.2619
G01 X27.6484 Y38.1915
G01 X27.6415 Y38.1844
G01 X27.5756 Y38.1117
G01 X27.5677 Y38.1022
G01 X27.5068 Y38.0202
G01 X27.4977 Y38.0066
G01 X27.4434 Y37.9156
G01 X27.3975 Y37.8192
G01 X27.3912 Y37.8040
G01 X27.3562 Y37.7057
G01 X27.3534 Y37.6959
G01 X27.3282 Y37.5945
G01 X27.3264 Y37.5846
G01 X27.3116 Y37.4842
G01 X27.3104 Y37.4712
G01 X27.3054 Y37.3667
G01 X27.3056 Y37.3568
G01 X27.3105 Y37.2579
G01 X27.2429 Y37.2536
G01 X27.2450 Y37.2325
G01 X27.2611 Y37.1260
G01 X27.2639 Y37.1129
G01 X27.2880 Y37.0169
G01 X27.2945 Y36.9956
G01 X27.3275 Y36.9032
G01 X27.3337 Y36.8880
G01 X27.3783 Y36.7932
G01 X27.3840 Y36.7820
G01 X27.3892 Y36.7729
G01 X27.4397 Y36.6887
G01 X27.4486 Y36.6750
G01 X27.5145 Y36.5861
G01 X27.5255 Y36.5729
G01 X27.5914 Y36.5002
G01 X27.6006 Y36.4907
G01 X27.6804 Y36.4180
G01 X27.6975 Y36.4039
G01 X27.7771 Y36.3449
G01 X27.7905 Y36.3357
G01 X27.8804 Y36.2817
G01 X27.8895 Y36.2765
G01 X27.9007 Y36.2708
G01 X27.9955 Y36.2262
G01 X28.0107 Y36.2200
G01 X28.1031 Y36.1870
G01 X28.1161 Y36.1828
G01 X28.2204 Y36.1564
G01 X28.2427 Y36.1520
G01 X28.3400 Y36.1375
G01 X28.3506 Y36.1363
G01 X28.3630 Y36.1353
G01 X28.4610 Y36.1305
G01 X28.4832 Y36.1304
G01 X28.5911 Y36.1359
G01 X28.6050 Y36.1375
G01 X28.7120 Y36.1536
G01 X28.7247 Y36.1564
G01 X28.8199 Y36.1803
G01 X28.8321 Y36.1838
G01 X28.9343 Y36.2200
G01 X28.9447 Y36.2241
G01 X28.9556 Y36.2289
G01 X29.0443 Y36.2708
G01 X29.0555 Y36.2765
G01 X29.1545 Y36.3357
G01 X29.1680 Y36.3449
G01 X29.2527 Y36.4080
G01 X29.2646 Y36.4180
G01 X29.3445 Y36.4907
G01 X29.3536 Y36.5002
G01 X29.4255 Y36.5798
G01 X29.4341 Y36.5907
G01 X29.4964 Y36.6750
G01 X29.5054 Y36.6887
G01 X29.5591 Y36.7787
G01 X29.5667 Y36.7932
G01 X29.6087 Y36.8819
G01 X29.6135 Y36.8928
G01 X29.6175 Y36.9032
G01 X29.6526 Y37.0019
G01 X29.6572 Y37.0177
G01 X29.6811 Y37.1129
G01 X29.6839 Y37.1260
G01 X29.7012 Y37.2421
G01 X29.7022 Y37.2555
G01 X29.7073 Y37.3634
G01 X29.7070 Y37.3765
G01 X29.7015 Y37.4846
G01 X29.7000 Y37.4975
G01 X29.6856 Y37.5946
G01 X29.6832 Y37.6077
G01 X29.6572 Y37.7124
G01 X29.6505 Y37.7344
G01 X29.6175 Y37.8268
G01 X29.6135 Y37.8372
G01 X29.6087 Y37.8481
G01 X29.5667 Y37.9368
G01 X29.5558 Y37.9571
G01 X29.5054 Y38.0413
G01 X29.4926 Y38.0605
G01 X29.4295 Y38.1452
G01 X29.4195 Y38.1571
G01 X29.3468 Y38.2370
G01 X29.3373 Y38.2461
G01 X29.2646 Y38.3120
G01 X29.2527 Y38.3220
G01 X29.1680 Y38.3851
G01 X29.1544 Y38.3943
G01 X29.0646 Y38.4483
G01 X29.0520 Y38.4553
G01 X28.9556 Y38.5012
G01 X28.9447 Y38.5060
G01 X28.9343 Y38.5100
G01 X28.8419 Y38.5430
G01 X28.8263 Y38.5480
G01 X28.7247 Y38.5736
G01 X28.7029 Y38.5779
G01 X28.6050 Y38.5925
G01 X28.5829 Y38.5947
G01 X28.4742 Y38.5998
G01 X28.4610 Y38.5995
G01 X28.3529 Y38.5940
G01 X28.3400 Y38.5925
G01 X28.2335 Y38.5764
G01 X28.2204 Y38.5736
G01 X28.1252 Y38.5497
G01 X28.1094 Y38.5451
G01 X28.0107 Y38.5100
G01 X28.0003 Y38.5060
G01 X27.9894 Y38.5012
G01 X27.8920 Y38.4548
G01 X27.8804 Y38.4483
G01 X27.7889 Y38.3932
G01 X27.7771 Y38.3851
G01 X27.6930 Y38.3225
G01 X27.6804 Y38.3120
G01 X27.6006 Y38.2393
G01 X27.5914 Y38.2298
G01 X27.5214 Y38.1524
G01 X27.5114 Y38.1400
G01 X27.4486 Y38.0551
G01 X27.4397 Y38.0413
G01 X27.3864 Y37.9524
G01 X27.3783 Y37.9368
G01 X27.3364 Y37.8481
G01 X27.3316 Y37.8372
G01 X27.3275 Y37.8268
G01 X27.2917 Y37.7262
G01 X27.2878 Y37.7124
G01 X27.2618 Y37.6077
G01 X27.2594 Y37.5946
G01 X27.2444 Y37.4925
G01 X27.2428 Y37.4746
G01 X27.2377 Y37.3667
G01 X27.2380 Y37.3535
G01 X27.2429 Y37.2536
G01 X27.1613 Y36.7613
G01 X27.1922 Y36.8267
G01 X27.2025 Y36.8512
G01 X27.2133 Y36.8256
G01 X27.2457 Y36.7572
G01 X27.2207 Y36.7601
G01 X27.1977 Y36.7616
G01 X27.1788 Y36.7620
G01 X27.1613 Y36.7613
G01 X27.0287 Y36.6628
G01 X27.0743 Y36.7388
G01 X27.0838 Y36.7561
G01 X27.1298 Y36.8530
G01 X27.1358 Y36.8665
G01 X27.1412 Y36.8804
G01 X27.1771 Y36.9815
G01 X27.1827 Y37.0004
G01 X27.2025 Y37.0797
G01 X27.2222 Y37.0012
G01 X27.2224 Y37.0001
G01 X27.2272 Y36.9836
G01 X27.2638 Y36.8804
G01 X27.2712 Y36.8621
G01 X27.3172 Y36.7643
G01 X27.3234 Y36.7518
G01 X27.3307 Y36.7388
G01 X27.3730 Y36.6683
G01 X27.3605 Y36.6720
G01 X27.3450 Y36.6759
G01 X27.3329 Y36.6782
G01 X27.3183 Y36.6804
G01 X27.2152 Y36.6926
G01 X27.1927 Y36.6941
G01 X27.1777 Y36.6943
G01 X27.1616 Y36.6936
G01 X27.1488 Y36.6924
G01 X27.1341 Y36.6904
G01 X27.1214 Y36.6881
G01 X27.1013 Y36.6832
G01 X27.0287 Y36.6628
G00 Z0.5000
G00 X29.5687 Y36.6628
G01 F250.00
G01 Z-0.0400
G01 F2500.00
G01 X29.6143 Y36.7388
G01 X29.6238 Y36.7561
G01 X29.6698 Y36.8530
G01 X29.6758 Y36.8665
G01 X29.6812 Y36.8804
G01 X29.7171 Y36.9815
G01 X29.7227 Y37.0004
G01 X29.7425 Y37.0797
G01 X29.7622 Y37.0012
G01 X29.7624 Y37.0001
G01 X29.7672 Y36.9836
G01 X29.8038 Y36.8804
G01 X29.8112 Y36.8621
G01 X29.8572 Y36.7643
G01 X29.8634 Y36.7518
G01 X29.8707 Y36.7388
G01 X29.9130 Y36.6683
G01 X29.9005 Y36.6720
G01 X29.8850 Y36.6759
G01 X29.8729 Y36.6782
G01 X29.8583 Y36.6804
G01 X29.7552 Y36.6926
G01 X29.7327 Y36.6941
G01 X29.7177 Y36.6943
G01 X29.7016 Y36.6936
G01 X29.6888 Y36.6924
G01 X29.6741 Y36.6904
G01 X29.6614 Y36.6881
G01 X29.6413 Y36.6832
G01 X29.5687 Y36.6628
G01 X29.7013 Y36.7613
G01 X29.7322 Y36.8267
G01 X29.7425 Y36.8512
G01 X29.7533 Y36.8256
G01 X29.7857 Y36.7572
G01 X29.7607 Y36.7601
G01 X29.7377 Y36.7616
G01 X29.7188 Y36.7620
G01 X29.7013 Y36.7613
G01 X29.7829 Y37.2536
G01 X29.7850 Y37.2325
G01 X29.8008 Y37.1276
G01 X29.8039 Y37.1129
G01 X29.8278 Y37.0177
G01 X29.8312 Y37.0055
G01 X29.8675 Y36.9032
G01 X29.8737 Y36.8880
G01 X29.9183 Y36.7932
G01 X29.9289 Y36.7734
G01 X29.9797 Y36.6887
G01 X29.9924 Y36.6696
G01 X30.0555 Y36.5848
G01 X30.0655 Y36.5729
G01 X30.1314 Y36.5002
G01 X30.1471 Y36.4845
G01 X30.2252 Y36.4139
G01 X30.2375 Y36.4039
G01 X30.3225 Y36.3411
G01 X30.3362 Y36.3322
G01 X30.4295 Y36.2765
G01 X30.4407 Y36.2708
G01 X30.5294 Y36.2289
G01 X30.5445 Y36.2224
G01 X30.6431 Y36.1870
G01 X30.6561 Y36.1828
G01 X30.7604 Y36.1564
G01 X30.7830 Y36.1519
G01 X30.8800 Y36.1375
G01 X30.8906 Y36.1363
G01 X30.9030 Y36.1353
G01 X31.0010 Y36.1305
G01 X31.0117 Y36.1302
G01 X31.0232 Y36.1304
G01 X31.1225 Y36.1353
G01 X31.1450 Y36.1375
G01 X31.2520 Y36.1536
G01 X31.2647 Y36.1564
G01 X31.3599 Y36.1803
G01 X31.3737 Y36.1842
G01 X31.4743 Y36.2200
G01 X31.4847 Y36.2241
G01 X31.4956 Y36.2289
G01 X31.5843 Y36.2708
G01 X31.5955 Y36.2765
G01 X31.6945 Y36.3357
G01 X31.7080 Y36.3449
G01 X31.7875 Y36.4039
G01 X31.8046 Y36.4180
G01 X31.8773 Y36.4839
G01 X31.8868 Y36.4931
G01 X31.8936 Y36.5002
G01 X31.9595 Y36.5729
G01 X31.9700 Y36.5855
G01 X32.0326 Y36.6696
G01 X32.0418 Y36.6831
G01 X32.0958 Y36.7729
G01 X32.1037 Y36.7873
G01 X32.1487 Y36.8819
G01 X32.1535 Y36.8928
G01 X32.1575 Y36.9032
G01 X32.1926 Y37.0019
G01 X32.1972 Y37.0177
G01 X32.2211 Y37.1129
G01 X32.2251 Y37.1325
G01 X32.2400 Y37.2325
G01 X32.2415 Y37.2454
G01 X32.2422 Y37.2555
G01 X32.2470 Y37.3535
G01 X32.2473 Y37.3667
G01 X32.2415 Y37.4846
G01 X32.2400 Y37.4975
G01 X32.2239 Y37.6045
G01 X32.2211 Y37.6172
G01 X32.1955 Y37.7188
G01 X32.1905 Y37.7344
G01 X32.1575 Y37.8268
G01 X32.1535 Y37.8372
G01 X32.1487 Y37.8481
G01 X32.1021 Y37.9460
G01 X32.0958 Y37.9571
G01 X32.0407 Y38.0487
G01 X32.0326 Y38.0605
G01 X31.9695 Y38.1452
G01 X31.9595 Y38.1571
G01 X31.8936 Y38.2298
G01 X31.8845 Y38.2393
G01 X31.8046 Y38.3120
G01 X31.7927 Y38.3220
G01 X31.7080 Y38.3851
G01 X31.6944 Y38.3943
G01 X31.6046 Y38.4483
G01 X31.5920 Y38.4553
G01 X31.4956 Y38.5012
G01 X31.4847 Y38.5060
G01 X31.4743 Y38.5100
G01 X31.3819 Y38.5430
G01 X31.3663 Y38.5480
G01 X31.2647 Y38.5736
G01 X31.2520 Y38.5764
G01 X31.1450 Y38.5925
G01 X31.1321 Y38.5940
G01 X31.0240 Y38.5995
G01 X31.0109 Y38.5998
G01 X30.8929 Y38.5940
G01 X30.8800 Y38.5925
G01 X30.7735 Y38.5764
G01 X30.7604 Y38.5736
G01 X30.6652 Y38.5497
G01 X30.6431 Y38.5430
G01 X30.5507 Y38.5100
G01 X30.5403 Y38.5060
G01 X30.5294 Y38.5012
G01 X30.4404 Y38.4591
G01 X30.4204 Y38.4483
G01 X30.3289 Y38.3932
G01 X30.3171 Y38.3851
G01 X30.2382 Y38.3266
G01 X30.2204 Y38.3120
G01 X30.1477 Y38.2461
G01 X30.1382 Y38.2370
G01 X30.0655 Y38.1571
G01 X30.0514 Y38.1400
G01 X29.9886 Y38.0551
G01 X29.9797 Y38.0413
G01 X29.9292 Y37.9571
G01 X29.9203 Y37.9408
G01 X29.8764 Y37.8481
G01 X29.8716 Y37.8372
G01 X29.8675 Y37.8268
G01 X29.8345 Y37.7344
G01 X29.8278 Y37.7124
G01 X29.8018 Y37.6077
G01 X29.7994 Y37.5946
G01 X29.7850 Y37.4975
G01 X29.7828 Y37.4746
G01 X29.7780 Y37.3765
G01 X29.7777 Y37.3634
G01 X29.7828 Y37.2555
G01 X29.7829 Y37.2536
G01 X29.8505 Y37.2579
G01 X29.8520 Y37.2425
G01 X29.8673 Y37.1398
G01 X29.8696 Y37.1293
G01 X29.8950 Y37.0282
G01 X29.8982 Y37.0184
G01 X29.9324 Y36.9229
G01 X29.9375 Y36.9109
G01 X29.9834 Y36.8144
G01 X30.0377 Y36.7235
G01 X30.0449 Y36.7126
G01 X30.1057 Y36.6305
G01 X30.1156 Y36.6184
G01 X30.1815 Y36.5456
G01 X30.1884 Y36.5385
G01 X30.2659 Y36.4681
G01 X30.2780 Y36.4582
G01 X30.3601 Y36.3974
G01 X30.3710 Y36.3902
G01 X30.4619 Y36.3359
G01 X30.5584 Y36.2900
G01 X30.5735 Y36.2837
G01 X30.6725 Y36.2485
G01 X30.6816 Y36.2459
G01 X30.7769 Y36.2221
G01 X30.7923 Y36.2190
G01 X30.8964 Y36.2037
G01 X30.9063 Y36.2029
G01 X31.0125 Y36.1979
G01 X31.1187 Y36.2029
G01 X31.1351 Y36.2045
G01 X31.2387 Y36.2200
G01 X31.2482 Y36.2221
G01 X31.3434 Y36.2459
G01 X31.3591 Y36.2507
G01 X31.4592 Y36.2867
G01 X31.5554 Y36.3320
G01 X31.5698 Y36.3397
G01 X31.6569 Y36.3920
G01 X31.6677 Y36.3993
G01 X31.7471 Y36.4582
G01 X31.7592 Y36.4681
G01 X31.8319 Y36.5340
G01 X31.8390 Y36.5409
G01 X31.9094 Y36.6184
G01 X31.9198 Y36.6310
G01 X31.9782 Y36.7099
G01 X31.9874 Y36.7235
G01 X32.0378 Y36.8077
G01 X32.0441 Y36.8192
G01 X32.0875 Y36.9109
G01 X32.0938 Y36.9260
G01 X32.1279 Y37.0216
G01 X32.1316 Y37.0341
G01 X32.1555 Y37.1294
G01 X32.1577 Y37.1398
G01 X32.1730 Y37.2425
G01 X32.1747 Y37.2588
G01 X32.1795 Y37.3568
G01 X32.1797 Y37.3667
G01 X32.1747 Y37.4712
G01 X32.1730 Y37.4876
G01 X32.1575 Y37.5912
G01 X32.1554 Y37.6007
G01 X32.1316 Y37.6959
G01 X32.1279 Y37.7085
G01 X32.0938 Y37.8040
G01 X32.0875 Y37.8192
G01 X32.0427 Y37.9135
G01 X32.0378 Y37.9223
G01 X31.9874 Y38.0065
G01 X31.9782 Y38.0202
G01 X31.9173 Y38.1022
G01 X31.9094 Y38.1117
G01 X31.8435 Y38.1844
G01 X31.8366 Y38.1915
G01 X31.7592 Y38.2619
G01 X31.7466 Y38.2722
G01 X31.6649 Y38.3327
G01 X31.6540 Y38.3399
G01 X31.5698 Y38.3903
G01 X31.5554 Y38.3980
G01 X31.4592 Y38.4433
G01 X31.3591 Y38.4793
G01 X31.3466 Y38.4832
G01 X31.2482 Y38.5079
G01 X31.2321 Y38.5111
G01 X31.1351 Y38.5255
G01 X31.1255 Y38.5267
G01 X31.0207 Y38.5320
G01 X31.0043 Y38.5320
G01 X30.8996 Y38.5267
G01 X30.8900 Y38.5255
G01 X30.7873 Y38.5102
G01 X30.7769 Y38.5080
G01 X30.6816 Y38.4841
G01 X30.6691 Y38.4804
G01 X30.5735 Y38.4463
G01 X30.5584 Y38.4400
G01 X30.4645 Y38.3955
G01 X30.4552 Y38.3903
G01 X30.3710 Y38.3399
G01 X30.3574 Y38.3307
G01 X30.2759 Y38.2702
G01 X30.2659 Y38.2619
G01 X30.1931 Y38.1960
G01 X30.1860 Y38.1891
G01 X30.1156 Y38.1117
G01 X30.1053 Y38.0991
G01 X30.0468 Y38.0202
G01 X30.0395 Y38.0094
G01 X29.9872 Y37.9223
G01 X29.9795 Y37.9079
G01 X29.9342 Y37.8117
G01 X29.8962 Y37.7057
G01 X29.8934 Y37.6959
G01 X29.8696 Y37.6007
G01 X29.8664 Y37.5846
G01 X29.8516 Y37.4842
G01 X29.8504 Y37.4712
G01 X29.8456 Y37.3732
G01 X29.8456 Y37.3568
G01 X29.8505 Y37.2579
G00 Z0.5000
G00 X29.9180 Y37.2621
G01 F250.00
G01 Z-0.0400
G01 F2500.00
G01 X29.9189 Y37.2524
G01 X29.9333 Y37.1553
G01 X29.9352 Y37.1458
G01 X29.9603 Y37.0461
G01 X29.9949 Y36.9488
G01 X29.9987 Y36.9398
G01 X30.0436 Y36.8453
G01 X30.0957 Y36.7582
G01 X30.1011 Y36.7502
G01 X30.1599 Y36.6709
G01 X30.1658 Y36.6638
G01 X30.2317 Y36.5911
G01 X30.2386 Y36.5842
G01 X30.3113 Y36.5183
G01 X30.3184 Y36.5124
G01 X30.3977 Y36.4536
G01 X30.4058 Y36.4482
G01 X30.4928 Y36.3961
G01 X30.5873 Y36.3512
G01 X30.5963 Y36.3474
G01 X30.6936 Y36.3128
G01 X30.7933 Y36.2877
G01 X30.8011 Y36.2861
G01 X30.9023 Y36.2711
G01 X30.9096 Y36.2704
G01 X31.0076 Y36.2656
G01 X31.0174 Y36.2656
G01 X31.1178 Y36.2706
G01 X31.1251 Y36.2714
G01 X31.2271 Y36.2867
G01 X31.3270 Y36.3116
G01 X31.3343 Y36.3137
G01 X31.4321 Y36.3487
G01 X31.5322 Y36.3961
G01 X31.6193 Y36.4482
G01 X31.6274 Y36.4536
G01 X31.7066 Y36.5124
G01 X31.7137 Y36.5183
G01 X31.7900 Y36.5875
G01 X31.8592 Y36.6638
G01 X31.8654 Y36.6713
G01 X31.9239 Y36.7502
G01 X31.9293 Y36.7583
G01 X31.9798 Y36.8425
G01 X31.9844 Y36.8511
G01 X32.0288 Y36.9454
G01 X32.0631 Y37.0412
G01 X32.0660 Y37.0506
G01 X32.0898 Y37.1458
G01 X32.0914 Y37.1536
G01 X32.1067 Y37.2571
G01 X32.1120 Y37.3650
G01 X32.1067 Y37.4729
G01 X32.0909 Y37.5796
G01 X32.0660 Y37.6795
G01 X32.0631 Y37.6888
G01 X32.0288 Y37.7846
G01 X31.9834 Y37.8809
G01 X31.9798 Y37.8876
G01 X31.9287 Y37.9728
G01 X31.9239 Y37.9799
G01 X31.8651 Y38.0591
G01 X31.8592 Y38.0662
G01 X31.7900 Y38.1425
G01 X31.7137 Y38.2117
G01 X31.7066 Y38.2176
G01 X31.6274 Y38.2764
G01 X31.6192 Y38.2818
G01 X31.5351 Y38.3323
G01 X31.5284 Y38.3359
G01 X31.4321 Y38.3813
G01 X31.3363 Y38.4156
G01 X31.3270 Y38.4185
G01 X31.2271 Y38.4434
G01 X31.1204 Y38.4592
G01 X31.0174 Y38.4644
G01 X31.0076 Y38.4644
G01 X30.9046 Y38.4592
G01 X30.8011 Y38.4439
G01 X30.7933 Y38.4423
G01 X30.6981 Y38.4185
G01 X30.6887 Y38.4156
G01 X30.5963 Y38.3826
G01 X30.5873 Y38.3788
G01 X30.4969 Y38.3361
G01 X30.4900 Y38.3323
G01 X30.4058 Y38.2818
G01 X30.3977 Y38.2764
G01 X30.3188 Y38.2179
G01 X30.3113 Y38.2117
G01 X30.2350 Y38.1425
G01 X30.1658 Y38.0662
G01 X30.1599 Y38.0591
G01 X30.1011 Y37.9799
G01 X30.0957 Y37.9718
G01 X30.0436 Y37.8847
G01 X29.9962 Y37.7846
G01 X29.9612 Y37.6868
G01 X29.9591 Y37.6795
G01 X29.9342 Y37.5796
G01 X29.9189 Y37.4776
G01 X29.9179 Y37.4679
G01 X29.9130 Y37.3650
G01 X29.9131 Y37.3601
G01 X29.9179 Y37.2621
G01 X29.9180 Y37.2621
G01 X29.6994 Y37.9729
G01 X29.7273 Y37.9697
G01 X29.7490 Y37.9683
G01 X29.7666 Y37.9681
G01 X29.7837 Y37.9687
G01 X29.7528 Y37.9034
G01 X29.7425 Y37.8788
G01 X29.7322 Y37.9034
G01 X29.6994 Y37.9729
G01 X29.9163 Y38.0673
G01 X29.8707 Y37.9912
G01 X29.8634 Y37.9782
G01 X29.8572 Y37.9657
G01 X29.8152 Y37.8770
G01 X29.8092 Y37.8635
G01 X29.8038 Y37.8496
G01 X29.7707 Y37.7570
G01 X29.7691 Y37.7523
G01 X29.7683 Y37.7499
G01 X29.7673 Y37.7467
G01 X29.7623 Y37.7294
G01 X29.7425 Y37.6504
G01 X29.7227 Y37.7296
G01 X29.7171 Y37.7485
G01 X29.6812 Y37.8496
G01 X29.6758 Y37.8635
G01 X29.6698 Y37.8770
G01 X29.6229 Y37.9756
G01 X29.6142 Y37.9914
G01 X29.5720 Y38.0618
G01 X29.5808 Y38.0591
G01 X29.5994 Y38.0544
G01 X29.6113 Y38.0520
G01 X29.6268 Y38.0496
G01 X29.7316 Y38.0372
G01 X29.7523 Y38.0359
G01 X29.7674 Y38.0357
G01 X29.7840 Y38.0365
G01 X29.7973 Y38.0377
G01 X29.8134 Y38.0400
G01 X29.8250 Y38.0422
G01 X29.8438 Y38.0468
G01 X29.9163 Y38.0673
G00 Z0.5000
G00 X32.2394 Y37.9729
G01 F250.00
G01 Z-0.0400
G01 F2500.00
G01 X32.2673 Y37.9697
G01 X32.2890 Y37.9683
G01 X32.3066 Y37.9681
G01 X32.3237 Y37.9687
G01 X32.2928 Y37.9034
G01 X32.2825 Y37.8788
G01 X32.2722 Y37.9034
G01 X32.2394 Y37.9729
G01 X32.4563 Y38.0673
G01 X32.4107 Y37.9912
G01 X32.4034 Y37.9782
G01 X32.3972 Y37.9657
G01 X32.3552 Y37.8770
G01 X32.3492 Y37.8635
G01 X32.3438 Y37.8496
G01 X32.3073 Y37.7467
G01 X32.3023 Y37.7294
G01 X32.2825 Y37.6504
G01 X32.2627 Y37.7296
G01 X32.2571 Y37.7485
G01 X32.2212 Y37.8496
G01 X32.2158 Y37.8635
G01 X32.2098 Y37.8770
G01 X32.1629 Y37.9756
G01 X32.1542 Y37.9914
G01 X32.1120 Y38.0618
G01 X32.1208 Y38.0591
G01 X32.1394 Y38.0544
G01 X32.1513 Y38.0520
G01 X32.1668 Y38.0496
G01 X32.2716 Y38.0372
G01 X32.2923 Y38.0359
G01 X32.3074 Y38.0357
G01 X32.3240 Y38.0365
G01 X32.3373 Y38.0377
G01 X32.3534 Y38.0400
G01 X32.3650 Y38.0422
G01 X32.3838 Y38.0468
G01 X32.4563 Y38.0673
G00 Z0.5000
G00 X32.4580 Y37.2621
G01 F250.00
G01 Z-0.0400
G01 F2500.00
G01 X32.4589 Y37.2524
G01 X32.4736 Y37.1536
G01 X32.4752 Y37.1458
G01 X32.5003 Y37.0461
G01 X32.5349 Y36.9488
G01 X32.5387 Y36.9398
G01 X32.5836 Y36.8453
G01 X32.6357 Y36.7583
G01 X32.6411 Y36.7502
G01 X32.6999 Y36.6709
G01 X32.7058 Y36.6638
G01 X32.7750 Y36.5875
G01 X32.8513 Y36.5183
G01 X32.8584 Y36.5124
G01 X32.9377 Y36.4536
G01 X32.9458 Y36.4482
G01 X33.0328 Y36.3961
G01 X33.1273 Y36.3512
G01 X33.1363 Y36.3474
G01 X33.2336 Y36.3128
G01 X33.3333 Y36.2877
G01 X33.3411 Y36.2861
G01 X33.4423 Y36.2711
G01 X33.4496 Y36.2704
G01 X33.5525 Y36.2655
G01 X33.6578 Y36.2706
G01 X33.6651 Y36.2714
G01 X33.7671 Y36.2867
G01 X33.8670 Y36.3116
G01 X33.8743 Y36.3137
G01 X33.9721 Y36.3487
G01 X34.0722 Y36.3961
G01 X34.1593 Y36.4482
G01 X34.1674 Y36.4536
G01 X34.2466 Y36.5124
G01 X34.2537 Y36.5183
G01 X34.3300 Y36.5875
G01 X34.3992 Y36.6638
G01 X34.4054 Y36.6713
G01 X34.4639 Y36.7502
G01 X34.4693 Y36.7583
G01 X34.5198 Y36.8425
G01 X34.5244 Y36.8511
G01 X34.5688 Y36.9454
G01 X34.6031 Y37.0412
G01 X34.6060 Y37.0506
G01 X34.6298 Y37.1458
G01 X34.6314 Y37.1536
G01 X34.6467 Y37.2571
G01 X34.6520 Y37.3650
G01 X34.6467 Y37.4729
G01 X34.6309 Y37.5796
G01 X34.6060 Y37.6795
G01 X34.6031 Y37.6888
G01 X34.5688 Y37.7846
G01 X34.5234 Y37.8809
G01 X34.5198 Y37.8876
G01 X34.4687 Y37.9728
G01 X34.4639 Y37.9799
G01 X34.4051 Y38.0591
G01 X34.3992 Y38.0662
G01 X34.3300 Y38.1425
G01 X34.2537 Y38.2117
G01 X34.2466 Y38.2176
G01 X34.1674 Y38.2764
G01 X34.1592 Y38.2818
G01 X34.0751 Y38.3323
G01 X34.0684 Y38.3359
G01 X33.9721 Y38.3813
G01 X33.8763 Y38.4156
G01 X33.8670 Y38.4185
G01 X33.7671 Y38.4434
G01 X33.6604 Y38.4592
G01 X33.5525 Y38.4645
G01 X33.4446 Y38.4592
G01 X33.3411 Y38.4439
G01 X33.3333 Y38.4423
G01 X33.2381 Y38.4185
G01 X33.2287 Y38.4156
G01 X33.1329 Y38.3813
G01 X33.0369 Y38.3361
G01 X33.0300 Y38.3323
G01 X32.9447 Y38.2812
G01 X32.9377 Y38.2764
G01 X32.8588 Y38.2179
G01 X32.8513 Y38.2117
G01 X32.7750 Y38.1425
G01 X32.7058 Y38.0662
G01 X32.6999 Y38.0591
G01 X32.6411 Y37.9799
G01 X32.6357 Y37.9718
G01 X32.5836 Y37.8847
G01 X32.5362 Y37.7846
G01 X32.5012 Y37.6868
G01 X32.4991 Y37.6795
G01 X32.4742 Y37.5796
G01 X32.4589 Y37.4776
G01 X32.4579 Y37.4679
G01 X32.4530 Y37.3650
G01 X32.4580 Y37.2621
G00 Z0.5000
G00 X32.3905 Y37.2579
G01 F250.00
G01 Z-0.0400
G01 F2500.00
G01 X32.3920 Y37.2425
G01 X32.4073 Y37.1398
G01 X32.4096 Y37.1294
G01 X32.4334 Y37.0341
G01 X32.4382 Y37.0184
G01 X32.4712 Y36.9260
G01 X32.4762 Y36.9139
G01 X32.5195 Y36.8221
G01 X32.5272 Y36.8077
G01 X32.5795 Y36.7206
G01 X32.5868 Y36.7099
G01 X32.6477 Y36.6279
G01 X32.6556 Y36.6184
G01 X32.7215 Y36.5456
G01 X32.7331 Y36.5340
G01 X32.8059 Y36.4681
G01 X32.8154 Y36.4602
G01 X32.8974 Y36.3993
G01 X32.9110 Y36.3902
G01 X33.0019 Y36.3359
G01 X33.0984 Y36.2900
G01 X33.1135 Y36.2837
G01 X33.2125 Y36.2485
G01 X33.2216 Y36.2459
G01 X33.3169 Y36.2221
G01 X33.3323 Y36.2190
G01 X33.4364 Y36.2037
G01 X33.4463 Y36.2029
G01 X33.5443 Y36.1981
G01 X33.5542 Y36.1979
G01 X33.6587 Y36.2029
G01 X33.6751 Y36.2045
G01 X33.7804 Y36.2203
G01 X33.8834 Y36.2459
G01 X33.8991 Y36.2507
G01 X33.9992 Y36.2867
G01 X34.1031 Y36.3359
G01 X34.1941 Y36.3902
G01 X34.2050 Y36.3974
G01 X34.2871 Y36.4582
G01 X34.2992 Y36.4681
G01 X34.3719 Y36.5340
G01 X34.3790 Y36.5409
G01 X34.4494 Y36.6184
G01 X34.4598 Y36.6310
G01 X34.5202 Y36.7126
G01 X34.5274 Y36.7235
G01 X34.5778 Y36.8077
G01 X34.5841 Y36.8192
G01 X34.6275 Y36.9109
G01 X34.6338 Y36.9260
G01 X34.6668 Y37.0184
G01 X34.6707 Y37.0309
G01 X34.6955 Y37.1294
G01 X34.6986 Y37.1448
G01 X34.7138 Y37.2488
G01 X34.7147 Y37.2588
G01 X34.7195 Y37.3568
G01 X34.7197 Y37.3667
G01 X34.7147 Y37.4712
G01 X34.7130 Y37.4876
G01 X34.6975 Y37.5912
G01 X34.6954 Y37.6007
G01 X34.6716 Y37.6959
G01 X34.6668 Y37.7116
G01 X34.6308 Y37.8117
G01 X34.5827 Y37.9135
G01 X34.5778 Y37.9223
G01 X34.5271 Y38.0069
G01 X34.5182 Y38.0202
G01 X34.4594 Y38.0996
G01 X34.4494 Y38.1117
G01 X34.3835 Y38.1844
G01 X34.3766 Y38.1915
G01 X34.2992 Y38.2619
G01 X34.2866 Y38.2722
G01 X34.2077 Y38.3307
G01 X34.1968 Y38.3381
G01 X34.1098 Y38.3903
G01 X34.0954 Y38.3980
G01 X33.9992 Y38.4433
G01 X33.8991 Y38.4793
G01 X33.8834 Y38.4841
G01 X33.7820 Y38.5094
G01 X33.7721 Y38.5111
G01 X33.6751 Y38.5255
G01 X33.6655 Y38.5267
G01 X33.5607 Y38.5320
G01 X33.5443 Y38.5320
G01 X33.4396 Y38.5267
G01 X33.4300 Y38.5255
G01 X33.3329 Y38.5111
G01 X33.3169 Y38.5080
G01 X33.2184 Y38.4832
G01 X33.2059 Y38.4793
G01 X33.1058 Y38.4433
G01 X33.0091 Y38.3978
G01 X32.9952 Y38.3903
G01 X32.9068 Y38.3372
G01 X32.8974 Y38.3307
G01 X32.8185 Y38.2723
G01 X32.8059 Y38.2619
G01 X32.7284 Y38.1915
G01 X32.7215 Y38.1844
G01 X32.6556 Y38.1117
G01 X32.6477 Y38.1022
G01 X32.5868 Y38.0202
G01 X32.5777 Y38.0066
G01 X32.5234 Y37.9156
G01 X32.4775 Y37.8192
G01 X32.4712 Y37.8040
G01 X32.4362 Y37.7057
G01 X32.4334 Y37.6959
G01 X32.4082 Y37.5945
G01 X32.4064 Y37.5846
G01 X32.3916 Y37.4842
G01 X32.3904 Y37.4712
G01 X32.3854 Y37.3667
G01 X32.3856 Y37.3568
G01 X32.3905 Y37.2579
G01 X32.3229 Y37.2536
G01 X32.3250 Y37.2325
G01 X32.3411 Y37.1260
G01 X32.3439 Y37.1129
G01 X32.3680 Y37.0169
G01 X32.3745 Y36.9956
G01 X32.4075 Y36.9032
G01 X32.4137 Y36.8880
G01 X32.4583 Y36.7932
G01 X32.4640 Y36.7820
G01 X32.4692 Y36.7729
G01 X32.5197 Y36.6887
G01 X32.5286 Y36.6750
G01 X32.5945 Y36.5861
G01 X32.6055 Y36.5729
G01 X32.6714 Y36.5002
G01 X32.6806 Y36.4907
G01 X32.7604 Y36.4180
G01 X32.7775 Y36.4039
G01 X32.8571 Y36.3449
G01 X32.8705 Y36.3357
G01 X32.9604 Y36.2817
G01 X32.9695 Y36.2765
G01 X32.9807 Y36.2708
G01 X33.0755 Y36.2262
G01 X33.0907 Y36.2200
G01 X33.1831 Y36.1870
G01 X33.1961 Y36.1828
G01 X33.3004 Y36.1564
G01 X33.3227 Y36.1520
G01 X33.4200 Y36.1375
