(G-CODE GENERATED BY FLATCAM v2022 - www.flatcam.org - Version Date: 2021/12/01)

(Name: Cncjob_drill_1.0mm)
(Type: G-code from Excellon)
(Units: MM)

(Created on Friday, 12 April 2024 at 13:33)

(Feedrate: 480 mm/min)
(Feedrate rapids 1500 mm/min)

(Z_Cut: -2 mm)
(Z_Move: 1 mm)
(Z Toolchange: 15 mm)
(X,Y Toolchange: None mm)
(Z Start: None mm)
(Z End: 0.5 mm)
(Steps per circle: 64)
(Preprocessor Excellon: default)

(X range:   66.5600 ...  142.8060  mm)
(Y range: -165.3140 ...  -40.8890  mm)

(Spindle Speed: 0 RPM)
G21
G90
G94




G01 F480.00
G00 Z1.0000

M03
G4 P1.0
G00 X10.7750 Y104.3450
G01 Z-2.0000
G01 Z0
G00 Z1.0000
G00 X14.2250 Y105.0550
G01 Z-2.0000
G01 Z0
G00 Z1.0000
G00 X15.7950 Y99.8850
G01 Z-2.0000
G01 Z0
G00 Z1.0000
G00 X18.3350 Y99.8850
G01 Z-2.0000
G01 Z0
G00 Z1.0000
G00 X20.8450 Y93.4650
G01 Z-2.0000
G01 Z0
G00 Z1.0000
G00 X23.3850 Y88.9150
G01 Z-2.0000
G01 Z0
G00 Z1.0000
G00 X25.9250 Y88.9150
G01 Z-2.0000
G01 Z0
G00 Z1.0000
G00 X28.4650 Y88.9150
G01 Z-2.0000
G01 Z0
G00 Z1.0000
G00 X36.0550 Y90.3050
G01 Z-2.0000
G01 Z0
G00 Z1.0000
G00 X32.2450 Y93.6150
G01 Z-2.0000
G01 Z0
G00 Z1.0000
G00 X28.4650 Y93.4650
G01 Z-2.0000
G01 Z0
G00 Z1.0000
G00 X27.8350 Y99.6750
G01 Z-2.0000
G01 Z0
G00 Z1.0000
G00 X25.2950 Y99.6750
G01 Z-2.0000
G01 Z0
G00 Z1.0000
G00 X22.7550 Y99.6750
G01 Z-2.0000
G01 Z0
G00 Z1.0000
G00 X24.3850 Y105.0550
G01 Z-2.0000
G01 Z0
G00 Z1.0000
G00 X30.8650 Y105.2550
G01 Z-2.0000
G01 Z0
G00 Z1.0000
G00 X32.2450 Y101.2350
G01 Z-2.0000
G01 Z0
G00 Z1.0000
G00 X36.5850 Y98.5700
G01 Z-2.0000
G01 Z0
G00 Z1.0000
G00 X36.5850 Y101.1100
G01 Z-2.0000
G01 Z0
G00 Z1.0000
G00 X41.0250 Y105.2550
G01 Z-2.0000
G01 Z0
G00 Z1.0000
G00 X42.3650 Y99.6550
G01 Z-2.0000
G01 Z0
G00 Z1.0000
G00 X42.3650 Y97.1150
G01 Z-2.0000
G01 Z0
G00 Z1.0000
G00 X42.3650 Y94.5750
G01 Z-2.0000
G01 Z0
G00 Z1.0000
G00 X43.6750 Y90.3050
G01 Z-2.0000
G01 Z0
G00 Z1.0000
G00 X49.2350 Y93.9150
G01 Z-2.0000
G01 Z0
G00 Z1.0000
G00 X48.4650 Y88.8150
G01 Z-2.0000
G01 Z0
G00 Z1.0000
G00 X51.0050 Y88.8150
G01 Z-2.0000
G01 Z0
G00 Z1.0000
G00 X53.5450 Y88.8150
G01 Z-2.0000
G01 Z0
G00 Z1.0000
G00 X59.8450 Y93.8650
G01 Z-2.0000
G01 Z0
G00 Z1.0000
G00 X63.6350 Y87.6750
G01 Z-2.0000
G01 Z0
G00 Z1.0000
G00 X63.6350 Y80.0550
G01 Z-2.0000
G01 Z0
G00 Z1.0000
G00 X60.3500 Y75.9650
G01 Z-2.0000
G01 Z0
G00 Z1.0000
G00 X57.8100 Y75.9650
G01 Z-2.0000
G01 Z0
G00 Z1.0000
G00 X52.7450 Y74.9850
G01 Z-2.0000
G01 Z0
G00 Z1.0000
G00 X48.7150 Y74.9050
G01 Z-2.0000
G01 Z0
G00 Z1.0000
G00 X53.5450 Y81.1950
G01 Z-2.0000
G01 Z0
G00 Z1.0000
G00 X51.0050 Y81.1950
G01 Z-2.0000
G01 Z0
G00 Z1.0000
G00 X48.4650 Y81.1950
G01 Z-2.0000
G01 Z0
G00 Z1.0000
G00 X42.3050 Y85.1300
G01 Z-2.0000
G01 Z0
G00 Z1.0000
G00 X42.3050 Y82.5900
G01 Z-2.0000
G01 Z0
G00 Z1.0000
G00 X40.7650 Y77.2150
G01 Z-2.0000
G01 Z0
G00 Z1.0000
G00 X44.0650 Y74.8750
G01 Z-2.0000
G01 Z0
G00 Z1.0000
G00 X44.0650 Y67.2550
G01 Z-2.0000
G01 Z0
G00 Z1.0000
G00 X48.7150 Y67.2850
G01 Z-2.0000
G01 Z0
G00 Z1.0000
G00 X52.7450 Y67.3650
G01 Z-2.0000
G01 Z0
G00 Z1.0000
G00 X57.7050 Y69.8850
G01 Z-2.0000
G01 Z0
G00 Z1.0000
G00 X57.7050 Y67.3850
G01 Z-2.0000
G01 Z0
G00 Z1.0000
G00 X66.4550 Y66.5950
G01 Z-2.0000
G01 Z0
G00 Z1.0000
G00 X66.4550 Y69.1350
G01 Z-2.0000
G01 Z0
G00 Z1.0000
G00 X66.4550 Y71.6750
G01 Z-2.0000
G01 Z0
G00 Z1.0000
G00 X66.4550 Y74.2150
G01 Z-2.0000
G01 Z0
G00 Z1.0000
G00 X70.1750 Y79.4250
G01 Z-2.0000
G01 Z0
G00 Z1.0000
G00 X73.4750 Y79.4350
G01 Z-2.0000
G01 Z0
G00 Z1.0000
G00 X73.4750 Y87.0550
G01 Z-2.0000
G01 Z0
G00 Z1.0000
G00 X70.1750 Y87.0450
G01 Z-2.0000
G01 Z0
G00 Z1.0000
G00 X67.4650 Y93.8650
G01 Z-2.0000
G01 Z0
G00 Z1.0000
G00 X67.3850 Y100.9350
G01 Z-2.0000
G01 Z0
G00 Z1.0000
G00 X59.7650 Y100.9350
G01 Z-2.0000
G01 Z0
G00 Z1.0000
G00 X59.3950 Y105.2850
G01 Z-2.0000
G01 Z0
G00 Z1.0000
G00 X54.2850 Y101.0000
G01 Z-2.0000
G01 Z0
G00 Z1.0000
G00 X54.2850 Y98.4600
G01 Z-2.0000
G01 Z0
G00 Z1.0000
G00 X49.2350 Y101.5350
G01 Z-2.0000
G01 Z0
G00 Z1.0000
G00 X49.2350 Y105.2850
G01 Z-2.0000
G01 Z0
G00 Z1.0000
G00 X65.5850 Y124.4050
G01 Z-2.0000
G01 Z0
G00 Z1.0000
G00 X73.2050 Y124.4050
G01 Z-2.0000
G01 Z0
G00 Z1.0000
G00 X72.4450 Y117.6550
G01 Z-2.0000
G01 Z0
G00 Z1.0000
G00 X69.9050 Y117.6550
G01 Z-2.0000
G01 Z0
G00 Z1.0000
G00 X67.3650 Y117.6550
G01 Z-2.0000
G01 Z0
G00 Z1.0000
G00 X67.3650 Y110.0350
G01 Z-2.0000
G01 Z0
G00 Z1.0000
G00 X69.9050 Y110.0350
G01 Z-2.0000
G01 Z0
G00 Z1.0000
G00 X72.4450 Y110.0350
G01 Z-2.0000
G01 Z0
G00 Z1.0000
G00 X85.9350 Y75.7850
G01 Z-2.0000
G01 Z0
G00 Z1.0000
G00 X83.3950 Y75.7850
G01 Z-2.0000
G01 Z0
G00 Z1.0000
G00 X80.8550 Y75.7850
G01 Z-2.0000
G01 Z0
G00 Z1.0000
G00 X78.3150 Y75.7850
G01 Z-2.0000
G01 Z0
G00 Z1.0000
G00 X78.3150 Y68.1650
G01 Z-2.0000
G01 Z0
G00 Z1.0000
G00 X80.8550 Y68.1650
G01 Z-2.0000
G01 Z0
G00 Z1.0000
G00 X83.3950 Y68.1650
G01 Z-2.0000
G01 Z0
G00 Z1.0000
G00 X85.9350 Y68.1650
G01 Z-2.0000
G01 Z0
G00 Z1.0000
G00 X79.3550 Y61.8550
G01 Z-2.0000
G01 Z0
G00 Z1.0000
G00 X79.3150 Y56.1350
G01 Z-2.0000
G01 Z0
G00 Z1.0000
G00 X79.2150 Y50.3150
G01 Z-2.0000
G01 Z0
G00 Z1.0000
G00 X74.1910 Y44.0750
G01 Z-2.0000
G01 Z0
G00 Z1.0000
G00 X65.6850 Y28.8700
G01 Z-2.0000
G01 Z0
G00 Z1.0000
G00 X65.6850 Y11.8700
G01 Z-2.0000
G01 Z0
G00 Z1.0000
G00 X25.6850 Y11.8700
G01 Z-2.0000
G01 Z0
G00 Z1.0000
G00 X20.6550 Y18.7150
G01 Z-2.0000
G01 Z0
G00 Z1.0000
G00 X25.6850 Y28.8700
G01 Z-2.0000
G01 Z0
G00 Z1.0000
G00 X20.6550 Y28.8750
G01 Z-2.0000
G01 Z0
G00 Z1.0000
G00 X20.8530 Y37.3650
G01 Z-2.0000
G01 Z0
G00 Z1.0000
G00 X23.3920 Y37.3650
G01 Z-2.0000
G01 Z0
G00 Z1.0000
G00 X25.9330 Y37.3650
G01 Z-2.0000
G01 Z0
G00 Z1.0000
G00 X28.4720 Y37.3650
G01 Z-2.0000
G01 Z0
G00 Z1.0000
G00 X31.0120 Y37.3650
G01 Z-2.0000
G01 Z0
G00 Z1.0000
G00 X33.5520 Y37.3650
G01 Z-2.0000
G01 Z0
G00 Z1.0000
G00 X36.0920 Y37.3650
G01 Z-2.0000
G01 Z0
G00 Z1.0000
G00 X38.6320 Y37.3650
G01 Z-2.0000
G01 Z0
G00 Z1.0000
G00 X41.1720 Y37.3650
G01 Z-2.0000
G01 Z0
G00 Z1.0000
G00 X43.7130 Y37.3650
G01 Z-2.0000
G01 Z0
G00 Z1.0000
G00 X46.2520 Y37.3650
G01 Z-2.0000
G01 Z0
G00 Z1.0000
G00 X48.7930 Y37.3650
G01 Z-2.0000
G01 Z0
G00 Z1.0000
G00 X51.3320 Y37.3650
G01 Z-2.0000
G01 Z0
G00 Z1.0000
G00 X53.8720 Y37.3650
G01 Z-2.0000
G01 Z0
G00 Z1.0000
G00 X56.4120 Y37.3650
G01 Z-2.0000
G01 Z0
G00 Z1.0000
G00 X58.9520 Y37.3650
G01 Z-2.0000
G01 Z0
G00 Z1.0000
G00 X61.4920 Y37.3650
G01 Z-2.0000
G01 Z0
G00 Z1.0000
G00 X64.0320 Y37.3650
G01 Z-2.0000
G01 Z0
G00 Z1.0000
G00 X66.5720 Y37.3650
G01 Z-2.0000
G01 Z0
G00 Z1.0000
G00 X71.6910 Y44.0750
G01 Z-2.0000
G01 Z0
G00 Z1.0000
G00 X71.5950 Y50.3150
G01 Z-2.0000
G01 Z0
G00 Z1.0000
G00 X71.6950 Y56.1350
G01 Z-2.0000
G01 Z0
G00 Z1.0000
G00 X71.7350 Y61.8550
G01 Z-2.0000
G01 Z0
G00 Z1.0000
G00 X66.5720 Y60.7650
G01 Z-2.0000
G01 Z0
G00 Z1.0000
G00 X64.0320 Y60.7650
G01 Z-2.0000
G01 Z0
G00 Z1.0000
G00 X61.4920 Y60.7650
G01 Z-2.0000
G01 Z0
G00 Z1.0000
G00 X58.9520 Y60.7650
G01 Z-2.0000
G01 Z0
G00 Z1.0000
G00 X56.4120 Y60.7650
G01 Z-2.0000
G01 Z0
G00 Z1.0000
G00 X53.8720 Y60.7650
G01 Z-2.0000
G01 Z0
G00 Z1.0000
G00 X51.3320 Y60.7650
G01 Z-2.0000
G01 Z0
G00 Z1.0000
G00 X48.7930 Y60.7650
G01 Z-2.0000
G01 Z0
G00 Z1.0000
G00 X46.2520 Y60.7650
G01 Z-2.0000
G01 Z0
G00 Z1.0000
G00 X43.7130 Y60.7650
G01 Z-2.0000
G01 Z0
G00 Z1.0000
G00 X41.1720 Y60.7650
G01 Z-2.0000
G01 Z0
G00 Z1.0000
G00 X38.6320 Y60.7650
G01 Z-2.0000
G01 Z0
G00 Z1.0000
G00 X36.0920 Y60.7650
G01 Z-2.0000
G01 Z0
G00 Z1.0000
G00 X33.5520 Y60.7650
G01 Z-2.0000
G01 Z0
G00 Z1.0000
G00 X31.0120 Y60.7650
G01 Z-2.0000
G01 Z0
G00 Z1.0000
G00 X28.4720 Y60.7650
G01 Z-2.0000
G01 Z0
G00 Z1.0000
G00 X25.9330 Y60.7650
G01 Z-2.0000
G01 Z0
G00 Z1.0000
G00 X23.3920 Y60.7650
G01 Z-2.0000
G01 Z0
G00 Z1.0000
G00 X20.8530 Y60.7650
G01 Z-2.0000
G01 Z0
G00 Z1.0000
G00 X20.5150 Y67.2750
G01 Z-2.0000
G01 Z0
G00 Z1.0000
G00 X20.5150 Y74.8950
G01 Z-2.0000
G01 Z0
G00 Z1.0000
G00 X24.7550 Y71.4450
G01 Z-2.0000
G01 Z0
G00 Z1.0000
G00 X27.2950 Y71.4450
G01 Z-2.0000
G01 Z0
G00 Z1.0000
G00 X29.8350 Y71.4450
G01 Z-2.0000
G01 Z0
G00 Z1.0000
G00 X32.3750 Y71.4450
G01 Z-2.0000
G01 Z0
G00 Z1.0000
G00 X34.9150 Y71.4450
G01 Z-2.0000
G01 Z0
G00 Z1.0000
G00 X37.4550 Y71.4450
G01 Z-2.0000
G01 Z0
G00 Z1.0000
G00 X33.1450 Y77.2150
G01 Z-2.0000
G01 Z0
G00 Z1.0000
G00 X35.8000 Y82.7050
G01 Z-2.0000
G01 Z0
G00 Z1.0000
G00 X33.2600 Y82.7050
G01 Z-2.0000
G01 Z0
G00 Z1.0000
G00 X28.4650 Y81.2950
G01 Z-2.0000
G01 Z0
G00 Z1.0000
G00 X25.9250 Y81.2950
G01 Z-2.0000
G01 Z0
G00 Z1.0000
G00 X23.3850 Y81.2950
G01 Z-2.0000
G01 Z0
G00 Z1.0000
G00 X10.7750 Y96.7250
G01 Z-2.0000
G01 Z0
G00 Z1.0000
M05
G00 Z0.50

