(G-CODE GENERATED BY FLATCAM v2022 - www.flatcam.org - Version Date: 2021/12/01)

(Name: Cncjob_drill_1.3mm)
(Type: G-code from Excellon)
(Units: MM)

(Created on Friday, 12 April 2024 at 13:33)

(Feedrate: 240 mm/min)
(Feedrate rapids 1500 mm/min)

(Z_Cut: -2 mm)
(Z_Move: 1 mm)
(Z Toolchange: 15 mm)
(X,Y Toolchange: None mm)
(Z Start: None mm)
(Z End: 0.5 mm)
(Steps per circle: 64)
(Preprocessor Excellon: default)

(X range:   66.5600 ...  142.8060  mm)
(Y range: -165.3140 ...  -40.8890  mm)

(Spindle Speed: 0 RPM)
G21
G90
G94




G01 F240.00
G00 Z1.0000

M03
G4 P1.0
G00 X12.3850 Y124.5250
G01 Z-2.0000
G01 Z0
G00 Z1.0000
G00 X13.3950 Y134.9410
G01 Z-2.0000
G01 Z0
G00 Z1.0000
G00 X18.4750 Y134.9410
G01 Z-2.0000
G01 Z0
G00 Z1.0000
G00 X23.5550 Y134.9410
G01 Z-2.0000
G01 Z0
G00 Z1.0000
G00 X30.5900 Y134.9510
G01 Z-2.0000
G01 Z0
G00 Z1.0000
G00 X35.6700 Y134.9510
G01 Z-2.0000
G01 Z0
G00 Z1.0000
G00 X40.7500 Y134.9510
G01 Z-2.0000
G01 Z0
G00 Z1.0000
G00 X49.4150 Y134.9850
G01 Z-2.0000
G01 Z0
G00 Z1.0000
G00 X54.4950 Y134.9850
G01 Z-2.0000
G01 Z0
G00 Z1.0000
G00 X59.5750 Y134.9850
G01 Z-2.0000
G01 Z0
G00 Z1.0000
G00 X65.9950 Y134.9960
G01 Z-2.0000
G01 Z0
G00 Z1.0000
G00 X71.0750 Y134.9960
G01 Z-2.0000
G01 Z0
G00 Z1.0000
G00 X60.4400 Y124.4790
G01 Z-2.0000
G01 Z0
G00 Z1.0000
G00 X48.4400 Y124.4790
G01 Z-2.0000
G01 Z0
G00 Z1.0000
G00 X41.9050 Y124.5650
G01 Z-2.0000
G01 Z0
G00 Z1.0000
G00 X29.9050 Y124.5650
G01 Z-2.0000
G01 Z0
G00 Z1.0000
G00 X24.3850 Y124.5250
G01 Z-2.0000
G01 Z0
G00 Z1.0000
G00 X24.3850 Y112.3250
G01 Z-2.0000
G01 Z0
G00 Z1.0000
G00 X29.9050 Y112.3650
G01 Z-2.0000
G01 Z0
G00 Z1.0000
G00 X35.9050 Y110.3650
G01 Z-2.0000
G01 Z0
G00 Z1.0000
G00 X41.9050 Y112.3650
G01 Z-2.0000
G01 Z0
G00 Z1.0000
G00 X48.4400 Y112.2790
G01 Z-2.0000
G01 Z0
G00 Z1.0000
G00 X54.4400 Y110.2790
G01 Z-2.0000
G01 Z0
G00 Z1.0000
G00 X60.4400 Y112.2790
G01 Z-2.0000
G01 Z0
G00 Z1.0000
G00 X85.8710 Y108.5750
G01 Z-2.0000
G01 Z0
G00 Z1.0000
G00 X85.8710 Y103.4950
G01 Z-2.0000
G01 Z0
G00 Z1.0000
G00 X85.8710 Y98.4150
G01 Z-2.0000
G01 Z0
G00 Z1.0000
G00 X85.8710 Y93.3350
G01 Z-2.0000
G01 Z0
G00 Z1.0000
G00 X85.8710 Y88.2550
G01 Z-2.0000
G01 Z0
G00 Z1.0000
G00 X85.8710 Y83.1750
G01 Z-2.0000
G01 Z0
G00 Z1.0000
G00 X13.1300 Y11.8710
G01 Z-2.0000
G01 Z0
G00 Z1.0000
G00 X13.1300 Y16.9510
G01 Z-2.0000
G01 Z0
G00 Z1.0000
G00 X13.0890 Y68.2550
G01 Z-2.0000
G01 Z0
G00 Z1.0000
G00 X13.0890 Y73.3350
G01 Z-2.0000
G01 Z0
G00 Z1.0000
G00 X13.0890 Y78.4150
G01 Z-2.0000
G01 Z0
G00 Z1.0000
G00 X13.0890 Y83.4950
G01 Z-2.0000
G01 Z0
G00 Z1.0000
G00 X13.0890 Y88.5750
G01 Z-2.0000
G01 Z0
G00 Z1.0000
G00 X18.3850 Y110.3250
G01 Z-2.0000
G01 Z0
G00 Z1.0000
G00 X12.3850 Y112.3250
G01 Z-2.0000
G01 Z0
G00 Z1.0000
M05
G00 Z0.50

