(G-CODE GENERATED BY FLATCAM v2022 - www.flatcam.org - Version Date: 2021/12/01)

(Name: Job_Edge)
(Type: G-code from Geometry)
(Units: MM)

(Created on Friday, 12 April 2024 at 13:33)

(TOOL DIAMETER: 1.499 mm)
(Feedrate: 2500.0 mm/min)
(Feedrate_Z: 250.0 mm/min)
(Feedrate rapids 1500.0 mm/min)

(Z_Cut: -1.7 mm)
(Z_Move: 0.5 mm)
(Z Toolchange: 15.0 mm)
(X,Y Toolchange: 0.0000, 0.0000 mm)
(Z Start: 0.5 mm)
(Z End: 15.0 mm)
(Steps per circle: 64)
(Preprocessor Geometry: default)

(X range:    5.0005 ...   94.3195  mm)
(Y range:    5.0005 ...  144.6495  mm)

(Spindle Speed: None RPM)
G21
G90
G94




G01 F2500.00
G00 Z0.5000
G00 Z0.5000
M03
G4 P1.0
G00 X5.0014 Y5.7382
G01 F250.00
G01 Z-0.1000
G01 F2500.00
G01 X5.0005 Y5.7750
G01 X5.0005 Y143.8750
G01 X5.0010 Y143.9026
G01 X5.0027 Y143.9326
G01 X5.0042 Y143.9509
G01 X5.0087 Y143.9874
G01 X5.0120 Y144.0080
G01 X5.0192 Y144.0441
G01 X5.0240 Y144.0644
G01 X5.0339 Y144.0998
G01 X5.0454 Y144.1348
G01 X5.0526 Y144.1543
G01 X5.0667 Y144.1883
G01 X5.0744 Y144.2050
G01 X5.0835 Y144.2238
G01 X5.0919 Y144.2401
G01 X5.1101 Y144.2721
G01 X5.1210 Y144.2899
G01 X5.1414 Y144.3205
G01 X5.1522 Y144.3354
G01 X5.1648 Y144.3520
G01 X5.1763 Y144.3664
G01 X5.2003 Y144.3942
G01 X5.2145 Y144.4095
G01 X5.2405 Y144.4355
G01 X5.2540 Y144.4480
G01 X5.2696 Y144.4619
G01 X5.2837 Y144.4737
G01 X5.3127 Y144.4964
G01 X5.3295 Y144.5086
G01 X5.3447 Y144.5190
G01 X5.3758 Y144.5387
G01 X5.3938 Y144.5492
G01 X5.4099 Y144.5581
G01 X5.4262 Y144.5665
G01 X5.4450 Y144.5757
G01 X5.4617 Y144.5833
G01 X5.4957 Y144.5974
G01 X5.5153 Y144.6046
G01 X5.5502 Y144.6162
G01 X5.5679 Y144.6213
G01 X5.5880 Y144.6266
G01 X5.6059 Y144.6308
G01 X5.6420 Y144.6380
G01 X5.6808 Y144.6438
G01 X5.7174 Y144.6474
G01 X5.7358 Y144.6485
G01 X5.7567 Y144.6493
G01 X5.7750 Y144.6495
G01 X93.5450 Y144.6495
G01 X93.5726 Y144.6490
G01 X93.6026 Y144.6474
G01 X93.6392 Y144.6438
G01 X93.6599 Y144.6409
G01 X93.6780 Y144.6380
G01 X93.7141 Y144.6308
G01 X93.7344 Y144.6260
G01 X93.7699 Y144.6162
G01 X93.8048 Y144.6046
G01 X93.8243 Y144.5974
G01 X93.8414 Y144.5906
G01 X93.8750 Y144.5757
G01 X93.8938 Y144.5665
G01 X93.9101 Y144.5581
G01 X93.9421 Y144.5399
G01 X93.9599 Y144.5290
G01 X93.9905 Y144.5086
G01 X94.0054 Y144.4978
G01 X94.0220 Y144.4852
G01 X94.0364 Y144.4737
G01 X94.0642 Y144.4497
G01 X94.0795 Y144.4355
G01 X94.0927 Y144.4227
G01 X94.1180 Y144.3960
G01 X94.1319 Y144.3804
G01 X94.1437 Y144.3664
G01 X94.1664 Y144.3374
G01 X94.1786 Y144.3205
G01 X94.1890 Y144.3053
G01 X94.2087 Y144.2742
G01 X94.2192 Y144.2562
G01 X94.2281 Y144.2401
G01 X94.2365 Y144.2238
G01 X94.2457 Y144.2050
G01 X94.2533 Y144.1883
G01 X94.2674 Y144.1543
G01 X94.2806 Y144.1174
G01 X94.2862 Y144.0998
G01 X94.2960 Y144.0644
G01 X94.3008 Y144.0441
G01 X94.3046 Y144.0261
G01 X94.3109 Y143.9899
G01 X94.3138 Y143.9692
G01 X94.3174 Y143.9326
G01 X94.3185 Y143.9142
G01 X94.3193 Y143.8934
G01 X94.3195 Y143.8750
G01 X94.3195 Y5.7750
G01 X94.3190 Y5.7474
G01 X94.3174 Y5.7174
G01 X94.3138 Y5.6808
G01 X94.3109 Y5.6602
G01 X94.3080 Y5.6420
G01 X94.3008 Y5.6059
G01 X94.2960 Y5.5856
G01 X94.2862 Y5.5502
G01 X94.2746 Y5.5153
G01 X94.2674 Y5.4957
G01 X94.2533 Y5.4617
G01 X94.2457 Y5.4450
G01 X94.2365 Y5.4262
G01 X94.2281 Y5.4099
G01 X94.2099 Y5.3779
G01 X94.1990 Y5.3601
G01 X94.1786 Y5.3296
G01 X94.1678 Y5.3146
G01 X94.1552 Y5.2980
G01 X94.1437 Y5.2836
G01 X94.1197 Y5.2558
G01 X94.1055 Y5.2405
G01 X94.0927 Y5.2273
G01 X94.0660 Y5.2020
G01 X94.0504 Y5.1882
G01 X94.0364 Y5.1763
G01 X94.0074 Y5.1537
G01 X93.9905 Y5.1414
G01 X93.9753 Y5.1310
G01 X93.9442 Y5.1113
G01 X93.9262 Y5.1008
G01 X93.9101 Y5.0920
G01 X93.8938 Y5.0835
G01 X93.8750 Y5.0744
G01 X93.8583 Y5.0667
G01 X93.8243 Y5.0526
G01 X93.7874 Y5.0394
G01 X93.7522 Y5.0287
G01 X93.7344 Y5.0240
G01 X93.7141 Y5.0192
G01 X93.6962 Y5.0154
G01 X93.6599 Y5.0091
G01 X93.6392 Y5.0063
G01 X93.6026 Y5.0027
G01 X93.5842 Y5.0015
G01 X93.5634 Y5.0007
G01 X93.5450 Y5.0005
G01 X5.7750 Y5.0005
G01 X5.7566 Y5.0007
G01 X5.7358 Y5.0015
G01 X5.6991 Y5.0042
G01 X5.6808 Y5.0063
G01 X5.6602 Y5.0091
G01 X5.6239 Y5.0154
G01 X5.6059 Y5.0192
G01 X5.5856 Y5.0240
G01 X5.5502 Y5.0338
G01 X5.5153 Y5.0454
G01 X5.4957 Y5.0526
G01 X5.4786 Y5.0595
G01 X5.4617 Y5.0667
G01 X5.4428 Y5.0754
G01 X5.4099 Y5.0920
G01 X5.3938 Y5.1008
G01 X5.3758 Y5.1113
G01 X5.3447 Y5.1310
G01 X5.3295 Y5.1414
G01 X5.3127 Y5.1537
G01 X5.2836 Y5.1763
G01 X5.2558 Y5.2003
G01 X5.2405 Y5.2145
G01 X5.2145 Y5.2405
G01 X5.1881 Y5.2696
G01 X5.1648 Y5.2980
G01 X5.1414 Y5.3296
G01 X5.1210 Y5.3601
G01 X5.1008 Y5.3938
G01 X5.0835 Y5.4262
G01 X5.0667 Y5.4617
G01 X5.0526 Y5.4957
G01 X5.0394 Y5.5326
G01 X5.0287 Y5.5678
G01 X5.0192 Y5.6059
G01 X5.0120 Y5.6420
G01 X5.0063 Y5.6808
G01 X5.0027 Y5.7174
G01 X5.0014 Y5.7382
G00 X5.0014 Y5.7382
G01 F250.00
G01 Z-0.2000
G01 F2500.00
G01 X5.0005 Y5.7750
G01 X5.0005 Y143.8750
G01 X5.0010 Y143.9026
G01 X5.0027 Y143.9326
G01 X5.0042 Y143.9509
G01 X5.0087 Y143.9874
G01 X5.0120 Y144.0080
G01 X5.0192 Y144.0441
G01 X5.0240 Y144.0644
G01 X5.0339 Y144.0998
G01 X5.0454 Y144.1348
G01 X5.0526 Y144.1543
G01 X5.0667 Y144.1883
G01 X5.0744 Y144.2050
G01 X5.0835 Y144.2238
G01 X5.0919 Y144.2401
G01 X5.1101 Y144.2721
G01 X5.1210 Y144.2899
G01 X5.1414 Y144.3205
G01 X5.1522 Y144.3354
G01 X5.1648 Y144.3520
G01 X5.1763 Y144.3664
G01 X5.2003 Y144.3942
G01 X5.2145 Y144.4095
G01 X5.2405 Y144.4355
G01 X5.2540 Y144.4480
G01 X5.2696 Y144.4619
G01 X5.2837 Y144.4737
G01 X5.3127 Y144.4964
G01 X5.3295 Y144.5086
G01 X5.3447 Y144.5190
G01 X5.3758 Y144.5387
G01 X5.3938 Y144.5492
G01 X5.4099 Y144.5581
G01 X5.4262 Y144.5665
G01 X5.4450 Y144.5757
G01 X5.4617 Y144.5833
G01 X5.4957 Y144.5974
G01 X5.5153 Y144.6046
G01 X5.5502 Y144.6162
G01 X5.5679 Y144.6213
G01 X5.5880 Y144.6266
G01 X5.6059 Y144.6308
G01 X5.6420 Y144.6380
G01 X5.6808 Y144.6438
G01 X5.7174 Y144.6474
G01 X5.7358 Y144.6485
G01 X5.7567 Y144.6493
G01 X5.7750 Y144.6495
G01 X93.5450 Y144.6495
G01 X93.5726 Y144.6490
G01 X93.6026 Y144.6474
G01 X93.6392 Y144.6438
G01 X93.6599 Y144.6409
G01 X93.6780 Y144.6380
G01 X93.7141 Y144.6308
G01 X93.7344 Y144.6260
G01 X93.7699 Y144.6162
G01 X93.8048 Y144.6046
G01 X93.8243 Y144.5974
G01 X93.8414 Y144.5906
G01 X93.8750 Y144.5757
G01 X93.8938 Y144.5665
G01 X93.9101 Y144.5581
G01 X93.9421 Y144.5399
G01 X93.9599 Y144.5290
G01 X93.9905 Y144.5086
G01 X94.0054 Y144.4978
G01 X94.0220 Y144.4852
G01 X94.0364 Y144.4737
G01 X94.0642 Y144.4497
G01 X94.0795 Y144.4355
G01 X94.0927 Y144.4227
G01 X94.1180 Y144.3960
G01 X94.1319 Y144.3804
G01 X94.1437 Y144.3664
G01 X94.1664 Y144.3374
G01 X94.1786 Y144.3205
G01 X94.1890 Y144.3053
G01 X94.2087 Y144.2742
G01 X94.2192 Y144.2562
G01 X94.2281 Y144.2401
G01 X94.2365 Y144.2238
G01 X94.2457 Y144.2050
G01 X94.2533 Y144.1883
G01 X94.2674 Y144.1543
G01 X94.2806 Y144.1174
G01 X94.2862 Y144.0998
G01 X94.2960 Y144.0644
G01 X94.3008 Y144.0441
G01 X94.3046 Y144.0261
G01 X94.3109 Y143.9899
G01 X94.3138 Y143.9692
G01 X94.3174 Y143.9326
G01 X94.3185 Y143.9142
G01 X94.3193 Y143.8934
G01 X94.3195 Y143.8750
G01 X94.3195 Y5.7750
G01 X94.3190 Y5.7474
G01 X94.3174 Y5.7174
G01 X94.3138 Y5.6808
G01 X94.3109 Y5.6602
G01 X94.3080 Y5.6420
G01 X94.3008 Y5.6059
G01 X94.2960 Y5.5856
G01 X94.2862 Y5.5502
G01 X94.2746 Y5.5153
G01 X94.2674 Y5.4957
G01 X94.2533 Y5.4617
G01 X94.2457 Y5.4450
G01 X94.2365 Y5.4262
G01 X94.2281 Y5.4099
G01 X94.2099 Y5.3779
G01 X94.1990 Y5.3601
G01 X94.1786 Y5.3296
G01 X94.1678 Y5.3146
G01 X94.1552 Y5.2980
G01 X94.1437 Y5.2836
G01 X94.1197 Y5.2558
G01 X94.1055 Y5.2405
G01 X94.0927 Y5.2273
G01 X94.0660 Y5.2020
G01 X94.0504 Y5.1882
G01 X94.0364 Y5.1763
G01 X94.0074 Y5.1537
G01 X93.9905 Y5.1414
G01 X93.9753 Y5.1310
G01 X93.9442 Y5.1113
G01 X93.9262 Y5.1008
G01 X93.9101 Y5.0920
G01 X93.8938 Y5.0835
G01 X93.8750 Y5.0744
G01 X93.8583 Y5.0667
G01 X93.8243 Y5.0526
G01 X93.7874 Y5.0394
G01 X93.7522 Y5.0287
G01 X93.7344 Y5.0240
G01 X93.7141 Y5.0192
G01 X93.6962 Y5.0154
G01 X93.6599 Y5.0091
G01 X93.6392 Y5.0063
G01 X93.6026 Y5.0027
G01 X93.5842 Y5.0015
G01 X93.5634 Y5.0007
G01 X93.5450 Y5.0005
G01 X5.7750 Y5.0005
G01 X5.7566 Y5.0007
G01 X5.7358 Y5.0015
G01 X5.6991 Y5.0042
G01 X5.6808 Y5.0063
G01 X5.6602 Y5.0091
G01 X5.6239 Y5.0154
G01 X5.6059 Y5.0192
G01 X5.5856 Y5.0240
G01 X5.5502 Y5.0338
G01 X5.5153 Y5.0454
G01 X5.4957 Y5.0526
G01 X5.4786 Y5.0595
G01 X5.4617 Y5.0667
G01 X5.4428 Y5.0754
G01 X5.4099 Y5.0920
G01 X5.3938 Y5.1008
G01 X5.3758 Y5.1113
G01 X5.3447 Y5.1310
G01 X5.3295 Y5.1414
G01 X5.3127 Y5.1537
G01 X5.2836 Y5.1763
G01 X5.2558 Y5.2003
G01 X5.2405 Y5.2145
G01 X5.2145 Y5.2405
G01 X5.1881 Y5.2696
G01 X5.1648 Y5.2980
G01 X5.1414 Y5.3296
G01 X5.1210 Y5.3601
G01 X5.1008 Y5.3938
G01 X5.0835 Y5.4262
G01 X5.0667 Y5.4617
G01 X5.0526 Y5.4957
G01 X5.0394 Y5.5326
G01 X5.0287 Y5.5678
G01 X5.0192 Y5.6059
G01 X5.0120 Y5.6420
G01 X5.0063 Y5.6808
G01 X5.0027 Y5.7174
G01 X5.0014 Y5.7382
G00 X5.0014 Y5.7382
G01 F250.00
G01 Z-0.3000
G01 F2500.00
G01 X5.0005 Y5.7750
G01 X5.0005 Y143.8750
G01 X5.0010 Y143.9026
G01 X5.0027 Y143.9326
G01 X5.0042 Y143.9509
G01 X5.0087 Y143.9874
G01 X5.0120 Y144.0080
G01 X5.0192 Y144.0441
G01 X5.0240 Y144.0644
G01 X5.0339 Y144.0998
G01 X5.0454 Y144.1348
G01 X5.0526 Y144.1543
G01 X5.0667 Y144.1883
G01 X5.0744 Y144.2050
G01 X5.0835 Y144.2238
G01 X5.0919 Y144.2401
G01 X5.1101 Y144.2721
G01 X5.1210 Y144.2899
G01 X5.1414 Y144.3205
G01 X5.1522 Y144.3354
G01 X5.1648 Y144.3520
G01 X5.1763 Y144.3664
G01 X5.2003 Y144.3942
G01 X5.2145 Y144.4095
G01 X5.2405 Y144.4355
G01 X5.2540 Y144.4480
G01 X5.2696 Y144.4619
G01 X5.2837 Y144.4737
G01 X5.3127 Y144.4964
G01 X5.3295 Y144.5086
G01 X5.3447 Y144.5190
G01 X5.3758 Y144.5387
G01 X5.3938 Y144.5492
G01 X5.4099 Y144.5581
G01 X5.4262 Y144.5665
G01 X5.4450 Y144.5757
G01 X5.4617 Y144.5833
G01 X5.4957 Y144.5974
G01 X5.5153 Y144.6046
G01 X5.5502 Y144.6162
G01 X5.5679 Y144.6213
G01 X5.5880 Y144.6266
G01 X5.6059 Y144.6308
G01 X5.6420 Y144.6380
G01 X5.6808 Y144.6438
G01 X5.7174 Y144.6474
G01 X5.7358 Y144.6485
G01 X5.7567 Y144.6493
G01 X5.7750 Y144.6495
G01 X93.5450 Y144.6495
G01 X93.5726 Y144.6490
G01 X93.6026 Y144.6474
G01 X93.6392 Y144.6438
G01 X93.6599 Y144.6409
G01 X93.6780 Y144.6380
G01 X93.7141 Y144.6308
G01 X93.7344 Y144.6260
G01 X93.7699 Y144.6162
G01 X93.8048 Y144.6046
G01 X93.8243 Y144.5974
G01 X93.8414 Y144.5906
G01 X93.8750 Y144.5757
G01 X93.8938 Y144.5665
G01 X93.9101 Y144.5581
G01 X93.9421 Y144.5399
G01 X93.9599 Y144.5290
G01 X93.9905 Y144.5086
G01 X94.0054 Y144.4978
G01 X94.0220 Y144.4852
G01 X94.0364 Y144.4737
G01 X94.0642 Y144.4497
G01 X94.0795 Y144.4355
G01 X94.0927 Y144.4227
G01 X94.1180 Y144.3960
G01 X94.1319 Y144.3804
G01 X94.1437 Y144.3664
G01 X94.1664 Y144.3374
G01 X94.1786 Y144.3205
G01 X94.1890 Y144.3053
G01 X94.2087 Y144.2742
G01 X94.2192 Y144.2562
G01 X94.2281 Y144.2401
G01 X94.2365 Y144.2238
G01 X94.2457 Y144.2050
G01 X94.2533 Y144.1883
G01 X94.2674 Y144.1543
G01 X94.2806 Y144.1174
G01 X94.2862 Y144.0998
G01 X94.2960 Y144.0644
G01 X94.3008 Y144.0441
G01 X94.3046 Y144.0261
G01 X94.3109 Y143.9899
G01 X94.3138 Y143.9692
G01 X94.3174 Y143.9326
G01 X94.3185 Y143.9142
G01 X94.3193 Y143.8934
G01 X94.3195 Y143.8750
G01 X94.3195 Y5.7750
G01 X94.3190 Y5.7474
G01 X94.3174 Y5.7174
G01 X94.3138 Y5.6808
G01 X94.3109 Y5.6602
G01 X94.3080 Y5.6420
G01 X94.3008 Y5.6059
G01 X94.2960 Y5.5856
G01 X94.2862 Y5.5502
G01 X94.2746 Y5.5153
G01 X94.2674 Y5.4957
G01 X94.2533 Y5.4617
G01 X94.2457 Y5.4450
G01 X94.2365 Y5.4262
G01 X94.2281 Y5.4099
G01 X94.2099 Y5.3779
G01 X94.1990 Y5.3601
G01 X94.1786 Y5.3296
G01 X94.1678 Y5.3146
G01 X94.1552 Y5.2980
G01 X94.1437 Y5.2836
G01 X94.1197 Y5.2558
G01 X94.1055 Y5.2405
G01 X94.0927 Y5.2273
G01 X94.0660 Y5.2020
G01 X94.0504 Y5.1882
G01 X94.0364 Y5.1763
G01 X94.0074 Y5.1537
G01 X93.9905 Y5.1414
G01 X93.9753 Y5.1310
G01 X93.9442 Y5.1113
G01 X93.9262 Y5.1008
G01 X93.9101 Y5.0920
G01 X93.8938 Y5.0835
G01 X93.8750 Y5.0744
G01 X93.8583 Y5.0667
G01 X93.8243 Y5.0526
G01 X93.7874 Y5.0394
G01 X93.7522 Y5.0287
G01 X93.7344 Y5.0240
G01 X93.7141 Y5.0192
G01 X93.6962 Y5.0154
G01 X93.6599 Y5.0091
G01 X93.6392 Y5.0063
G01 X93.6026 Y5.0027
G01 X93.5842 Y5.0015
G01 X93.5634 Y5.0007
G01 X93.5450 Y5.0005
G01 X5.7750 Y5.0005
G01 X5.7566 Y5.0007
G01 X5.7358 Y5.0015
G01 X5.6991 Y5.0042
G01 X5.6808 Y5.0063
G01 X5.6602 Y5.0091
G01 X5.6239 Y5.0154
G01 X5.6059 Y5.0192
G01 X5.5856 Y5.0240
G01 X5.5502 Y5.0338
G01 X5.5153 Y5.0454
G01 X5.4957 Y5.0526
G01 X5.4786 Y5.0595
G01 X5.4617 Y5.0667
G01 X5.4428 Y5.0754
G01 X5.4099 Y5.0920
G01 X5.3938 Y5.1008
G01 X5.3758 Y5.1113
G01 X5.3447 Y5.1310
G01 X5.3295 Y5.1414
G01 X5.3127 Y5.1537
G01 X5.2836 Y5.1763
G01 X5.2558 Y5.2003
G01 X5.2405 Y5.2145
G01 X5.2145 Y5.2405
G01 X5.1881 Y5.2696
G01 X5.1648 Y5.2980
G01 X5.1414 Y5.3296
G01 X5.1210 Y5.3601
G01 X5.1008 Y5.3938
G01 X5.0835 Y5.4262
G01 X5.0667 Y5.4617
G01 X5.0526 Y5.4957
G01 X5.0394 Y5.5326
G01 X5.0287 Y5.5678
G01 X5.0192 Y5.6059
G01 X5.0120 Y5.6420
G01 X5.0063 Y5.6808
G01 X5.0027 Y5.7174
G01 X5.0014 Y5.7382
G00 X5.0014 Y5.7382
G01 F250.00
G01 Z-0.4000
G01 F2500.00
G01 X5.0005 Y5.7750
G01 X5.0005 Y143.8750
G01 X5.0010 Y143.9026
G01 X5.0027 Y143.9326
G01 X5.0042 Y143.9509
G01 X5.0087 Y143.9874
G01 X5.0120 Y144.0080
G01 X5.0192 Y144.0441
G01 X5.0240 Y144.0644
G01 X5.0339 Y144.0998
G01 X5.0454 Y144.1348
G01 X5.0526 Y144.1543
G01 X5.0667 Y144.1883
G01 X5.0744 Y144.2050
G01 X5.0835 Y144.2238
G01 X5.0919 Y144.2401
G01 X5.1101 Y144.2721
G01 X5.1210 Y144.2899
G01 X5.1414 Y144.3205
G01 X5.1522 Y144.3354
G01 X5.1648 Y144.3520
G01 X5.1763 Y144.3664
G01 X5.2003 Y144.3942
G01 X5.2145 Y144.4095
G01 X5.2405 Y144.4355
G01 X5.2540 Y144.4480
G01 X5.2696 Y144.4619
G01 X5.2837 Y144.4737
G01 X5.3127 Y144.4964
G01 X5.3295 Y144.5086
G01 X5.3447 Y144.5190
G01 X5.3758 Y144.5387
G01 X5.3938 Y144.5492
G01 X5.4099 Y144.5581
G01 X5.4262 Y144.5665
G01 X5.4450 Y144.5757
G01 X5.4617 Y144.5833
G01 X5.4957 Y144.5974
G01 X5.5153 Y144.6046
G01 X5.5502 Y144.6162
G01 X5.5679 Y144.6213
G01 X5.5880 Y144.6266
G01 X5.6059 Y144.6308
G01 X5.6420 Y144.6380
G01 X5.6808 Y144.6438
G01 X5.7174 Y144.6474
G01 X5.7358 Y144.6485
G01 X5.7567 Y144.6493
G01 X5.7750 Y144.6495
G01 X93.5450 Y144.6495
G01 X93.5726 Y144.6490
G01 X93.6026 Y144.6474
G01 X93.6392 Y144.6438
G01 X93.6599 Y144.6409
G01 X93.6780 Y144.6380
G01 X93.7141 Y144.6308
G01 X93.7344 Y144.6260
G01 X93.7699 Y144.6162
G01 X93.8048 Y144.6046
G01 X93.8243 Y144.5974
G01 X93.8414 Y144.5906
G01 X93.8750 Y144.5757
G01 X93.8938 Y144.5665
G01 X93.9101 Y144.5581
G01 X93.9421 Y144.5399
G01 X93.9599 Y144.5290
G01 X93.9905 Y144.5086
G01 X94.0054 Y144.4978
G01 X94.0220 Y144.4852
G01 X94.0364 Y144.4737
G01 X94.0642 Y144.4497
G01 X94.0795 Y144.4355
G01 X94.0927 Y144.4227
G01 X94.1180 Y144.3960
G01 X94.1319 Y144.3804
G01 X94.1437 Y144.3664
G01 X94.1664 Y144.3374
G01 X94.1786 Y144.3205
G01 X94.1890 Y144.3053
G01 X94.2087 Y144.2742
G01 X94.2192 Y144.2562
G01 X94.2281 Y144.2401
G01 X94.2365 Y144.2238
G01 X94.2457 Y144.2050
G01 X94.2533 Y144.1883
G01 X94.2674 Y144.1543
G01 X94.2806 Y144.1174
G01 X94.2862 Y144.0998
G01 X94.2960 Y144.0644
G01 X94.3008 Y144.0441
G01 X94.3046 Y144.0261
G01 X94.3109 Y143.9899
G01 X94.3138 Y143.9692
G01 X94.3174 Y143.9326
G01 X94.3185 Y143.9142
G01 X94.3193 Y143.8934
G01 X94.3195 Y143.8750
G01 X94.3195 Y5.7750
G01 X94.3190 Y5.7474
G01 X94.3174 Y5.7174
G01 X94.3138 Y5.6808
G01 X94.3109 Y5.6602
G01 X94.3080 Y5.6420
G01 X94.3008 Y5.6059
G01 X94.2960 Y5.5856
G01 X94.2862 Y5.5502
G01 X94.2746 Y5.5153
G01 X94.2674 Y5.4957
G01 X94.2533 Y5.4617
G01 X94.2457 Y5.4450
G01 X94.2365 Y5.4262
G01 X94.2281 Y5.4099
G01 X94.2099 Y5.3779
G01 X94.1990 Y5.3601
G01 X94.1786 Y5.3296
G01 X94.1678 Y5.3146
G01 X94.1552 Y5.2980
G01 X94.1437 Y5.2836
G01 X94.1197 Y5.2558
G01 X94.1055 Y5.2405
G01 X94.0927 Y5.2273
G01 X94.0660 Y5.2020
G01 X94.0504 Y5.1882
G01 X94.0364 Y5.1763
G01 X94.0074 Y5.1537
G01 X93.9905 Y5.1414
G01 X93.9753 Y5.1310
G01 X93.9442 Y5.1113
G01 X93.9262 Y5.1008
G01 X93.9101 Y5.0920
G01 X93.8938 Y5.0835
G01 X93.8750 Y5.0744
G01 X93.8583 Y5.0667
G01 X93.8243 Y5.0526
G01 X93.7874 Y5.0394
G01 X93.7522 Y5.0287
G01 X93.7344 Y5.0240
G01 X93.7141 Y5.0192
G01 X93.6962 Y5.0154
G01 X93.6599 Y5.0091
G01 X93.6392 Y5.0063
G01 X93.6026 Y5.0027
G01 X93.5842 Y5.0015
G01 X93.5634 Y5.0007
G01 X93.5450 Y5.0005
G01 X5.7750 Y5.0005
G01 X5.7566 Y5.0007
G01 X5.7358 Y5.0015
G01 X5.6991 Y5.0042
G01 X5.6808 Y5.0063
G01 X5.6602 Y5.0091
G01 X5.6239 Y5.0154
G01 X5.6059 Y5.0192
G01 X5.5856 Y5.0240
G01 X5.5502 Y5.0338
G01 X5.5153 Y5.0454
G01 X5.4957 Y5.0526
G01 X5.4786 Y5.0595
G01 X5.4617 Y5.0667
G01 X5.4428 Y5.0754
G01 X5.4099 Y5.0920
G01 X5.3938 Y5.1008
G01 X5.3758 Y5.1113
G01 X5.3447 Y5.1310
G01 X5.3295 Y5.1414
G01 X5.3127 Y5.1537
G01 X5.2836 Y5.1763
G01 X5.2558 Y5.2003
G01 X5.2405 Y5.2145
G01 X5.2145 Y5.2405
G01 X5.1881 Y5.2696
G01 X5.1648 Y5.2980
G01 X5.1414 Y5.3296
G01 X5.1210 Y5.3601
G01 X5.1008 Y5.3938
G01 X5.0835 Y5.4262
G01 X5.0667 Y5.4617
G01 X5.0526 Y5.4957
G01 X5.0394 Y5.5326
G01 X5.0287 Y5.5678
G01 X5.0192 Y5.6059
G01 X5.0120 Y5.6420
G01 X5.0063 Y5.6808
G01 X5.0027 Y5.7174
G01 X5.0014 Y5.7382
G00 X5.0014 Y5.7382
G01 F250.00
G01 Z-0.5000
G01 F2500.00
G01 X5.0005 Y5.7750
G01 X5.0005 Y143.8750
G01 X5.0010 Y143.9026
G01 X5.0027 Y143.9326
G01 X5.0042 Y143.9509
G01 X5.0087 Y143.9874
G01 X5.0120 Y144.0080
G01 X5.0192 Y144.0441
G01 X5.0240 Y144.0644
G01 X5.0339 Y144.0998
G01 X5.0454 Y144.1348
G01 X5.0526 Y144.1543
G01 X5.0667 Y144.1883
G01 X5.0744 Y144.2050
G01 X5.0835 Y144.2238
G01 X5.0919 Y144.2401
G01 X5.1101 Y144.2721
G01 X5.1210 Y144.2899
G01 X5.1414 Y144.3205
G01 X5.1522 Y144.3354
G01 X5.1648 Y144.3520
G01 X5.1763 Y144.3664
G01 X5.2003 Y144.3942
G01 X5.2145 Y144.4095
G01 X5.2405 Y144.4355
G01 X5.2540 Y144.4480
G01 X5.2696 Y144.4619
G01 X5.2837 Y144.4737
G01 X5.3127 Y144.4964
G01 X5.3295 Y144.5086
G01 X5.3447 Y144.5190
G01 X5.3758 Y144.5387
G01 X5.3938 Y144.5492
G01 X5.4099 Y144.5581
G01 X5.4262 Y144.5665
G01 X5.4450 Y144.5757
G01 X5.4617 Y144.5833
G01 X5.4957 Y144.5974
G01 X5.5153 Y144.6046
G01 X5.5502 Y144.6162
G01 X5.5679 Y144.6213
G01 X5.5880 Y144.6266
G01 X5.6059 Y144.6308
G01 X5.6420 Y144.6380
G01 X5.6808 Y144.6438
G01 X5.7174 Y144.6474
G01 X5.7358 Y144.6485
G01 X5.7567 Y144.6493
G01 X5.7750 Y144.6495
G01 X93.5450 Y144.6495
G01 X93.5726 Y144.6490
G01 X93.6026 Y144.6474
G01 X93.6392 Y144.6438
G01 X93.6599 Y144.6409
G01 X93.6780 Y144.6380
G01 X93.7141 Y144.6308
G01 X93.7344 Y144.6260
G01 X93.7699 Y144.6162
G01 X93.8048 Y144.6046
G01 X93.8243 Y144.5974
G01 X93.8414 Y144.5906
G01 X93.8750 Y144.5757
G01 X93.8938 Y144.5665
G01 X93.9101 Y144.5581
G01 X93.9421 Y144.5399
G01 X93.9599 Y144.5290
G01 X93.9905 Y144.5086
G01 X94.0054 Y144.4978
G01 X94.0220 Y144.4852
G01 X94.0364 Y144.4737
G01 X94.0642 Y144.4497
G01 X94.0795 Y144.4355
G01 X94.0927 Y144.4227
G01 X94.1180 Y144.3960
G01 X94.1319 Y144.3804
G01 X94.1437 Y144.3664
G01 X94.1664 Y144.3374
G01 X94.1786 Y144.3205
G01 X94.1890 Y144.3053
G01 X94.2087 Y144.2742
G01 X94.2192 Y144.2562
G01 X94.2281 Y144.2401
G01 X94.2365 Y144.2238
G01 X94.2457 Y144.2050
G01 X94.2533 Y144.1883
G01 X94.2674 Y144.1543
G01 X94.2806 Y144.1174
G01 X94.2862 Y144.0998
G01 X94.2960 Y144.0644
G01 X94.3008 Y144.0441
G01 X94.3046 Y144.0261
G01 X94.3109 Y143.9899
G01 X94.3138 Y143.9692
G01 X94.3174 Y143.9326
G01 X94.3185 Y143.9142
G01 X94.3193 Y143.8934
G01 X94.3195 Y143.8750
G01 X94.3195 Y5.7750
G01 X94.3190 Y5.7474
G01 X94.3174 Y5.7174
G01 X94.3138 Y5.6808
G01 X94.3109 Y5.6602
G01 X94.3080 Y5.6420
G01 X94.3008 Y5.6059
G01 X94.2960 Y5.5856
G01 X94.2862 Y5.5502
G01 X94.2746 Y5.5153
G01 X94.2674 Y5.4957
G01 X94.2533 Y5.4617
G01 X94.2457 Y5.4450
G01 X94.2365 Y5.4262
G01 X94.2281 Y5.4099
G01 X94.2099 Y5.3779
G01 X94.1990 Y5.3601
G01 X94.1786 Y5.3296
G01 X94.1678 Y5.3146
G01 X94.1552 Y5.2980
G01 X94.1437 Y5.2836
G01 X94.1197 Y5.2558
G01 X94.1055 Y5.2405
G01 X94.0927 Y5.2273
G01 X94.0660 Y5.2020
G01 X94.0504 Y5.1882
G01 X94.0364 Y5.1763
G01 X94.0074 Y5.1537
G01 X93.9905 Y5.1414
G01 X93.9753 Y5.1310
G01 X93.9442 Y5.1113
G01 X93.9262 Y5.1008
G01 X93.9101 Y5.0920
G01 X93.8938 Y5.0835
G01 X93.8750 Y5.0744
G01 X93.8583 Y5.0667
G01 X93.8243 Y5.0526
G01 X93.7874 Y5.0394
G01 X93.7522 Y5.0287
G01 X93.7344 Y5.0240
G01 X93.7141 Y5.0192
G01 X93.6962 Y5.0154
G01 X93.6599 Y5.0091
G01 X93.6392 Y5.0063
G01 X93.6026 Y5.0027
G01 X93.5842 Y5.0015
G01 X93.5634 Y5.0007
G01 X93.5450 Y5.0005
G01 X5.7750 Y5.0005
G01 X5.7566 Y5.0007
G01 X5.7358 Y5.0015
G01 X5.6991 Y5.0042
G01 X5.6808 Y5.0063
G01 X5.6602 Y5.0091
G01 X5.6239 Y5.0154
G01 X5.6059 Y5.0192
G01 X5.5856 Y5.0240
G01 X5.5502 Y5.0338
G01 X5.5153 Y5.0454
G01 X5.4957 Y5.0526
G01 X5.4786 Y5.0595
G01 X5.4617 Y5.0667
G01 X5.4428 Y5.0754
G01 X5.4099 Y5.0920
G01 X5.3938 Y5.1008
G01 X5.3758 Y5.1113
G01 X5.3447 Y5.1310
G01 X5.3295 Y5.1414
G01 X5.3127 Y5.1537
G01 X5.2836 Y5.1763
G01 X5.2558 Y5.2003
G01 X5.2405 Y5.2145
G01 X5.2145 Y5.2405
G01 X5.1881 Y5.2696
G01 X5.1648 Y5.2980
G01 X5.1414 Y5.3296
G01 X5.1210 Y5.3601
G01 X5.1008 Y5.3938
G01 X5.0835 Y5.4262
G01 X5.0667 Y5.4617
G01 X5.0526 Y5.4957
G01 X5.0394 Y5.5326
G01 X5.0287 Y5.5678
G01 X5.0192 Y5.6059
G01 X5.0120 Y5.6420
G01 X5.0063 Y5.6808
G01 X5.0027 Y5.7174
G01 X5.0014 Y5.7382
G00 X5.0014 Y5.7382
G01 F250.00
G01 Z-0.6000
G01 F2500.00
G01 X5.0005 Y5.7750
G01 X5.0005 Y143.8750
G01 X5.0010 Y143.9026
G01 X5.0027 Y143.9326
G01 X5.0042 Y143.9509
G01 X5.0087 Y143.9874
G01 X5.0120 Y144.0080
G01 X5.0192 Y144.0441
G01 X5.0240 Y144.0644
G01 X5.0339 Y144.0998
G01 X5.0454 Y144.1348
G01 X5.0526 Y144.1543
G01 X5.0667 Y144.1883
G01 X5.0744 Y144.2050
G01 X5.0835 Y144.2238
G01 X5.0919 Y144.2401
G01 X5.1101 Y144.2721
G01 X5.1210 Y144.2899
G01 X5.1414 Y144.3205
G01 X5.1522 Y144.3354
G01 X5.1648 Y144.3520
G01 X5.1763 Y144.3664
G01 X5.2003 Y144.3942
G01 X5.2145 Y144.4095
G01 X5.2405 Y144.4355
G01 X5.2540 Y144.4480
G01 X5.2696 Y144.4619
G01 X5.2837 Y144.4737
G01 X5.3127 Y144.4964
G01 X5.3295 Y144.5086
G01 X5.3447 Y144.5190
G01 X5.3758 Y144.5387
G01 X5.3938 Y144.5492
G01 X5.4099 Y144.5581
G01 X5.4262 Y144.5665
G01 X5.4450 Y144.5757
G01 X5.4617 Y144.5833
G01 X5.4957 Y144.5974
G01 X5.5153 Y144.6046
G01 X5.5502 Y144.6162
G01 X5.5679 Y144.6213
G01 X5.5880 Y144.6266
G01 X5.6059 Y144.6308
G01 X5.6420 Y144.6380
G01 X5.6808 Y144.6438
G01 X5.7174 Y144.6474
G01 X5.7358 Y144.6485
G01 X5.7567 Y144.6493
G01 X5.7750 Y144.6495
G01 X93.5450 Y144.6495
G01 X93.5726 Y144.6490
G01 X93.6026 Y144.6474
G01 X93.6392 Y144.6438
G01 X93.6599 Y144.6409
G01 X93.6780 Y144.6380
G01 X93.7141 Y144.6308
G01 X93.7344 Y144.6260
G01 X93.7699 Y144.6162
G01 X93.8048 Y144.6046
G01 X93.8243 Y144.5974
G01 X93.8414 Y144.5906
G01 X93.8750 Y144.5757
G01 X93.8938 Y144.5665
G01 X93.9101 Y144.5581
G01 X93.9421 Y144.5399
G01 X93.9599 Y144.5290
G01 X93.9905 Y144.5086
G01 X94.0054 Y144.4978
G01 X94.0220 Y144.4852
G01 X94.0364 Y144.4737
G01 X94.0642 Y144.4497
G01 X94.0795 Y144.4355
G01 X94.0927 Y144.4227
G01 X94.1180 Y144.3960
G01 X94.1319 Y144.3804
G01 X94.1437 Y144.3664
G01 X94.1664 Y144.3374
G01 X94.1786 Y144.3205
G01 X94.1890 Y144.3053
G01 X94.2087 Y144.2742
G01 X94.2192 Y144.2562
G01 X94.2281 Y144.2401
G01 X94.2365 Y144.2238
G01 X94.2457 Y144.2050
G01 X94.2533 Y144.1883
G01 X94.2674 Y144.1543
G01 X94.2806 Y144.1174
G01 X94.2862 Y144.0998
G01 X94.2960 Y144.0644
G01 X94.3008 Y144.0441
G01 X94.3046 Y144.0261
G01 X94.3109 Y143.9899
G01 X94.3138 Y143.9692
G01 X94.3174 Y143.9326
G01 X94.3185 Y143.9142
G01 X94.3193 Y143.8934
G01 X94.3195 Y143.8750
G01 X94.3195 Y5.7750
G01 X94.3190 Y5.7474
G01 X94.3174 Y5.7174
G01 X94.3138 Y5.6808
G01 X94.3109 Y5.6602
G01 X94.3080 Y5.6420
G01 X94.3008 Y5.6059
G01 X94.2960 Y5.5856
G01 X94.2862 Y5.5502
G01 X94.2746 Y5.5153
G01 X94.2674 Y5.4957
G01 X94.2533 Y5.4617
G01 X94.2457 Y5.4450
G01 X94.2365 Y5.4262
G01 X94.2281 Y5.4099
G01 X94.2099 Y5.3779
G01 X94.1990 Y5.3601
G01 X94.1786 Y5.3296
G01 X94.1678 Y5.3146
G01 X94.1552 Y5.2980
G01 X94.1437 Y5.2836
G01 X94.1197 Y5.2558
G01 X94.1055 Y5.2405
G01 X94.0927 Y5.2273
G01 X94.0660 Y5.2020
G01 X94.0504 Y5.1882
G01 X94.0364 Y5.1763
G01 X94.0074 Y5.1537
G01 X93.9905 Y5.1414
G01 X93.9753 Y5.1310
G01 X93.9442 Y5.1113
G01 X93.9262 Y5.1008
G01 X93.9101 Y5.0920
G01 X93.8938 Y5.0835
G01 X93.8750 Y5.0744
G01 X93.8583 Y5.0667
G01 X93.8243 Y5.0526
G01 X93.7874 Y5.0394
G01 X93.7522 Y5.0287
G01 X93.7344 Y5.0240
G01 X93.7141 Y5.0192
G01 X93.6962 Y5.0154
G01 X93.6599 Y5.0091
G01 X93.6392 Y5.0063
G01 X93.6026 Y5.0027
G01 X93.5842 Y5.0015
G01 X93.5634 Y5.0007
G01 X93.5450 Y5.0005
G01 X5.7750 Y5.0005
G01 X5.7566 Y5.0007
G01 X5.7358 Y5.0015
G01 X5.6991 Y5.0042
G01 X5.6808 Y5.0063
G01 X5.6602 Y5.0091
G01 X5.6239 Y5.0154
G01 X5.6059 Y5.0192
G01 X5.5856 Y5.0240
G01 X5.5502 Y5.0338
G01 X5.5153 Y5.0454
G01 X5.4957 Y5.0526
G01 X5.4786 Y5.0595
G01 X5.4617 Y5.0667
G01 X5.4428 Y5.0754
G01 X5.4099 Y5.0920
G01 X5.3938 Y5.1008
G01 X5.3758 Y5.1113
G01 X5.3447 Y5.1310
G01 X5.3295 Y5.1414
G01 X5.3127 Y5.1537
G01 X5.2836 Y5.1763
G01 X5.2558 Y5.2003
G01 X5.2405 Y5.2145
G01 X5.2145 Y5.2405
G01 X5.1881 Y5.2696
G01 X5.1648 Y5.2980
G01 X5.1414 Y5.3296
G01 X5.1210 Y5.3601
G01 X5.1008 Y5.3938
G01 X5.0835 Y5.4262
G01 X5.0667 Y5.4617
G01 X5.0526 Y5.4957
G01 X5.0394 Y5.5326
G01 X5.0287 Y5.5678
G01 X5.0192 Y5.6059
G01 X5.0120 Y5.6420
G01 X5.0063 Y5.6808
G01 X5.0027 Y5.7174
G01 X5.0014 Y5.7382
G00 X5.0014 Y5.7382
G01 F250.00
G01 Z-0.7000
G01 F2500.00
G01 X5.0005 Y5.7750
G01 X5.0005 Y143.8750
G01 X5.0010 Y143.9026
G01 X5.0027 Y143.9326
G01 X5.0042 Y143.9509
G01 X5.0087 Y143.9874
G01 X5.0120 Y144.0080
G01 X5.0192 Y144.0441
G01 X5.0240 Y144.0644
G01 X5.0339 Y144.0998
G01 X5.0454 Y144.1348
G01 X5.0526 Y144.1543
G01 X5.0667 Y144.1883
G01 X5.0744 Y144.2050
G01 X5.0835 Y144.2238
G01 X5.0919 Y144.2401
G01 X5.1101 Y144.2721
G01 X5.1210 Y144.2899
G01 X5.1414 Y144.3205
G01 X5.1522 Y144.3354
G01 X5.1648 Y144.3520
G01 X5.1763 Y144.3664
G01 X5.2003 Y144.3942
G01 X5.2145 Y144.4095
G01 X5.2405 Y144.4355
G01 X5.2540 Y144.4480
G01 X5.2696 Y144.4619
G01 X5.2837 Y144.4737
G01 X5.3127 Y144.4964
G01 X5.3295 Y144.5086
G01 X5.3447 Y144.5190
G01 X5.3758 Y144.5387
G01 X5.3938 Y144.5492
G01 X5.4099 Y144.5581
G01 X5.4262 Y144.5665
G01 X5.4450 Y144.5757
G01 X5.4617 Y144.5833
G01 X5.4957 Y144.5974
G01 X5.5153 Y144.6046
G01 X5.5502 Y144.6162
G01 X5.5679 Y144.6213
G01 X5.5880 Y144.6266
G01 X5.6059 Y144.6308
G01 X5.6420 Y144.6380
G01 X5.6808 Y144.6438
G01 X5.7174 Y144.6474
G01 X5.7358 Y144.6485
G01 X5.7567 Y144.6493
G01 X5.7750 Y144.6495
G01 X93.5450 Y144.6495
G01 X93.5726 Y144.6490
G01 X93.6026 Y144.6474
G01 X93.6392 Y144.6438
G01 X93.6599 Y144.6409
G01 X93.6780 Y144.6380
G01 X93.7141 Y144.6308
G01 X93.7344 Y144.6260
G01 X93.7699 Y144.6162
G01 X93.8048 Y144.6046
G01 X93.8243 Y144.5974
G01 X93.8414 Y144.5906
G01 X93.8750 Y144.5757
G01 X93.8938 Y144.5665
G01 X93.9101 Y144.5581
G01 X93.9421 Y144.5399
G01 X93.9599 Y144.5290
G01 X93.9905 Y144.5086
G01 X94.0054 Y144.4978
G01 X94.0220 Y144.4852
G01 X94.0364 Y144.4737
G01 X94.0642 Y144.4497
G01 X94.0795 Y144.4355
G01 X94.0927 Y144.4227
G01 X94.1180 Y144.3960
G01 X94.1319 Y144.3804
G01 X94.1437 Y144.3664
G01 X94.1664 Y144.3374
G01 X94.1786 Y144.3205
G01 X94.1890 Y144.3053
G01 X94.2087 Y144.2742
G01 X94.2192 Y144.2562
G01 X94.2281 Y144.2401
G01 X94.2365 Y144.2238
G01 X94.2457 Y144.2050
G01 X94.2533 Y144.1883
G01 X94.2674 Y144.1543
G01 X94.2806 Y144.1174
G01 X94.2862 Y144.0998
G01 X94.2960 Y144.0644
G01 X94.3008 Y144.0441
G01 X94.3046 Y144.0261
G01 X94.3109 Y143.9899
G01 X94.3138 Y143.9692
G01 X94.3174 Y143.9326
G01 X94.3185 Y143.9142
G01 X94.3193 Y143.8934
G01 X94.3195 Y143.8750
G01 X94.3195 Y5.7750
G01 X94.3190 Y5.7474
G01 X94.3174 Y5.7174
G01 X94.3138 Y5.6808
G01 X94.3109 Y5.6602
G01 X94.3080 Y5.6420
G01 X94.3008 Y5.6059
G01 X94.2960 Y5.5856
G01 X94.2862 Y5.5502
G01 X94.2746 Y5.5153
G01 X94.2674 Y5.4957
G01 X94.2533 Y5.4617
G01 X94.2457 Y5.4450
G01 X94.2365 Y5.4262
G01 X94.2281 Y5.4099
G01 X94.2099 Y5.3779
G01 X94.1990 Y5.3601
G01 X94.1786 Y5.3296
G01 X94.1678 Y5.3146
G01 X94.1552 Y5.2980
G01 X94.1437 Y5.2836
G01 X94.1197 Y5.2558
G01 X94.1055 Y5.2405
G01 X94.0927 Y5.2273
G01 X94.0660 Y5.2020
G01 X94.0504 Y5.1882
G01 X94.0364 Y5.1763
G01 X94.0074 Y5.1537
G01 X93.9905 Y5.1414
G01 X93.9753 Y5.1310
G01 X93.9442 Y5.1113
G01 X93.9262 Y5.1008
G01 X93.9101 Y5.0920
G01 X93.8938 Y5.0835
G01 X93.8750 Y5.0744
G01 X93.8583 Y5.0667
G01 X93.8243 Y5.0526
G01 X93.7874 Y5.0394
G01 X93.7522 Y5.0287
G01 X93.7344 Y5.0240
G01 X93.7141 Y5.0192
G01 X93.6962 Y5.0154
G01 X93.6599 Y5.0091
G01 X93.6392 Y5.0063
G01 X93.6026 Y5.0027
G01 X93.5842 Y5.0015
G01 X93.5634 Y5.0007
G01 X93.5450 Y5.0005
G01 X5.7750 Y5.0005
G01 X5.7566 Y5.0007
G01 X5.7358 Y5.0015
G01 X5.6991 Y5.0042
G01 X5.6808 Y5.0063
G01 X5.6602 Y5.0091
G01 X5.6239 Y5.0154
G01 X5.6059 Y5.0192
G01 X5.5856 Y5.0240
G01 X5.5502 Y5.0338
G01 X5.5153 Y5.0454
G01 X5.4957 Y5.0526
G01 X5.4786 Y5.0595
G01 X5.4617 Y5.0667
G01 X5.4428 Y5.0754
G01 X5.4099 Y5.0920
G01 X5.3938 Y5.1008
G01 X5.3758 Y5.1113
G01 X5.3447 Y5.1310
G01 X5.3295 Y5.1414
G01 X5.3127 Y5.1537
G01 X5.2836 Y5.1763
G01 X5.2558 Y5.2003
G01 X5.2405 Y5.2145
G01 X5.2145 Y5.2405
G01 X5.1881 Y5.2696
G01 X5.1648 Y5.2980
G01 X5.1414 Y5.3296
G01 X5.1210 Y5.3601
G01 X5.1008 Y5.3938
G01 X5.0835 Y5.4262
G01 X5.0667 Y5.4617
G01 X5.0526 Y5.4957
G01 X5.0394 Y5.5326
G01 X5.0287 Y5.5678
G01 X5.0192 Y5.6059
G01 X5.0120 Y5.6420
G01 X5.0063 Y5.6808
G01 X5.0027 Y5.7174
G01 X5.0014 Y5.7382
G00 X5.0014 Y5.7382
G01 F250.00
G01 Z-0.8000
G01 F2500.00
G01 X5.0005 Y5.7750
G01 X5.0005 Y143.8750
G01 X5.0010 Y143.9026
G01 X5.0027 Y143.9326
G01 X5.0042 Y143.9509
G01 X5.0087 Y143.9874
G01 X5.0120 Y144.0080
G01 X5.0192 Y144.0441
G01 X5.0240 Y144.0644
G01 X5.0339 Y144.0998
G01 X5.0454 Y144.1348
G01 X5.0526 Y144.1543
G01 X5.0667 Y144.1883
G01 X5.0744 Y144.2050
G01 X5.0835 Y144.2238
G01 X5.0919 Y144.2401
G01 X5.1101 Y144.2721
G01 X5.1210 Y144.2899
G01 X5.1414 Y144.3205
G01 X5.1522 Y144.3354
G01 X5.1648 Y144.3520
G01 X5.1763 Y144.3664
G01 X5.2003 Y144.3942
G01 X5.2145 Y144.4095
G01 X5.2405 Y144.4355
G01 X5.2540 Y144.4480
G01 X5.2696 Y144.4619
G01 X5.2837 Y144.4737
G01 X5.3127 Y144.4964
G01 X5.3295 Y144.5086
G01 X5.3447 Y144.5190
G01 X5.3758 Y144.5387
G01 X5.3938 Y144.5492
G01 X5.4099 Y144.5581
G01 X5.4262 Y144.5665
G01 X5.4450 Y144.5757
G01 X5.4617 Y144.5833
G01 X5.4957 Y144.5974
G01 X5.5153 Y144.6046
G01 X5.5502 Y144.6162
G01 X5.5679 Y144.6213
G01 X5.5880 Y144.6266
G01 X5.6059 Y144.6308
G01 X5.6420 Y144.6380
G01 X5.6808 Y144.6438
G01 X5.7174 Y144.6474
G01 X5.7358 Y144.6485
G01 X5.7567 Y144.6493
G01 X5.7750 Y144.6495
G01 X93.5450 Y144.6495
G01 X93.5726 Y144.6490
G01 X93.6026 Y144.6474
G01 X93.6392 Y144.6438
G01 X93.6599 Y144.6409
G01 X93.6780 Y144.6380
G01 X93.7141 Y144.6308
G01 X93.7344 Y144.6260
G01 X93.7699 Y144.6162
G01 X93.8048 Y144.6046
G01 X93.8243 Y144.5974
G01 X93.8414 Y144.5906
G01 X93.8750 Y144.5757
G01 X93.8938 Y144.5665
G01 X93.9101 Y144.5581
G01 X93.9421 Y144.5399
G01 X93.9599 Y144.5290
G01 X93.9905 Y144.5086
G01 X94.0054 Y144.4978
G01 X94.0220 Y144.4852
G01 X94.0364 Y144.4737
G01 X94.0642 Y144.4497
G01 X94.0795 Y144.4355
G01 X94.0927 Y144.4227
G01 X94.1180 Y144.3960
G01 X94.1319 Y144.3804
G01 X94.1437 Y144.3664
G01 X94.1664 Y144.3374
G01 X94.1786 Y144.3205
G01 X94.1890 Y144.3053
G01 X94.2087 Y144.2742
G01 X94.2192 Y144.2562
G01 X94.2281 Y144.2401
G01 X94.2365 Y144.2238
G01 X94.2457 Y144.2050
G01 X94.2533 Y144.1883
G01 X94.2674 Y144.1543
G01 X94.2806 Y144.1174
G01 X94.2862 Y144.0998
G01 X94.2960 Y144.0644
G01 X94.3008 Y144.0441
G01 X94.3046 Y144.0261
G01 X94.3109 Y143.9899
G01 X94.3138 Y143.9692
G01 X94.3174 Y143.9326
G01 X94.3185 Y143.9142
G01 X94.3193 Y143.8934
G01 X94.3195 Y143.8750
G01 X94.3195 Y5.7750
G01 X94.3190 Y5.7474
G01 X94.3174 Y5.7174
G01 X94.3138 Y5.6808
G01 X94.3109 Y5.6602
G01 X94.3080 Y5.6420
G01 X94.3008 Y5.6059
G01 X94.2960 Y5.5856
G01 X94.2862 Y5.5502
G01 X94.2746 Y5.5153
G01 X94.2674 Y5.4957
G01 X94.2533 Y5.4617
G01 X94.2457 Y5.4450
G01 X94.2365 Y5.4262
G01 X94.2281 Y5.4099
G01 X94.2099 Y5.3779
G01 X94.1990 Y5.3601
G01 X94.1786 Y5.3296
G01 X94.1678 Y5.3146
G01 X94.1552 Y5.2980
G01 X94.1437 Y5.2836
G01 X94.1197 Y5.2558
G01 X94.1055 Y5.2405
G01 X94.0927 Y5.2273
G01 X94.0660 Y5.2020
G01 X94.0504 Y5.1882
G01 X94.0364 Y5.1763
G01 X94.0074 Y5.1537
G01 X93.9905 Y5.1414
G01 X93.9753 Y5.1310
G01 X93.9442 Y5.1113
G01 X93.9262 Y5.1008
G01 X93.9101 Y5.0920
G01 X93.8938 Y5.0835
G01 X93.8750 Y5.0744
G01 X93.8583 Y5.0667
G01 X93.8243 Y5.0526
G01 X93.7874 Y5.0394
G01 X93.7522 Y5.0287
G01 X93.7344 Y5.0240
G01 X93.7141 Y5.0192
G01 X93.6962 Y5.0154
G01 X93.6599 Y5.0091
G01 X93.6392 Y5.0063
G01 X93.6026 Y5.0027
G01 X93.5842 Y5.0015
G01 X93.5634 Y5.0007
G01 X93.5450 Y5.0005
G01 X5.7750 Y5.0005
G01 X5.7566 Y5.0007
G01 X5.7358 Y5.0015
G01 X5.6991 Y5.0042
G01 X5.6808 Y5.0063
G01 X5.6602 Y5.0091
G01 X5.6239 Y5.0154
G01 X5.6059 Y5.0192
G01 X5.5856 Y5.0240
G01 X5.5502 Y5.0338
G01 X5.5153 Y5.0454
G01 X5.4957 Y5.0526
G01 X5.4786 Y5.0595
G01 X5.4617 Y5.0667
G01 X5.4428 Y5.0754
G01 X5.4099 Y5.0920
G01 X5.3938 Y5.1008
G01 X5.3758 Y5.1113
G01 X5.3447 Y5.1310
G01 X5.3295 Y5.1414
G01 X5.3127 Y5.1537
G01 X5.2836 Y5.1763
G01 X5.2558 Y5.2003
G01 X5.2405 Y5.2145
G01 X5.2145 Y5.2405
G01 X5.1881 Y5.2696
G01 X5.1648 Y5.2980
G01 X5.1414 Y5.3296
G01 X5.1210 Y5.3601
G01 X5.1008 Y5.3938
G01 X5.0835 Y5.4262
G01 X5.0667 Y5.4617
G01 X5.0526 Y5.4957
G01 X5.0394 Y5.5326
G01 X5.0287 Y5.5678
G01 X5.0192 Y5.6059
G01 X5.0120 Y5.6420
G01 X5.0063 Y5.6808
G01 X5.0027 Y5.7174
G01 X5.0014 Y5.7382
G00 X5.0014 Y5.7382
G01 F250.00
G01 Z-0.9000
G01 F2500.00
G01 X5.0005 Y5.7750
G01 X5.0005 Y143.8750
G01 X5.0010 Y143.9026
G01 X5.0027 Y143.9326
G01 X5.0042 Y143.9509
G01 X5.0087 Y143.9874
G01 X5.0120 Y144.0080
G01 X5.0192 Y144.0441
G01 X5.0240 Y144.0644
G01 X5.0339 Y144.0998
G01 X5.0454 Y144.1348
G01 X5.0526 Y144.1543
G01 X5.0667 Y144.1883
G01 X5.0744 Y144.2050
G01 X5.0835 Y144.2238
G01 X5.0919 Y144.2401
G01 X5.1101 Y144.2721
G01 X5.1210 Y144.2899
G01 X5.1414 Y144.3205
G01 X5.1522 Y144.3354
G01 X5.1648 Y144.3520
G01 X5.1763 Y144.3664
G01 X5.2003 Y144.3942
G01 X5.2145 Y144.4095
G01 X5.2405 Y144.4355
G01 X5.2540 Y144.4480
G01 X5.2696 Y144.4619
G01 X5.2837 Y144.4737
G01 X5.3127 Y144.4964
G01 X5.3295 Y144.5086
G01 X5.3447 Y144.5190
G01 X5.3758 Y144.5387
G01 X5.3938 Y144.5492
G01 X5.4099 Y144.5581
G01 X5.4262 Y144.5665
G01 X5.4450 Y144.5757
G01 X5.4617 Y144.5833
G01 X5.4957 Y144.5974
G01 X5.5153 Y144.6046
G01 X5.5502 Y144.6162
G01 X5.5679 Y144.6213
G01 X5.5880 Y144.6266
G01 X5.6059 Y144.6308
G01 X5.6420 Y144.6380
G01 X5.6808 Y144.6438
G01 X5.7174 Y144.6474
G01 X5.7358 Y144.6485
G01 X5.7567 Y144.6493
G01 X5.7750 Y144.6495
G01 X93.5450 Y144.6495
G01 X93.5726 Y144.6490
G01 X93.6026 Y144.6474
G01 X93.6392 Y144.6438
G01 X93.6599 Y144.6409
G01 X93.6780 Y144.6380
G01 X93.7141 Y144.6308
G01 X93.7344 Y144.6260
G01 X93.7699 Y144.6162
G01 X93.8048 Y144.6046
G01 X93.8243 Y144.5974
G01 X93.8414 Y144.5906
G01 X93.8750 Y144.5757
G01 X93.8938 Y144.5665
G01 X93.9101 Y144.5581
G01 X93.9421 Y144.5399
G01 X93.9599 Y144.5290
G01 X93.9905 Y144.5086
G01 X94.0054 Y144.4978
G01 X94.0220 Y144.4852
G01 X94.0364 Y144.4737
G01 X94.0642 Y144.4497
G01 X94.0795 Y144.4355
G01 X94.0927 Y144.4227
G01 X94.1180 Y144.3960
G01 X94.1319 Y144.3804
G01 X94.1437 Y144.3664
G01 X94.1664 Y144.3374
G01 X94.1786 Y144.3205
G01 X94.1890 Y144.3053
G01 X94.2087 Y144.2742
G01 X94.2192 Y144.2562
G01 X94.2281 Y144.2401
G01 X94.2365 Y144.2238
G01 X94.2457 Y144.2050
G01 X94.2533 Y144.1883
G01 X94.2674 Y144.1543
G01 X94.2806 Y144.1174
G01 X94.2862 Y144.0998
G01 X94.2960 Y144.0644
G01 X94.3008 Y144.0441
G01 X94.3046 Y144.0261
G01 X94.3109 Y143.9899
G01 X94.3138 Y143.9692
G01 X94.3174 Y143.9326
G01 X94.3185 Y143.9142
G01 X94.3193 Y143.8934
G01 X94.3195 Y143.8750
G01 X94.3195 Y5.7750
G01 X94.3190 Y5.7474
G01 X94.3174 Y5.7174
G01 X94.3138 Y5.6808
G01 X94.3109 Y5.6602
G01 X94.3080 Y5.6420
G01 X94.3008 Y5.6059
G01 X94.2960 Y5.5856
G01 X94.2862 Y5.5502
G01 X94.2746 Y5.5153
G01 X94.2674 Y5.4957
G01 X94.2533 Y5.4617
G01 X94.2457 Y5.4450
G01 X94.2365 Y5.4262
G01 X94.2281 Y5.4099
G01 X94.2099 Y5.3779
G01 X94.1990 Y5.3601
G01 X94.1786 Y5.3296
G01 X94.1678 Y5.3146
G01 X94.1552 Y5.2980
G01 X94.1437 Y5.2836
G01 X94.1197 Y5.2558
G01 X94.1055 Y5.2405
G01 X94.0927 Y5.2273
G01 X94.0660 Y5.2020
G01 X94.0504 Y5.1882
G01 X94.0364 Y5.1763
G01 X94.0074 Y5.1537
G01 X93.9905 Y5.1414
G01 X93.9753 Y5.1310
G01 X93.9442 Y5.1113
G01 X93.9262 Y5.1008
G01 X93.9101 Y5.0920
G01 X93.8938 Y5.0835
G01 X93.8750 Y5.0744
G01 X93.8583 Y5.0667
G01 X93.8243 Y5.0526
G01 X93.7874 Y5.0394
G01 X93.7522 Y5.0287
G01 X93.7344 Y5.0240
G01 X93.7141 Y5.0192
G01 X93.6962 Y5.0154
G01 X93.6599 Y5.0091
G01 X93.6392 Y5.0063
G01 X93.6026 Y5.0027
G01 X93.5842 Y5.0015
G01 X93.5634 Y5.0007
G01 X93.5450 Y5.0005
G01 X5.7750 Y5.0005
G01 X5.7566 Y5.0007
G01 X5.7358 Y5.0015
G01 X5.6991 Y5.0042
G01 X5.6808 Y5.0063
G01 X5.6602 Y5.0091
G01 X5.6239 Y5.0154
G01 X5.6059 Y5.0192
G01 X5.5856 Y5.0240
G01 X5.5502 Y5.0338
G01 X5.5153 Y5.0454
G01 X5.4957 Y5.0526
G01 X5.4786 Y5.0595
G01 X5.4617 Y5.0667
G01 X5.4428 Y5.0754
G01 X5.4099 Y5.0920
G01 X5.3938 Y5.1008
G01 X5.3758 Y5.1113
G01 X5.3447 Y5.1310
G01 X5.3295 Y5.1414
G01 X5.3127 Y5.1537
G01 X5.2836 Y5.1763
G01 X5.2558 Y5.2003
G01 X5.2405 Y5.2145
G01 X5.2145 Y5.2405
G01 X5.1881 Y5.2696
G01 X5.1648 Y5.2980
G01 X5.1414 Y5.3296
G01 X5.1210 Y5.3601
G01 X5.1008 Y5.3938
G01 X5.0835 Y5.4262
G01 X5.0667 Y5.4617
G01 X5.0526 Y5.4957
G01 X5.0394 Y5.5326
G01 X5.0287 Y5.5678
G01 X5.0192 Y5.6059
G01 X5.0120 Y5.6420
G01 X5.0063 Y5.6808
G01 X5.0027 Y5.7174
G01 X5.0014 Y5.7382
G00 X5.0014 Y5.7382
G01 F250.00
G01 Z-1.0000
G01 F2500.00
G01 X5.0005 Y5.7750
G01 X5.0005 Y143.8750
G01 X5.0010 Y143.9026
G01 X5.0027 Y143.9326
G01 X5.0042 Y143.9509
G01 X5.0087 Y143.9874
G01 X5.0120 Y144.0080
G01 X5.0192 Y144.0441
G01 X5.0240 Y144.0644
G01 X5.0339 Y144.0998
G01 X5.0454 Y144.1348
G01 X5.0526 Y144.1543
G01 X5.0667 Y144.1883
G01 X5.0744 Y144.2050
G01 X5.0835 Y144.2238
G01 X5.0919 Y144.2401
G01 X5.1101 Y144.2721
G01 X5.1210 Y144.2899
G01 X5.1414 Y144.3205
G01 X5.1522 Y144.3354
G01 X5.1648 Y144.3520
G01 X5.1763 Y144.3664
G01 X5.2003 Y144.3942
G01 X5.2145 Y144.4095
G01 X5.2405 Y144.4355
G01 X5.2540 Y144.4480
G01 X5.2696 Y144.4619
G01 X5.2837 Y144.4737
G01 X5.3127 Y144.4964
G01 X5.3295 Y144.5086
G01 X5.3447 Y144.5190
G01 X5.3758 Y144.5387
G01 X5.3938 Y144.5492
G01 X5.4099 Y144.5581
G01 X5.4262 Y144.5665
G01 X5.4450 Y144.5757
G01 X5.4617 Y144.5833
G01 X5.4957 Y144.5974
G01 X5.5153 Y144.6046
G01 X5.5502 Y144.6162
G01 X5.5679 Y144.6213
G01 X5.5880 Y144.6266
G01 X5.6059 Y144.6308
G01 X5.6420 Y144.6380
G01 X5.6808 Y144.6438
G01 X5.7174 Y144.6474
G01 X5.7358 Y144.6485
G01 X5.7567 Y144.6493
G01 X5.7750 Y144.6495
G01 X93.5450 Y144.6495
G01 X93.5726 Y144.6490
G01 X93.6026 Y144.6474
G01 X93.6392 Y144.6438
G01 X93.6599 Y144.6409
G01 X93.6780 Y144.6380
G01 X93.7141 Y144.6308
G01 X93.7344 Y144.6260
G01 X93.7699 Y144.6162
G01 X93.8048 Y144.6046
G01 X93.8243 Y144.5974
G01 X93.8414 Y144.5906
G01 X93.8750 Y144.5757
G01 X93.8938 Y144.5665
G01 X93.9101 Y144.5581
G01 X93.9421 Y144.5399
G01 X93.9599 Y144.5290
G01 X93.9905 Y144.5086
G01 X94.0054 Y144.4978
G01 X94.0220 Y144.4852
G01 X94.0364 Y144.4737
G01 X94.0642 Y144.4497
G01 X94.0795 Y144.4355
G01 X94.0927 Y144.4227
G01 X94.1180 Y144.3960
G01 X94.1319 Y144.3804
G01 X94.1437 Y144.3664
G01 X94.1664 Y144.3374
G01 X94.1786 Y144.3205
G01 X94.1890 Y144.3053
G01 X94.2087 Y144.2742
G01 X94.2192 Y144.2562
G01 X94.2281 Y144.2401
G01 X94.2365 Y144.2238
G01 X94.2457 Y144.2050
G01 X94.2533 Y144.1883
G01 X94.2674 Y144.1543
G01 X94.2806 Y144.1174
G01 X94.2862 Y144.0998
G01 X94.2960 Y144.0644
G01 X94.3008 Y144.0441
G01 X94.3046 Y144.0261
G01 X94.3109 Y143.9899
G01 X94.3138 Y143.9692
G01 X94.3174 Y143.9326
G01 X94.3185 Y143.9142
G01 X94.3193 Y143.8934
G01 X94.3195 Y143.8750
G01 X94.3195 Y5.7750
G01 X94.3190 Y5.7474
G01 X94.3174 Y5.7174
G01 X94.3138 Y5.6808
G01 X94.3109 Y5.6602
G01 X94.3080 Y5.6420
G01 X94.3008 Y5.6059
G01 X94.2960 Y5.5856
G01 X94.2862 Y5.5502
G01 X94.2746 Y5.5153
G01 X94.2674 Y5.4957
G01 X94.2533 Y5.4617
G01 X94.2457 Y5.4450
G01 X94.2365 Y5.4262
G01 X94.2281 Y5.4099
G01 X94.2099 Y5.3779
G01 X94.1990 Y5.3601
G01 X94.1786 Y5.3296
G01 X94.1678 Y5.3146
G01 X94.1552 Y5.2980
G01 X94.1437 Y5.2836
G01 X94.1197 Y5.2558
G01 X94.1055 Y5.2405
G01 X94.0927 Y5.2273
G01 X94.0660 Y5.2020
G01 X94.0504 Y5.1882
G01 X94.0364 Y5.1763
G01 X94.0074 Y5.1537
G01 X93.9905 Y5.1414
G01 X93.9753 Y5.1310
G01 X93.9442 Y5.1113
G01 X93.9262 Y5.1008
G01 X93.9101 Y5.0920
G01 X93.8938 Y5.0835
G01 X93.8750 Y5.0744
G01 X93.8583 Y5.0667
G01 X93.8243 Y5.0526
G01 X93.7874 Y5.0394
G01 X93.7522 Y5.0287
G01 X93.7344 Y5.0240
G01 X93.7141 Y5.0192
G01 X93.6962 Y5.0154
G01 X93.6599 Y5.0091
G01 X93.6392 Y5.0063
G01 X93.6026 Y5.0027
G01 X93.5842 Y5.0015
G01 X93.5634 Y5.0007
G01 X93.5450 Y5.0005
G01 X5.7750 Y5.0005
G01 X5.7566 Y5.0007
G01 X5.7358 Y5.0015
G01 X5.6991 Y5.0042
G01 X5.6808 Y5.0063
G01 X5.6602 Y5.0091
G01 X5.6239 Y5.0154
G01 X5.6059 Y5.0192
G01 X5.5856 Y5.0240
G01 X5.5502 Y5.0338
G01 X5.5153 Y5.0454
G01 X5.4957 Y5.0526
G01 X5.4786 Y5.0595
G01 X5.4617 Y5.0667
G01 X5.4428 Y5.0754
G01 X5.4099 Y5.0920
G01 X5.3938 Y5.1008
G01 X5.3758 Y5.1113
G01 X5.3447 Y5.1310
G01 X5.3295 Y5.1414
G01 X5.3127 Y5.1537
G01 X5.2836 Y5.1763
G01 X5.2558 Y5.2003
G01 X5.2405 Y5.2145
G01 X5.2145 Y5.2405
G01 X5.1881 Y5.2696
G01 X5.1648 Y5.2980
G01 X5.1414 Y5.3296
G01 X5.1210 Y5.3601
G01 X5.1008 Y5.3938
G01 X5.0835 Y5.4262
G01 X5.0667 Y5.4617
G01 X5.0526 Y5.4957
G01 X5.0394 Y5.5326
G01 X5.0287 Y5.5678
G01 X5.0192 Y5.6059
G01 X5.0120 Y5.6420
G01 X5.0063 Y5.6808
G01 X5.0027 Y5.7174
G01 X5.0014 Y5.7382
G00 X5.0014 Y5.7382
G01 F250.00
G01 Z-1.1000
G01 F2500.00
G01 X5.0005 Y5.7750
G01 X5.0005 Y143.8750
G01 X5.0010 Y143.9026
G01 X5.0027 Y143.9326
G01 X5.0042 Y143.9509
G01 X5.0087 Y143.9874
G01 X5.0120 Y144.0080
G01 X5.0192 Y144.0441
G01 X5.0240 Y144.0644
G01 X5.0339 Y144.0998
G01 X5.0454 Y144.1348
G01 X5.0526 Y144.1543
G01 X5.0667 Y144.1883
G01 X5.0744 Y144.2050
G01 X5.0835 Y144.2238
G01 X5.0919 Y144.2401
G01 X5.1101 Y144.2721
G01 X5.1210 Y144.2899
G01 X5.1414 Y144.3205
G01 X5.1522 Y144.3354
G01 X5.1648 Y144.3520
G01 X5.1763 Y144.3664
G01 X5.2003 Y144.3942
G01 X5.2145 Y144.4095
G01 X5.2405 Y144.4355
G01 X5.2540 Y144.4480
G01 X5.2696 Y144.4619
G01 X5.2837 Y144.4737
G01 X5.3127 Y144.4964
G01 X5.3295 Y144.5086
G01 X5.3447 Y144.5190
G01 X5.3758 Y144.5387
G01 X5.3938 Y144.5492
G01 X5.4099 Y144.5581
G01 X5.4262 Y144.5665
G01 X5.4450 Y144.5757
G01 X5.4617 Y144.5833
G01 X5.4957 Y144.5974
G01 X5.5153 Y144.6046
G01 X5.5502 Y144.6162
G01 X5.5679 Y144.6213
G01 X5.5880 Y144.6266
G01 X5.6059 Y144.6308
G01 X5.6420 Y144.6380
G01 X5.6808 Y144.6438
G01 X5.7174 Y144.6474
G01 X5.7358 Y144.6485
G01 X5.7567 Y144.6493
G01 X5.7750 Y144.6495
G01 X93.5450 Y144.6495
G01 X93.5726 Y144.6490
G01 X93.6026 Y144.6474
G01 X93.6392 Y144.6438
G01 X93.6599 Y144.6409
G01 X93.6780 Y144.6380
G01 X93.7141 Y144.6308
G01 X93.7344 Y144.6260
G01 X93.7699 Y144.6162
G01 X93.8048 Y144.6046
G01 X93.8243 Y144.5974
G01 X93.8414 Y144.5906
G01 X93.8750 Y144.5757
G01 X93.8938 Y144.5665
G01 X93.9101 Y144.5581
G01 X93.9421 Y144.5399
G01 X93.9599 Y144.5290
G01 X93.9905 Y144.5086
G01 X94.0054 Y144.4978
G01 X94.0220 Y144.4852
G01 X94.0364 Y144.4737
G01 X94.0642 Y144.4497
G01 X94.0795 Y144.4355
G01 X94.0927 Y144.4227
G01 X94.1180 Y144.3960
G01 X94.1319 Y144.3804
G01 X94.1437 Y144.3664
G01 X94.1664 Y144.3374
G01 X94.1786 Y144.3205
G01 X94.1890 Y144.3053
G01 X94.2087 Y144.2742
G01 X94.2192 Y144.2562
G01 X94.2281 Y144.2401
G01 X94.2365 Y144.2238
G01 X94.2457 Y144.2050
G01 X94.2533 Y144.1883
G01 X94.2674 Y144.1543
G01 X94.2806 Y144.1174
G01 X94.2862 Y144.0998
G01 X94.2960 Y144.0644
G01 X94.3008 Y144.0441
G01 X94.3046 Y144.0261
G01 X94.3109 Y143.9899
G01 X94.3138 Y143.9692
G01 X94.3174 Y143.9326
G01 X94.3185 Y143.9142
G01 X94.3193 Y143.8934
G01 X94.3195 Y143.8750
G01 X94.3195 Y5.7750
G01 X94.3190 Y5.7474
G01 X94.3174 Y5.7174
G01 X94.3138 Y5.6808
G01 X94.3109 Y5.6602
G01 X94.3080 Y5.6420
G01 X94.3008 Y5.6059
G01 X94.2960 Y5.5856
G01 X94.2862 Y5.5502
G01 X94.2746 Y5.5153
G01 X94.2674 Y5.4957
G01 X94.2533 Y5.4617
G01 X94.2457 Y5.4450
G01 X94.2365 Y5.4262
G01 X94.2281 Y5.4099
G01 X94.2099 Y5.3779
G01 X94.1990 Y5.3601
G01 X94.1786 Y5.3296
G01 X94.1678 Y5.3146
G01 X94.1552 Y5.2980
G01 X94.1437 Y5.2836
G01 X94.1197 Y5.2558
G01 X94.1055 Y5.2405
G01 X94.0927 Y5.2273
G01 X94.0660 Y5.2020
G01 X94.0504 Y5.1882
G01 X94.0364 Y5.1763
G01 X94.0074 Y5.1537
G01 X93.9905 Y5.1414
G01 X93.9753 Y5.1310
G01 X93.9442 Y5.1113
G01 X93.9262 Y5.1008
G01 X93.9101 Y5.0920
G01 X93.8938 Y5.0835
G01 X93.8750 Y5.0744
G01 X93.8583 Y5.0667
G01 X93.8243 Y5.0526
G01 X93.7874 Y5.0394
G01 X93.7522 Y5.0287
G01 X93.7344 Y5.0240
G01 X93.7141 Y5.0192
G01 X93.6962 Y5.0154
G01 X93.6599 Y5.0091
G01 X93.6392 Y5.0063
G01 X93.6026 Y5.0027
G01 X93.5842 Y5.0015
G01 X93.5634 Y5.0007
G01 X93.5450 Y5.0005
G01 X5.7750 Y5.0005
G01 X5.7566 Y5.0007
G01 X5.7358 Y5.0015
G01 X5.6991 Y5.0042
G01 X5.6808 Y5.0063
G01 X5.6602 Y5.0091
G01 X5.6239 Y5.0154
G01 X5.6059 Y5.0192
G01 X5.5856 Y5.0240
G01 X5.5502 Y5.0338
G01 X5.5153 Y5.0454
G01 X5.4957 Y5.0526
G01 X5.4786 Y5.0595
G01 X5.4617 Y5.0667
G01 X5.4428 Y5.0754
G01 X5.4099 Y5.0920
G01 X5.3938 Y5.1008
G01 X5.3758 Y5.1113
G01 X5.3447 Y5.1310
G01 X5.3295 Y5.1414
G01 X5.3127 Y5.1537
G01 X5.2836 Y5.1763
G01 X5.2558 Y5.2003
G01 X5.2405 Y5.2145
G01 X5.2145 Y5.2405
G01 X5.1881 Y5.2696
G01 X5.1648 Y5.2980
G01 X5.1414 Y5.3296
G01 X5.1210 Y5.3601
G01 X5.1008 Y5.3938
G01 X5.0835 Y5.4262
G01 X5.0667 Y5.4617
G01 X5.0526 Y5.4957
G01 X5.0394 Y5.5326
G01 X5.0287 Y5.5678
G01 X5.0192 Y5.6059
G01 X5.0120 Y5.6420
G01 X5.0063 Y5.6808
G01 X5.0027 Y5.7174
G01 X5.0014 Y5.7382
G00 X5.0014 Y5.7382
G01 F250.00
G01 Z-1.2000
G01 F2500.00
G01 X5.0005 Y5.7750
G01 X5.0005 Y143.8750
G01 X5.0010 Y143.9026
G01 X5.0027 Y143.9326
G01 X5.0042 Y143.9509
G01 X5.0087 Y143.9874
G01 X5.0120 Y144.0080
G01 X5.0192 Y144.0441
G01 X5.0240 Y144.0644
G01 X5.0339 Y144.0998
G01 X5.0454 Y144.1348
G01 X5.0526 Y144.1543
G01 X5.0667 Y144.1883
G01 X5.0744 Y144.2050
G01 X5.0835 Y144.2238
G01 X5.0919 Y144.2401
G01 X5.1101 Y144.2721
G01 X5.1210 Y144.2899
G01 X5.1414 Y144.3205
G01 X5.1522 Y144.3354
G01 X5.1648 Y144.3520
G01 X5.1763 Y144.3664
G01 X5.2003 Y144.3942
G01 X5.2145 Y144.4095
G01 X5.2405 Y144.4355
G01 X5.2540 Y144.4480
G01 X5.2696 Y144.4619
G01 X5.2837 Y144.4737
G01 X5.3127 Y144.4964
G01 X5.3295 Y144.5086
G01 X5.3447 Y144.5190
G01 X5.3758 Y144.5387
G01 X5.3938 Y144.5492
G01 X5.4099 Y144.5581
G01 X5.4262 Y144.5665
G01 X5.4450 Y144.5757
G01 X5.4617 Y144.5833
G01 X5.4957 Y144.5974
G01 X5.5153 Y144.6046
G01 X5.5502 Y144.6162
G01 X5.5679 Y144.6213
G01 X5.5880 Y144.6266
G01 X5.6059 Y144.6308
G01 X5.6420 Y144.6380
G01 X5.6808 Y144.6438
G01 X5.7174 Y144.6474
G01 X5.7358 Y144.6485
G01 X5.7567 Y144.6493
G01 X5.7750 Y144.6495
G01 X93.5450 Y144.6495
G01 X93.5726 Y144.6490
G01 X93.6026 Y144.6474
G01 X93.6392 Y144.6438
G01 X93.6599 Y144.6409
G01 X93.6780 Y144.6380
G01 X93.7141 Y144.6308
G01 X93.7344 Y144.6260
G01 X93.7699 Y144.6162
G01 X93.8048 Y144.6046
G01 X93.8243 Y144.5974
G01 X93.8414 Y144.5906
G01 X93.8750 Y144.5757
G01 X93.8938 Y144.5665
G01 X93.9101 Y144.5581
G01 X93.9421 Y144.5399
G01 X93.9599 Y144.5290
G01 X93.9905 Y144.5086
G01 X94.0054 Y144.4978
G01 X94.0220 Y144.4852
G01 X94.0364 Y144.4737
G01 X94.0642 Y144.4497
G01 X94.0795 Y144.4355
G01 X94.0927 Y144.4227
G01 X94.1180 Y144.3960
G01 X94.1319 Y144.3804
G01 X94.1437 Y144.3664
G01 X94.1664 Y144.3374
G01 X94.1786 Y144.3205
G01 X94.1890 Y144.3053
G01 X94.2087 Y144.2742
G01 X94.2192 Y144.2562
G01 X94.2281 Y144.2401
G01 X94.2365 Y144.2238
G01 X94.2457 Y144.2050
G01 X94.2533 Y144.1883
G01 X94.2674 Y144.1543
G01 X94.2806 Y144.1174
G01 X94.2862 Y144.0998
G01 X94.2960 Y144.0644
G01 X94.3008 Y144.0441
G01 X94.3046 Y144.0261
G01 X94.3109 Y143.9899
G01 X94.3138 Y143.9692
G01 X94.3174 Y143.9326
G01 X94.3185 Y143.9142
G01 X94.3193 Y143.8934
G01 X94.3195 Y143.8750
G01 X94.3195 Y5.7750
G01 X94.3190 Y5.7474
G01 X94.3174 Y5.7174
G01 X94.3138 Y5.6808
G01 X94.3109 Y5.6602
G01 X94.3080 Y5.6420
G01 X94.3008 Y5.6059
G01 X94.2960 Y5.5856
G01 X94.2862 Y5.5502
G01 X94.2746 Y5.5153
G01 X94.2674 Y5.4957
G01 X94.2533 Y5.4617
G01 X94.2457 Y5.4450
G01 X94.2365 Y5.4262
G01 X94.2281 Y5.4099
G01 X94.2099 Y5.3779
G01 X94.1990 Y5.3601
G01 X94.1786 Y5.3296
G01 X94.1678 Y5.3146
G01 X94.1552 Y5.2980
G01 X94.1437 Y5.2836
G01 X94.1197 Y5.2558
G01 X94.1055 Y5.2405
G01 X94.0927 Y5.2273
G01 X94.0660 Y5.2020
G01 X94.0504 Y5.1882
G01 X94.0364 Y5.1763
G01 X94.0074 Y5.1537
G01 X93.9905 Y5.1414
G01 X93.9753 Y5.1310
G01 X93.9442 Y5.1113
G01 X93.9262 Y5.1008
G01 X93.9101 Y5.0920
G01 X93.8938 Y5.0835
G01 X93.8750 Y5.0744
G01 X93.8583 Y5.0667
G01 X93.8243 Y5.0526
G01 X93.7874 Y5.0394
G01 X93.7522 Y5.0287
G01 X93.7344 Y5.0240
G01 X93.7141 Y5.0192
G01 X93.6962 Y5.0154
G01 X93.6599 Y5.0091
G01 X93.6392 Y5.0063
G01 X93.6026 Y5.0027
G01 X93.5842 Y5.0015
G01 X93.5634 Y5.0007
G01 X93.5450 Y5.0005
G01 X5.7750 Y5.0005
G01 X5.7566 Y5.0007
G01 X5.7358 Y5.0015
G01 X5.6991 Y5.0042
G01 X5.6808 Y5.0063
G01 X5.6602 Y5.0091
G01 X5.6239 Y5.0154
G01 X5.6059 Y5.0192
G01 X5.5856 Y5.0240
G01 X5.5502 Y5.0338
G01 X5.5153 Y5.0454
G01 X5.4957 Y5.0526
G01 X5.4786 Y5.0595
G01 X5.4617 Y5.0667
G01 X5.4428 Y5.0754
G01 X5.4099 Y5.0920
G01 X5.3938 Y5.1008
G01 X5.3758 Y5.1113
G01 X5.3447 Y5.1310
G01 X5.3295 Y5.1414
G01 X5.3127 Y5.1537
G01 X5.2836 Y5.1763
G01 X5.2558 Y5.2003
G01 X5.2405 Y5.2145
G01 X5.2145 Y5.2405
G01 X5.1881 Y5.2696
G01 X5.1648 Y5.2980
G01 X5.1414 Y5.3296
G01 X5.1210 Y5.3601
G01 X5.1008 Y5.3938
G01 X5.0835 Y5.4262
G01 X5.0667 Y5.4617
G01 X5.0526 Y5.4957
G01 X5.0394 Y5.5326
G01 X5.0287 Y5.5678
G01 X5.0192 Y5.6059
G01 X5.0120 Y5.6420
G01 X5.0063 Y5.6808
G01 X5.0027 Y5.7174
G01 X5.0014 Y5.7382
G00 X5.0014 Y5.7382
G01 F250.00
G01 Z-1.3000
G01 F2500.00
G01 X5.0005 Y5.7750
G01 X5.0005 Y143.8750
G01 X5.0010 Y143.9026
G01 X5.0027 Y143.9326
G01 X5.0042 Y143.9509
G01 X5.0087 Y143.9874
G01 X5.0120 Y144.0080
G01 X5.0192 Y144.0441
G01 X5.0240 Y144.0644
G01 X5.0339 Y144.0998
G01 X5.0454 Y144.1348
G01 X5.0526 Y144.1543
G01 X5.0667 Y144.1883
G01 X5.0744 Y144.2050
G01 X5.0835 Y144.2238
G01 X5.0919 Y144.2401
G01 X5.1101 Y144.2721
G01 X5.1210 Y144.2899
G01 X5.1414 Y144.3205
G01 X5.1522 Y144.3354
G01 X5.1648 Y144.3520
G01 X5.1763 Y144.3664
G01 X5.2003 Y144.3942
G01 X5.2145 Y144.4095
G01 X5.2405 Y144.4355
G01 X5.2540 Y144.4480
G01 X5.2696 Y144.4619
G01 X5.2837 Y144.4737
G01 X5.3127 Y144.4964
G01 X5.3295 Y144.5086
G01 X5.3447 Y144.5190
G01 X5.3758 Y144.5387
G01 X5.3938 Y144.5492
G01 X5.4099 Y144.5581
G01 X5.4262 Y144.5665
G01 X5.4450 Y144.5757
G01 X5.4617 Y144.5833
G01 X5.4957 Y144.5974
G01 X5.5153 Y144.6046
G01 X5.5502 Y144.6162
G01 X5.5679 Y144.6213
G01 X5.5880 Y144.6266
G01 X5.6059 Y144.6308
G01 X5.6420 Y144.6380
G01 X5.6808 Y144.6438
G01 X5.7174 Y144.6474
G01 X5.7358 Y144.6485
G01 X5.7567 Y144.6493
G01 X5.7750 Y144.6495
G01 X93.5450 Y144.6495
G01 X93.5726 Y144.6490
G01 X93.6026 Y144.6474
G01 X93.6392 Y144.6438
G01 X93.6599 Y144.6409
G01 X93.6780 Y144.6380
G01 X93.7141 Y144.6308
G01 X93.7344 Y144.6260
G01 X93.7699 Y144.6162
G01 X93.8048 Y144.6046
G01 X93.8243 Y144.5974
G01 X93.8414 Y144.5906
G01 X93.8750 Y144.5757
G01 X93.8938 Y144.5665
G01 X93.9101 Y144.5581
G01 X93.9421 Y144.5399
G01 X93.9599 Y144.5290
G01 X93.9905 Y144.5086
G01 X94.0054 Y144.4978
G01 X94.0220 Y144.4852
G01 X94.0364 Y144.4737
G01 X94.0642 Y144.4497
G01 X94.0795 Y144.4355
G01 X94.0927 Y144.4227
G01 X94.1180 Y144.3960
G01 X94.1319 Y144.3804
G01 X94.1437 Y144.3664
G01 X94.1664 Y144.3374
G01 X94.1786 Y144.3205
G01 X94.1890 Y144.3053
G01 X94.2087 Y144.2742
G01 X94.2192 Y144.2562
G01 X94.2281 Y144.2401
G01 X94.2365 Y144.2238
G01 X94.2457 Y144.2050
G01 X94.2533 Y144.1883
G01 X94.2674 Y144.1543
G01 X94.2806 Y144.1174
G01 X94.2862 Y144.0998
G01 X94.2960 Y144.0644
G01 X94.3008 Y144.0441
G01 X94.3046 Y144.0261
G01 X94.3109 Y143.9899
G01 X94.3138 Y143.9692
G01 X94.3174 Y143.9326
G01 X94.3185 Y143.9142
G01 X94.3193 Y143.8934
G01 X94.3195 Y143.8750
G01 X94.3195 Y5.7750
G01 X94.3190 Y5.7474
G01 X94.3174 Y5.7174
G01 X94.3138 Y5.6808
G01 X94.3109 Y5.6602
G01 X94.3080 Y5.6420
G01 X94.3008 Y5.6059
G01 X94.2960 Y5.5856
G01 X94.2862 Y5.5502
G01 X94.2746 Y5.5153
G01 X94.2674 Y5.4957
G01 X94.2533 Y5.4617
G01 X94.2457 Y5.4450
G01 X94.2365 Y5.4262
G01 X94.2281 Y5.4099
G01 X94.2099 Y5.3779
G01 X94.1990 Y5.3601
G01 X94.1786 Y5.3296
G01 X94.1678 Y5.3146
G01 X94.1552 Y5.2980
G01 X94.1437 Y5.2836
G01 X94.1197 Y5.2558
G01 X94.1055 Y5.2405
G01 X94.0927 Y5.2273
G01 X94.0660 Y5.2020
G01 X94.0504 Y5.1882
G01 X94.0364 Y5.1763
G01 X94.0074 Y5.1537
G01 X93.9905 Y5.1414
G01 X93.9753 Y5.1310
G01 X93.9442 Y5.1113
G01 X93.9262 Y5.1008
G01 X93.9101 Y5.0920
G01 X93.8938 Y5.0835
G01 X93.8750 Y5.0744
G01 X93.8583 Y5.0667
G01 X93.8243 Y5.0526
G01 X93.7874 Y5.0394
G01 X93.7522 Y5.0287
G01 X93.7344 Y5.0240
G01 X93.7141 Y5.0192
G01 X93.6962 Y5.0154
G01 X93.6599 Y5.0091
G01 X93.6392 Y5.0063
G01 X93.6026 Y5.0027
G01 X93.5842 Y5.0015
G01 X93.5634 Y5.0007
G01 X93.5450 Y5.0005
G01 X5.7750 Y5.0005
G01 X5.7566 Y5.0007
G01 X5.7358 Y5.0015
G01 X5.6991 Y5.0042
G01 X5.6808 Y5.0063
G01 X5.6602 Y5.0091
G01 X5.6239 Y5.0154
G01 X5.6059 Y5.0192
G01 X5.5856 Y5.0240
G01 X5.5502 Y5.0338
G01 X5.5153 Y5.0454
G01 X5.4957 Y5.0526
G01 X5.4786 Y5.0595
G01 X5.4617 Y5.0667
G01 X5.4428 Y5.0754
G01 X5.4099 Y5.0920
G01 X5.3938 Y5.1008
G01 X5.3758 Y5.1113
G01 X5.3447 Y5.1310
G01 X5.3295 Y5.1414
G01 X5.3127 Y5.1537
G01 X5.2836 Y5.1763
G01 X5.2558 Y5.2003
G01 X5.2405 Y5.2145
G01 X5.2145 Y5.2405
G01 X5.1881 Y5.2696
G01 X5.1648 Y5.2980
G01 X5.1414 Y5.3296
G01 X5.1210 Y5.3601
G01 X5.1008 Y5.3938
G01 X5.0835 Y5.4262
G01 X5.0667 Y5.4617
G01 X5.0526 Y5.4957
G01 X5.0394 Y5.5326
G01 X5.0287 Y5.5678
G01 X5.0192 Y5.6059
G01 X5.0120 Y5.6420
G01 X5.0063 Y5.6808
G01 X5.0027 Y5.7174
G01 X5.0014 Y5.7382
G00 X5.0014 Y5.7382
G01 F250.00
G01 Z-1.4000
G01 F2500.00
G01 X5.0005 Y5.7750
G01 X5.0005 Y143.8750
G01 X5.0010 Y143.9026
G01 X5.0027 Y143.9326
G01 X5.0042 Y143.9509
G01 X5.0087 Y143.9874
G01 X5.0120 Y144.0080
G01 X5.0192 Y144.0441
G01 X5.0240 Y144.0644
G01 X5.0339 Y144.0998
G01 X5.0454 Y144.1348
G01 X5.0526 Y144.1543
G01 X5.0667 Y144.1883
G01 X5.0744 Y144.2050
G01 X5.0835 Y144.2238
G01 X5.0919 Y144.2401
G01 X5.1101 Y144.2721
G01 X5.1210 Y144.2899
G01 X5.1414 Y144.3205
G01 X5.1522 Y144.3354
G01 X5.1648 Y144.3520
G01 X5.1763 Y144.3664
G01 X5.2003 Y144.3942
G01 X5.2145 Y144.4095
G01 X5.2405 Y144.4355
G01 X5.2540 Y144.4480
G01 X5.2696 Y144.4619
G01 X5.2837 Y144.4737
G01 X5.3127 Y144.4964
G01 X5.3295 Y144.5086
G01 X5.3447 Y144.5190
G01 X5.3758 Y144.5387
G01 X5.3938 Y144.5492
G01 X5.4099 Y144.5581
G01 X5.4262 Y144.5665
G01 X5.4450 Y144.5757
G01 X5.4617 Y144.5833
G01 X5.4957 Y144.5974
G01 X5.5153 Y144.6046
G01 X5.5502 Y144.6162
G01 X5.5679 Y144.6213
G01 X5.5880 Y144.6266
G01 X5.6059 Y144.6308
G01 X5.6420 Y144.6380
G01 X5.6808 Y144.6438
G01 X5.7174 Y144.6474
G01 X5.7358 Y144.6485
G01 X5.7567 Y144.6493
G01 X5.7750 Y144.6495
G01 X93.5450 Y144.6495
G01 X93.5726 Y144.6490
G01 X93.6026 Y144.6474
G01 X93.6392 Y144.6438
G01 X93.6599 Y144.6409
G01 X93.6780 Y144.6380
G01 X93.7141 Y144.6308
G01 X93.7344 Y144.6260
G01 X93.7699 Y144.6162
G01 X93.8048 Y144.6046
G01 X93.8243 Y144.5974
G01 X93.8414 Y144.5906
G01 X93.8750 Y144.5757
G01 X93.8938 Y144.5665
G01 X93.9101 Y144.5581
G01 X93.9421 Y144.5399
G01 X93.9599 Y144.5290
G01 X93.9905 Y144.5086
G01 X94.0054 Y144.4978
G01 X94.0220 Y144.4852
G01 X94.0364 Y144.4737
G01 X94.0642 Y144.4497
G01 X94.0795 Y144.4355
G01 X94.0927 Y144.4227
G01 X94.1180 Y144.3960
G01 X94.1319 Y144.3804
G01 X94.1437 Y144.3664
G01 X94.1664 Y144.3374
G01 X94.1786 Y144.3205
G01 X94.1890 Y144.3053
G01 X94.2087 Y144.2742
G01 X94.2192 Y144.2562
G01 X94.2281 Y144.2401
G01 X94.2365 Y144.2238
G01 X94.2457 Y144.2050
G01 X94.2533 Y144.1883
G01 X94.2674 Y144.1543
G01 X94.2806 Y144.1174
G01 X94.2862 Y144.0998
G01 X94.2960 Y144.0644
G01 X94.3008 Y144.0441
G01 X94.3046 Y144.0261
G01 X94.3109 Y143.9899
G01 X94.3138 Y143.9692
G01 X94.3174 Y143.9326
G01 X94.3185 Y143.9142
G01 X94.3193 Y143.8934
G01 X94.3195 Y143.8750
G01 X94.3195 Y5.7750
G01 X94.3190 Y5.7474
G01 X94.3174 Y5.7174
G01 X94.3138 Y5.6808
G01 X94.3109 Y5.6602
G01 X94.3080 Y5.6420
G01 X94.3008 Y5.6059
G01 X94.2960 Y5.5856
G01 X94.2862 Y5.5502
G01 X94.2746 Y5.5153
G01 X94.2674 Y5.4957
G01 X94.2533 Y5.4617
G01 X94.2457 Y5.4450
G01 X94.2365 Y5.4262
G01 X94.2281 Y5.4099
G01 X94.2099 Y5.3779
G01 X94.1990 Y5.3601
G01 X94.1786 Y5.3296
G01 X94.1678 Y5.3146
G01 X94.1552 Y5.2980
G01 X94.1437 Y5.2836
G01 X94.1197 Y5.2558
G01 X94.1055 Y5.2405
G01 X94.0927 Y5.2273
G01 X94.0660 Y5.2020
G01 X94.0504 Y5.1882
G01 X94.0364 Y5.1763
G01 X94.0074 Y5.1537
G01 X93.9905 Y5.1414
G01 X93.9753 Y5.1310
G01 X93.9442 Y5.1113
G01 X93.9262 Y5.1008
G01 X93.9101 Y5.0920
G01 X93.8938 Y5.0835
G01 X93.8750 Y5.0744
G01 X93.8583 Y5.0667
G01 X93.8243 Y5.0526
G01 X93.7874 Y5.0394
G01 X93.7522 Y5.0287
G01 X93.7344 Y5.0240
G01 X93.7141 Y5.0192
G01 X93.6962 Y5.0154
G01 X93.6599 Y5.0091
G01 X93.6392 Y5.0063
G01 X93.6026 Y5.0027
G01 X93.5842 Y5.0015
G01 X93.5634 Y5.0007
G01 X93.5450 Y5.0005
G01 X5.7750 Y5.0005
G01 X5.7566 Y5.0007
G01 X5.7358 Y5.0015
G01 X5.6991 Y5.0042
G01 X5.6808 Y5.0063
G01 X5.6602 Y5.0091
G01 X5.6239 Y5.0154
G01 X5.6059 Y5.0192
G01 X5.5856 Y5.0240
G01 X5.5502 Y5.0338
G01 X5.5153 Y5.0454
G01 X5.4957 Y5.0526
G01 X5.4786 Y5.0595
G01 X5.4617 Y5.0667
G01 X5.4428 Y5.0754
G01 X5.4099 Y5.0920
G01 X5.3938 Y5.1008
G01 X5.3758 Y5.1113
G01 X5.3447 Y5.1310
G01 X5.3295 Y5.1414
G01 X5.3127 Y5.1537
G01 X5.2836 Y5.1763
G01 X5.2558 Y5.2003
G01 X5.2405 Y5.2145
G01 X5.2145 Y5.2405
G01 X5.1881 Y5.2696
G01 X5.1648 Y5.2980
G01 X5.1414 Y5.3296
G01 X5.1210 Y5.3601
G01 X5.1008 Y5.3938
G01 X5.0835 Y5.4262
G01 X5.0667 Y5.4617
G01 X5.0526 Y5.4957
G01 X5.0394 Y5.5326
G01 X5.0287 Y5.5678
G01 X5.0192 Y5.6059
G01 X5.0120 Y5.6420
G01 X5.0063 Y5.6808
G01 X5.0027 Y5.7174
G01 X5.0014 Y5.7382
G00 X5.0014 Y5.7382
G01 F250.00
G01 Z-1.5000
G01 F2500.00
G01 X5.0005 Y5.7750
G01 X5.0005 Y143.8750
G01 X5.0010 Y143.9026
G01 X5.0027 Y143.9326
G01 X5.0042 Y143.9509
G01 X5.0087 Y143.9874
G01 X5.0120 Y144.0080
G01 X5.0192 Y144.0441
G01 X5.0240 Y144.0644
G01 X5.0339 Y144.0998
G01 X5.0454 Y144.1348
G01 X5.0526 Y144.1543
G01 X5.0667 Y144.1883
G01 X5.0744 Y144.2050
G01 X5.0835 Y144.2238
G01 X5.0919 Y144.2401
G01 X5.1101 Y144.2721
G01 X5.1210 Y144.2899
G01 X5.1414 Y144.3205
G01 X5.1522 Y144.3354
G01 X5.1648 Y144.3520
G01 X5.1763 Y144.3664
G01 X5.2003 Y144.3942
G01 X5.2145 Y144.4095
G01 X5.2405 Y144.4355
G01 X5.2540 Y144.4480
G01 X5.2696 Y144.4619
G01 X5.2837 Y144.4737
G01 X5.3127 Y144.4964
G01 X5.3295 Y144.5086
G01 X5.3447 Y144.5190
G01 X5.3758 Y144.5387
G01 X5.3938 Y144.5492
G01 X5.4099 Y144.5581
G01 X5.4262 Y144.5665
G01 X5.4450 Y144.5757
G01 X5.4617 Y144.5833
G01 X5.4957 Y144.5974
G01 X5.5153 Y144.6046
G01 X5.5502 Y144.6162
G01 X5.5679 Y144.6213
G01 X5.5880 Y144.6266
G01 X5.6059 Y144.6308
G01 X5.6420 Y144.6380
G01 X5.6808 Y144.6438
G01 X5.7174 Y144.6474
G01 X5.7358 Y144.6485
G01 X5.7567 Y144.6493
G01 X5.7750 Y144.6495
G01 X93.5450 Y144.6495
G01 X93.5726 Y144.6490
G01 X93.6026 Y144.6474
G01 X93.6392 Y144.6438
G01 X93.6599 Y144.6409
G01 X93.6780 Y144.6380
G01 X93.7141 Y144.6308
G01 X93.7344 Y144.6260
G01 X93.7699 Y144.6162
G01 X93.8048 Y144.6046
G01 X93.8243 Y144.5974
G01 X93.8414 Y144.5906
G01 X93.8750 Y144.5757
G01 X93.8938 Y144.5665
G01 X93.9101 Y144.5581
G01 X93.9421 Y144.5399
G01 X93.9599 Y144.5290
G01 X93.9905 Y144.5086
G01 X94.0054 Y144.4978
G01 X94.0220 Y144.4852
G01 X94.0364 Y144.4737
G01 X94.0642 Y144.4497
G01 X94.0795 Y144.4355
G01 X94.0927 Y144.4227
G01 X94.1180 Y144.3960
G01 X94.1319 Y144.3804
G01 X94.1437 Y144.3664
G01 X94.1664 Y144.3374
G01 X94.1786 Y144.3205
G01 X94.1890 Y144.3053
G01 X94.2087 Y144.2742
G01 X94.2192 Y144.2562
G01 X94.2281 Y144.2401
G01 X94.2365 Y144.2238
G01 X94.2457 Y144.2050
G01 X94.2533 Y144.1883
G01 X94.2674 Y144.1543
G01 X94.2806 Y144.1174
G01 X94.2862 Y144.0998
G01 X94.2960 Y144.0644
G01 X94.3008 Y144.0441
G01 X94.3046 Y144.0261
G01 X94.3109 Y143.9899
G01 X94.3138 Y143.9692
G01 X94.3174 Y143.9326
G01 X94.3185 Y143.9142
G01 X94.3193 Y143.8934
G01 X94.3195 Y143.8750
G01 X94.3195 Y5.7750
G01 X94.3190 Y5.7474
G01 X94.3174 Y5.7174
G01 X94.3138 Y5.6808
G01 X94.3109 Y5.6602
G01 X94.3080 Y5.6420
G01 X94.3008 Y5.6059
G01 X94.2960 Y5.5856
G01 X94.2862 Y5.5502
G01 X94.2746 Y5.5153
G01 X94.2674 Y5.4957
G01 X94.2533 Y5.4617
G01 X94.2457 Y5.4450
G01 X94.2365 Y5.4262
G01 X94.2281 Y5.4099
G01 X94.2099 Y5.3779
G01 X94.1990 Y5.3601
G01 X94.1786 Y5.3296
G01 X94.1678 Y5.3146
G01 X94.1552 Y5.2980
G01 X94.1437 Y5.2836
G01 X94.1197 Y5.2558
G01 X94.1055 Y5.2405
G01 X94.0927 Y5.2273
G01 X94.0660 Y5.2020
G01 X94.0504 Y5.1882
G01 X94.0364 Y5.1763
G01 X94.0074 Y5.1537
G01 X93.9905 Y5.1414
G01 X93.9753 Y5.1310
G01 X93.9442 Y5.1113
G01 X93.9262 Y5.1008
G01 X93.9101 Y5.0920
G01 X93.8938 Y5.0835
G01 X93.8750 Y5.0744
G01 X93.8583 Y5.0667
G01 X93.8243 Y5.0526
G01 X93.7874 Y5.0394
G01 X93.7522 Y5.0287
G01 X93.7344 Y5.0240
G01 X93.7141 Y5.0192
G01 X93.6962 Y5.0154
G01 X93.6599 Y5.0091
G01 X93.6392 Y5.0063
G01 X93.6026 Y5.0027
G01 X93.5842 Y5.0015
G01 X93.5634 Y5.0007
G01 X93.5450 Y5.0005
G01 X5.7750 Y5.0005
G01 X5.7566 Y5.0007
G01 X5.7358 Y5.0015
G01 X5.6991 Y5.0042
G01 X5.6808 Y5.0063
G01 X5.6602 Y5.0091
G01 X5.6239 Y5.0154
G01 X5.6059 Y5.0192
G01 X5.5856 Y5.0240
G01 X5.5502 Y5.0338
G01 X5.5153 Y5.0454
G01 X5.4957 Y5.0526
G01 X5.4786 Y5.0595
G01 X5.4617 Y5.0667
G01 X5.4428 Y5.0754
G01 X5.4099 Y5.0920
G01 X5.3938 Y5.1008
G01 X5.3758 Y5.1113
G01 X5.3447 Y5.1310
G01 X5.3295 Y5.1414
G01 X5.3127 Y5.1537
G01 X5.2836 Y5.1763
G01 X5.2558 Y5.2003
G01 X5.2405 Y5.2145
G01 X5.2145 Y5.2405
G01 X5.1881 Y5.2696
G01 X5.1648 Y5.2980
G01 X5.1414 Y5.3296
G01 X5.1210 Y5.3601
G01 X5.1008 Y5.3938
G01 X5.0835 Y5.4262
G01 X5.0667 Y5.4617
G01 X5.0526 Y5.4957
G01 X5.0394 Y5.5326
G01 X5.0287 Y5.5678
G01 X5.0192 Y5.6059
G01 X5.0120 Y5.6420
G01 X5.0063 Y5.6808
G01 X5.0027 Y5.7174
G01 X5.0014 Y5.7382
G00 X5.0014 Y5.7382
G01 F250.00
G01 Z-1.6000
G01 F2500.00
G01 X5.0005 Y5.7750
G01 X5.0005 Y143.8750
G01 X5.0010 Y143.9026
G01 X5.0027 Y143.9326
G01 X5.0042 Y143.9509
G01 X5.0087 Y143.9874
G01 X5.0120 Y144.0080
G01 X5.0192 Y144.0441
G01 X5.0240 Y144.0644
G01 X5.0339 Y144.0998
G01 X5.0454 Y144.1348
G01 X5.0526 Y144.1543
G01 X5.0667 Y144.1883
G01 X5.0744 Y144.2050
G01 X5.0835 Y144.2238
G01 X5.0919 Y144.2401
G01 X5.1101 Y144.2721
G01 X5.1210 Y144.2899
G01 X5.1414 Y144.3205
G01 X5.1522 Y144.3354
G01 X5.1648 Y144.3520
G01 X5.1763 Y144.3664
G01 X5.2003 Y144.3942
G01 X5.2145 Y144.4095
G01 X5.2405 Y144.4355
G01 X5.2540 Y144.4480
G01 X5.2696 Y144.4619
G01 X5.2837 Y144.4737
G01 X5.3127 Y144.4964
G01 X5.3295 Y144.5086
G01 X5.3447 Y144.5190
G01 X5.3758 Y144.5387
G01 X5.3938 Y144.5492
G01 X5.4099 Y144.5581
G01 X5.4262 Y144.5665
G01 X5.4450 Y144.5757
G01 X5.4617 Y144.5833
G01 X5.4957 Y144.5974
G01 X5.5153 Y144.6046
G01 X5.5502 Y144.6162
G01 X5.5679 Y144.6213
G01 X5.5880 Y144.6266
G01 X5.6059 Y144.6308
G01 X5.6420 Y144.6380
G01 X5.6808 Y144.6438
G01 X5.7174 Y144.6474
G01 X5.7358 Y144.6485
G01 X5.7567 Y144.6493
G01 X5.7750 Y144.6495
G01 X93.5450 Y144.6495
G01 X93.5726 Y144.6490
G01 X93.6026 Y144.6474
G01 X93.6392 Y144.6438
G01 X93.6599 Y144.6409
G01 X93.6780 Y144.6380
G01 X93.7141 Y144.6308
G01 X93.7344 Y144.6260
G01 X93.7699 Y144.6162
G01 X93.8048 Y144.6046
G01 X93.8243 Y144.5974
G01 X93.8414 Y144.5906
G01 X93.8750 Y144.5757
G01 X93.8938 Y144.5665
G01 X93.9101 Y144.5581
G01 X93.9421 Y144.5399
G01 X93.9599 Y144.5290
G01 X93.9905 Y144.5086
G01 X94.0054 Y144.4978
G01 X94.0220 Y144.4852
G01 X94.0364 Y144.4737
G01 X94.0642 Y144.4497
G01 X94.0795 Y144.4355
G01 X94.0927 Y144.4227
G01 X94.1180 Y144.3960
G01 X94.1319 Y144.3804
G01 X94.1437 Y144.3664
G01 X94.1664 Y144.3374
G01 X94.1786 Y144.3205
G01 X94.1890 Y144.3053
G01 X94.2087 Y144.2742
G01 X94.2192 Y144.2562
G01 X94.2281 Y144.2401
G01 X94.2365 Y144.2238
G01 X94.2457 Y144.2050
G01 X94.2533 Y144.1883
G01 X94.2674 Y144.1543
G01 X94.2806 Y144.1174
G01 X94.2862 Y144.0998
G01 X94.2960 Y144.0644
G01 X94.3008 Y144.0441
G01 X94.3046 Y144.0261
G01 X94.3109 Y143.9899
G01 X94.3138 Y143.9692
G01 X94.3174 Y143.9326
G01 X94.3185 Y143.9142
G01 X94.3193 Y143.8934
G01 X94.3195 Y143.8750
G01 X94.3195 Y5.7750
G01 X94.3190 Y5.7474
G01 X94.3174 Y5.7174
G01 X94.3138 Y5.6808
G01 X94.3109 Y5.6602
G01 X94.3080 Y5.6420
G01 X94.3008 Y5.6059
G01 X94.2960 Y5.5856
G01 X94.2862 Y5.5502
G01 X94.2746 Y5.5153
G01 X94.2674 Y5.4957
G01 X94.2533 Y5.4617
G01 X94.2457 Y5.4450
G01 X94.2365 Y5.4262
G01 X94.2281 Y5.4099
G01 X94.2099 Y5.3779
G01 X94.1990 Y5.3601
G01 X94.1786 Y5.3296
G01 X94.1678 Y5.3146
G01 X94.1552 Y5.2980
G01 X94.1437 Y5.2836
G01 X94.1197 Y5.2558
G01 X94.1055 Y5.2405
G01 X94.0927 Y5.2273
G01 X94.0660 Y5.2020
G01 X94.0504 Y5.1882
G01 X94.0364 Y5.1763
G01 X94.0074 Y5.1537
G01 X93.9905 Y5.1414
G01 X93.9753 Y5.1310
G01 X93.9442 Y5.1113
G01 X93.9262 Y5.1008
G01 X93.9101 Y5.0920
G01 X93.8938 Y5.0835
G01 X93.8750 Y5.0744
G01 X93.8583 Y5.0667
G01 X93.8243 Y5.0526
G01 X93.7874 Y5.0394
G01 X93.7522 Y5.0287
G01 X93.7344 Y5.0240
G01 X93.7141 Y5.0192
G01 X93.6962 Y5.0154
G01 X93.6599 Y5.0091
G01 X93.6392 Y5.0063
G01 X93.6026 Y5.0027
G01 X93.5842 Y5.0015
G01 X93.5634 Y5.0007
G01 X93.5450 Y5.0005
G01 X5.7750 Y5.0005
G01 X5.7566 Y5.0007
G01 X5.7358 Y5.0015
G01 X5.6991 Y5.0042
G01 X5.6808 Y5.0063
G01 X5.6602 Y5.0091
G01 X5.6239 Y5.0154
G01 X5.6059 Y5.0192
G01 X5.5856 Y5.0240
G01 X5.5502 Y5.0338
G01 X5.5153 Y5.0454
G01 X5.4957 Y5.0526
G01 X5.4786 Y5.0595
G01 X5.4617 Y5.0667
G01 X5.4428 Y5.0754
G01 X5.4099 Y5.0920
G01 X5.3938 Y5.1008
G01 X5.3758 Y5.1113
G01 X5.3447 Y5.1310
G01 X5.3295 Y5.1414
G01 X5.3127 Y5.1537
G01 X5.2836 Y5.1763
G01 X5.2558 Y5.2003
G01 X5.2405 Y5.2145
G01 X5.2145 Y5.2405
G01 X5.1881 Y5.2696
G01 X5.1648 Y5.2980
G01 X5.1414 Y5.3296
G01 X5.1210 Y5.3601
G01 X5.1008 Y5.3938
G01 X5.0835 Y5.4262
G01 X5.0667 Y5.4617
G01 X5.0526 Y5.4957
G01 X5.0394 Y5.5326
G01 X5.0287 Y5.5678
G01 X5.0192 Y5.6059
G01 X5.0120 Y5.6420
G01 X5.0063 Y5.6808
G01 X5.0027 Y5.7174
G01 X5.0014 Y5.7382
G00 X5.0014 Y5.7382
G01 F250.00
G01 Z-1.7000
G01 F2500.00
G01 X5.0005 Y5.7750
G01 X5.0005 Y143.8750
G01 X5.0010 Y143.9026
G01 X5.0027 Y143.9326
G01 X5.0042 Y143.9509
G01 X5.0087 Y143.9874
G01 X5.0120 Y144.0080
G01 X5.0192 Y144.0441
G01 X5.0240 Y144.0644
G01 X5.0339 Y144.0998
G01 X5.0454 Y144.1348
G01 X5.0526 Y144.1543
G01 X5.0667 Y144.1883
G01 X5.0744 Y144.2050
G01 X5.0835 Y144.2238
G01 X5.0919 Y144.2401
G01 X5.1101 Y144.2721
G01 X5.1210 Y144.2899
G01 X5.1414 Y144.3205
G01 X5.1522 Y144.3354
G01 X5.1648 Y144.3520
G01 X5.1763 Y144.3664
G01 X5.2003 Y144.3942
G01 X5.2145 Y144.4095
G01 X5.2405 Y144.4355
G01 X5.2540 Y144.4480
G01 X5.2696 Y144.4619
G01 X5.2837 Y144.4737
G01 X5.3127 Y144.4964
G01 X5.3295 Y144.5086
G01 X5.3447 Y144.5190
G01 X5.3758 Y144.5387
G01 X5.3938 Y144.5492
G01 X5.4099 Y144.5581
G01 X5.4262 Y144.5665
G01 X5.4450 Y144.5757
G01 X5.4617 Y144.5833
G01 X5.4957 Y144.5974
G01 X5.5153 Y144.6046
G01 X5.5502 Y144.6162
G01 X5.5679 Y144.6213
G01 X5.5880 Y144.6266
G01 X5.6059 Y144.6308
G01 X5.6420 Y144.6380
G01 X5.6808 Y144.6438
G01 X5.7174 Y144.6474
G01 X5.7358 Y144.6485
G01 X5.7567 Y144.6493
G01 X5.7750 Y144.6495
G01 X93.5450 Y144.6495
G01 X93.5726 Y144.6490
G01 X93.6026 Y144.6474
G01 X93.6392 Y144.6438
G01 X93.6599 Y144.6409
G01 X93.6780 Y144.6380
G01 X93.7141 Y144.6308
G01 X93.7344 Y144.6260
G01 X93.7699 Y144.6162
G01 X93.8048 Y144.6046
G01 X93.8243 Y144.5974
G01 X93.8414 Y144.5906
G01 X93.8750 Y144.5757
G01 X93.8938 Y144.5665
G01 X93.9101 Y144.5581
G01 X93.9421 Y144.5399
G01 X93.9599 Y144.5290
G01 X93.9905 Y144.5086
G01 X94.0054 Y144.4978
G01 X94.0220 Y144.4852
G01 X94.0364 Y144.4737
G01 X94.0642 Y144.4497
G01 X94.0795 Y144.4355
G01 X94.0927 Y144.4227
G01 X94.1180 Y144.3960
G01 X94.1319 Y144.3804
G01 X94.1437 Y144.3664
G01 X94.1664 Y144.3374
G01 X94.1786 Y144.3205
G01 X94.1890 Y144.3053
G01 X94.2087 Y144.2742
G01 X94.2192 Y144.2562
G01 X94.2281 Y144.2401
G01 X94.2365 Y144.2238
G01 X94.2457 Y144.2050
G01 X94.2533 Y144.1883
G01 X94.2674 Y144.1543
G01 X94.2806 Y144.1174
G01 X94.2862 Y144.0998
G01 X94.2960 Y144.0644
G01 X94.3008 Y144.0441
G01 X94.3046 Y144.0261
G01 X94.3109 Y143.9899
G01 X94.3138 Y143.9692
G01 X94.3174 Y143.9326
G01 X94.3185 Y143.9142
G01 X94.3193 Y143.8934
G01 X94.3195 Y143.8750
G01 X94.3195 Y5.7750
G01 X94.3190 Y5.7474
G01 X94.3174 Y5.7174
G01 X94.3138 Y5.6808
G01 X94.3109 Y5.6602
G01 X94.3080 Y5.6420
G01 X94.3008 Y5.6059
G01 X94.2960 Y5.5856
G01 X94.2862 Y5.5502
G01 X94.2746 Y5.5153
G01 X94.2674 Y5.4957
G01 X94.2533 Y5.4617
G01 X94.2457 Y5.4450
G01 X94.2365 Y5.4262
G01 X94.2281 Y5.4099
G01 X94.2099 Y5.3779
G01 X94.1990 Y5.3601
G01 X94.1786 Y5.3296
G01 X94.1678 Y5.3146
G01 X94.1552 Y5.2980
G01 X94.1437 Y5.2836
G01 X94.1197 Y5.2558
G01 X94.1055 Y5.2405
G01 X94.0927 Y5.2273
G01 X94.0660 Y5.2020
G01 X94.0504 Y5.1882
G01 X94.0364 Y5.1763
G01 X94.0074 Y5.1537
G01 X93.9905 Y5.1414
G01 X93.9753 Y5.1310
G01 X93.9442 Y5.1113
G01 X93.9262 Y5.1008
G01 X93.9101 Y5.0920
G01 X93.8938 Y5.0835
G01 X93.8750 Y5.0744
G01 X93.8583 Y5.0667
G01 X93.8243 Y5.0526
G01 X93.7874 Y5.0394
G01 X93.7522 Y5.0287
G01 X93.7344 Y5.0240
G01 X93.7141 Y5.0192
G01 X93.6962 Y5.0154
G01 X93.6599 Y5.0091
G01 X93.6392 Y5.0063
G01 X93.6026 Y5.0027
G01 X93.5842 Y5.0015
G01 X93.5634 Y5.0007
G01 X93.5450 Y5.0005
G01 X5.7750 Y5.0005
G01 X5.7566 Y5.0007
G01 X5.7358 Y5.0015
G01 X5.6991 Y5.0042
G01 X5.6808 Y5.0063
G01 X5.6602 Y5.0091
G01 X5.6239 Y5.0154
G01 X5.6059 Y5.0192
G01 X5.5856 Y5.0240
G01 X5.5502 Y5.0338
G01 X5.5153 Y5.0454
G01 X5.4957 Y5.0526
G01 X5.4786 Y5.0595
G01 X5.4617 Y5.0667
G01 X5.4428 Y5.0754
G01 X5.4099 Y5.0920
G01 X5.3938 Y5.1008
G01 X5.3758 Y5.1113
G01 X5.3447 Y5.1310
G01 X5.3295 Y5.1414
G01 X5.3127 Y5.1537
G01 X5.2836 Y5.1763
G01 X5.2558 Y5.2003
G01 X5.2405 Y5.2145
G01 X5.2145 Y5.2405
G01 X5.1881 Y5.2696
G01 X5.1648 Y5.2980
G01 X5.1414 Y5.3296
G01 X5.1210 Y5.3601
G01 X5.1008 Y5.3938
G01 X5.0835 Y5.4262
G01 X5.0667 Y5.4617
G01 X5.0526 Y5.4957
G01 X5.0394 Y5.5326
G01 X5.0287 Y5.5678
G01 X5.0192 Y5.6059
G01 X5.0120 Y5.6420
G01 X5.0063 Y5.6808
G01 X5.0027 Y5.7174
G01 X5.0014 Y5.7382
G00 Z0.5000
M05
G00 Z0.5000
G00 Z15.00
G00 X0.0 Y0.0

